;FLAVOR:Marlin
;TIME:12579
;Filament used: 7.70726m
;Layer height: 0.2
;MINX:72.05
;MINY:67.05
;MINZ:0.2
;MAXX:147.95
;MAXY:152.95
;MAXZ:10
;Generated with Cura_SteamEngine 4.13.1
M140 S70
M105
M190 S70
M104 S240
M105
M109 S240
M82 ;absolute extrusion mode
; Ender 3 Custom Start G-code
G92 E0 ; Reset Extruder
G28 ; Home all axes
G29 ; Auto bed-level (BL-Touch)
G1 Z2.0 F3000 ; Move Z Axis up little to prevent scratching of Heat Bed
G1 X0.1 Y20 Z0.3 F5000.0 ; Move to start position
G1 X0.1 Y200.0 Z0.3 F1500.0 E15 ; Draw the first line
G1 X0.4 Y200.0 Z0.3 F5000.0 ; Move to side a little
G1 X0.4 Y20 Z0.3 F1500.0 E30 ; Draw the second line
G92 E0 ; Reset Extruder
G1 Z2.0 F3000 ; Move Z Axis up little to prevent scratching of Heat Bed
G1 X5 Y20 Z0.3 F5000.0 ; Move over to prevent blob squish
G92 E0
G92 E0
G1 F2700 E-5
;LAYER_COUNT:50
;LAYER:0
M107
G0 F6000 X74.476 Y69.283 Z0.2
;TYPE:SKIRT
G1 F2700 E0
G1 F900 X75.076 Y68.758 E0.01989
G1 X75.726 Y68.296 E0.03978
G1 X76.419 Y67.902 E0.05967
G1 X77.148 Y67.579 E0.07956
G1 X77.906 Y67.331 E0.09945
G1 X78.684 Y67.16 E0.11932
G1 X79.476 Y67.067 E0.13921
G1 X80 Y67.05 E0.15229
G1 X140 Y67.05 E1.649
G1 X140.796 Y67.09 E1.66888
G1 X141.584 Y67.209 E1.68876
G1 X142.357 Y67.407 E1.70866
G1 X143.105 Y67.682 E1.72854
G1 X143.823 Y68.029 E1.74844
G1 X144.502 Y68.447 E1.76833
G1 X145.135 Y68.931 E1.7882
G1 X145.717 Y69.476 E1.80809
G1 X146.242 Y70.076 E1.82798
G1 X146.704 Y70.726 E1.84787
G1 X147.098 Y71.419 E1.86776
G1 X147.421 Y72.148 E1.88765
G1 X147.669 Y72.906 E1.90754
G1 X147.84 Y73.684 E1.92741
G1 X147.933 Y74.476 E1.94731
G1 X147.95 Y75 E1.96038
G1 X147.95 Y145 E3.70654
G1 X147.91 Y145.796 E3.72642
G1 X147.791 Y146.584 E3.7463
G1 X147.593 Y147.357 E3.76621
G1 X147.318 Y148.105 E3.78609
G1 X146.971 Y148.823 E3.80598
G1 X146.553 Y149.502 E3.82587
G1 X146.069 Y150.135 E3.84575
G1 X145.524 Y150.717 E3.86564
G1 X144.924 Y151.242 E3.88553
G1 X144.274 Y151.704 E3.90542
G1 X143.581 Y152.098 E3.9253
G1 X142.852 Y152.421 E3.94519
G1 X142.094 Y152.669 E3.96509
G1 X141.316 Y152.84 E3.98496
G1 X140.524 Y152.933 E4.00485
G1 X140 Y152.95 E4.01793
G1 X80 Y152.95 E5.51464
G1 X79.204 Y152.91 E5.53452
G1 X78.416 Y152.791 E5.5544
G1 X77.643 Y152.593 E5.5743
G1 X76.895 Y152.318 E5.59418
G1 X76.177 Y151.971 E5.61407
G1 X75.498 Y151.553 E5.63396
G1 X74.865 Y151.069 E5.65384
G1 X74.283 Y150.524 E5.67373
G1 X73.758 Y149.924 E5.69362
G1 X73.296 Y149.274 E5.71351
G1 X72.902 Y148.581 E5.7334
G1 X72.579 Y147.852 E5.75329
G1 X72.331 Y147.094 E5.77318
G1 X72.16 Y146.316 E5.79305
G1 X72.067 Y145.524 E5.81294
G1 X72.05 Y145 E5.82602
G1 X72.05 Y75 E7.57218
G1 X72.09 Y74.204 E7.59206
G1 X72.209 Y73.416 E7.61194
G1 X72.407 Y72.643 E7.63185
G1 X72.682 Y71.895 E7.65173
G1 X73.029 Y71.177 E7.67162
G1 X73.447 Y70.498 E7.69151
G1 X73.931 Y69.865 E7.71138
G1 X74.476 Y69.283 E7.73127
G0 F6000 X74.771 Y69.416
G1 F900 X75.368 Y68.912 E7.75076
G1 X76.014 Y68.47 E7.77029
G1 X76.702 Y68.098 E7.7898
G1 X77.423 Y67.797 E7.80929
G1 X78.172 Y67.572 E7.8288
G1 X78.94 Y67.424 E7.84831
G1 X80 Y67.35 E7.87481
G1 X140 Y67.35 E9.37152
G1 X140.781 Y67.39 E9.39103
G1 X141.554 Y67.509 E9.41054
G1 X142.311 Y67.707 E9.43006
G1 X143.043 Y67.981 E9.44955
G1 X143.744 Y68.329 E9.46908
G1 X144.405 Y68.746 E9.48857
G1 X145.021 Y69.228 E9.50808
G1 X145.584 Y69.771 E9.5276
G1 X146.088 Y70.368 E9.54708
G1 X146.53 Y71.014 E9.56661
G1 X146.902 Y71.702 E9.58612
G1 X147.203 Y72.423 E9.60561
G1 X147.428 Y73.172 E9.62512
G1 X147.576 Y73.94 E9.64463
G1 X147.65 Y75 E9.67114
G1 X147.65 Y145 E11.41729
G1 X147.61 Y145.781 E11.4368
G1 X147.491 Y146.554 E11.45631
G1 X147.293 Y147.311 E11.47583
G1 X147.019 Y148.043 E11.49533
G1 X146.671 Y148.744 E11.51485
G1 X146.254 Y149.405 E11.53434
G1 X145.772 Y150.021 E11.55386
G1 X145.229 Y150.584 E11.57337
G1 X144.632 Y151.088 E11.59286
G1 X143.986 Y151.53 E11.61238
G1 X143.298 Y151.902 E11.63189
G1 X142.577 Y152.203 E11.65138
G1 X141.828 Y152.428 E11.67089
G1 X141.06 Y152.576 E11.6904
G1 X140 Y152.65 E11.71691
G1 X80 Y152.65 E13.21361
G1 X79.219 Y152.61 E13.23312
G1 X78.446 Y152.491 E13.25263
G1 X77.689 Y152.293 E13.27215
G1 X76.957 Y152.019 E13.29165
G1 X76.256 Y151.671 E13.31117
G1 X75.595 Y151.254 E13.33067
G1 X74.979 Y150.772 E13.35018
G1 X74.416 Y150.229 E13.36969
G1 X73.912 Y149.632 E13.38918
G1 X73.47 Y148.986 E13.4087
G1 X73.098 Y148.298 E13.42821
G1 X72.797 Y147.577 E13.4477
G1 X72.572 Y146.828 E13.46721
G1 X72.424 Y146.06 E13.48672
G1 X72.35 Y145 E13.51323
G1 X72.35 Y75 E15.25939
G1 X72.39 Y74.219 E15.27889
G1 X72.509 Y73.446 E15.2984
G1 X72.707 Y72.689 E15.31792
G1 X72.981 Y71.957 E15.33742
G1 X73.329 Y71.256 E15.35694
G1 X73.746 Y70.595 E15.37644
G1 X74.228 Y69.979 E15.39595
G1 X74.771 Y69.416 E15.41546
G0 F6000 X75.065 Y69.553
G1 F900 X75.659 Y69.069 E15.43457
G1 X76.301 Y68.649 E15.45371
G1 X76.982 Y68.298 E15.47282
G1 X77.697 Y68.02 E15.49196
G1 X78.436 Y67.818 E15.51107
G1 X79.193 Y67.694 E15.5302
G1 X80 Y67.65 E15.55037
G1 X140 Y67.65 E17.04707
G1 X140.766 Y67.69 E17.06621
G1 X141.523 Y67.809 E17.08532
G1 X142.263 Y68.007 E17.10443
G1 X142.979 Y68.281 E17.12355
G1 X143.663 Y68.628 E17.14269
G1 X144.307 Y69.044 E17.16181
G1 X144.904 Y69.525 E17.18093
G1 X145.447 Y70.065 E17.20004
G1 X145.931 Y70.659 E17.21915
G1 X146.351 Y71.301 E17.23829
G1 X146.702 Y71.982 E17.2574
G1 X146.98 Y72.697 E17.27654
G1 X147.182 Y73.436 E17.29565
G1 X147.306 Y74.193 E17.31478
G1 X147.35 Y75 E17.33494
G1 X147.35 Y145 E19.0811
G1 X147.31 Y145.766 E19.10023
G1 X147.191 Y146.523 E19.11935
G1 X146.993 Y147.263 E19.13846
G1 X146.719 Y147.979 E19.15758
G1 X146.372 Y148.663 E19.17671
G1 X145.956 Y149.307 E19.19584
G1 X145.475 Y149.904 E19.21496
G1 X144.935 Y150.447 E19.23407
G1 X144.341 Y150.931 E19.25318
G1 X143.699 Y151.351 E19.27232
G1 X143.018 Y151.702 E19.29143
G1 X142.303 Y151.98 E19.31056
G1 X141.564 Y152.182 E19.32968
G1 X140.807 Y152.306 E19.34881
G1 X140 Y152.35 E19.36897
G1 X80 Y152.35 E20.86568
G1 X79.234 Y152.31 E20.88481
G1 X78.477 Y152.191 E20.90393
G1 X77.737 Y151.993 E20.92304
G1 X77.021 Y151.719 E20.94216
G1 X76.337 Y151.372 E20.96129
G1 X75.693 Y150.956 E20.98042
G1 X75.096 Y150.475 E20.99954
G1 X74.553 Y149.935 E21.01864
G1 X74.069 Y149.341 E21.03776
G1 X73.649 Y148.699 E21.05689
G1 X73.298 Y148.018 E21.07601
G1 X73.02 Y147.303 E21.09514
G1 X72.818 Y146.564 E21.11425
G1 X72.694 Y145.807 E21.13339
G1 X72.65 Y145 E21.15355
G1 X72.65 Y75 E22.89971
G1 X72.69 Y74.234 E22.91884
G1 X72.809 Y73.477 E22.93796
G1 X73.007 Y72.737 E22.95706
G1 X73.281 Y72.021 E22.97619
G1 X73.628 Y71.337 E22.99532
G1 X74.044 Y70.693 E23.01445
G1 X74.525 Y70.096 E23.03357
G1 X75.065 Y69.553 E23.05267
G0 F6000 X75.359 Y69.693
G1 F900 X75.95 Y69.229 E23.07142
G1 X76.587 Y68.831 E23.09015
G1 X77.262 Y68.503 E23.10887
G1 X77.968 Y68.249 E23.12759
G1 X78.698 Y68.071 E23.14633
G1 X79.442 Y67.972 E23.16506
G1 X80 Y67.95 E23.17899
G1 X140 Y67.95 E24.67569
G1 X140.75 Y67.99 E24.69443
G1 X141.491 Y68.109 E24.71315
G1 X142.215 Y68.307 E24.73187
G1 X142.914 Y68.581 E24.7506
G1 X143.58 Y68.927 E24.76932
G1 X144.206 Y69.342 E24.78806
G1 X144.784 Y69.821 E24.80678
G1 X145.307 Y70.359 E24.8255
G1 X145.771 Y70.95 E24.84424
G1 X146.169 Y71.587 E24.86298
G1 X146.497 Y72.262 E24.8817
G1 X146.751 Y72.968 E24.90042
G1 X146.929 Y73.698 E24.91916
G1 X147.028 Y74.442 E24.93788
G1 X147.05 Y75 E24.95181
G1 X147.05 Y145 E26.69797
G1 X147.01 Y145.75 E26.71671
G1 X146.891 Y146.491 E26.73543
G1 X146.693 Y147.215 E26.75415
G1 X146.419 Y147.914 E26.77288
G1 X146.073 Y148.58 E26.7916
G1 X145.658 Y149.206 E26.81034
G1 X145.179 Y149.784 E26.82906
G1 X144.641 Y150.307 E26.84778
G1 X144.05 Y150.771 E26.86652
G1 X143.413 Y151.169 E26.88526
G1 X142.738 Y151.497 E26.90398
G1 X142.032 Y151.751 E26.9227
G1 X141.302 Y151.929 E26.94144
G1 X140.558 Y152.028 E26.96016
G1 X140 Y152.05 E26.97409
G1 X80 Y152.05 E28.4708
G1 X79.25 Y152.01 E28.48953
G1 X78.509 Y151.891 E28.50825
G1 X77.785 Y151.693 E28.52698
G1 X77.086 Y151.419 E28.54571
G1 X76.42 Y151.073 E28.56443
G1 X75.794 Y150.658 E28.58316
G1 X75.216 Y150.179 E28.60189
G1 X74.693 Y149.641 E28.62061
G1 X74.229 Y149.05 E28.63935
G1 X73.831 Y148.413 E28.65809
G1 X73.503 Y147.738 E28.67681
G1 X73.249 Y147.032 E28.69552
G1 X73.071 Y146.302 E28.71427
G1 X72.972 Y145.558 E28.73299
G1 X72.95 Y145 E28.74692
G1 X72.95 Y75 E30.49308
G1 X72.99 Y74.25 E30.51181
G1 X73.109 Y73.509 E30.53053
G1 X73.307 Y72.785 E30.54926
G1 X73.581 Y72.086 E30.56798
G1 X73.927 Y71.42 E30.58671
G1 X74.342 Y70.794 E30.60544
G1 X74.821 Y70.216 E30.62417
G1 X75.359 Y69.693 E30.64288
G0 F6000 X75.117 Y70.339
G1 F900 X75.653 Y69.836 E30.66122
G1 X76.24 Y69.394 E30.67955
G1 X76.871 Y69.019 E30.69786
G1 X77.539 Y68.714 E30.71618
G1 X78.237 Y68.484 E30.73451
G1 X78.956 Y68.331 E30.75285
G1 X80 Y68.25 E30.77897
G1 X140 Y68.25 E32.27568
G1 X140.733 Y68.29 E32.29399
G1 X141.458 Y68.409 E32.31231
G1 X142.166 Y68.607 E32.33065
G1 X142.848 Y68.88 E32.34898
G1 X143.496 Y69.226 E32.3673
G1 X144.103 Y69.64 E32.38563
G1 X144.661 Y70.117 E32.40394
G1 X145.164 Y70.653 E32.42228
G1 X145.606 Y71.24 E32.44061
G1 X145.981 Y71.871 E32.45892
G1 X146.286 Y72.539 E32.47724
G1 X146.516 Y73.237 E32.49557
G1 X146.669 Y73.956 E32.51391
G1 X146.75 Y75 E32.54003
G1 X146.75 Y145 E34.28618
G1 X146.71 Y145.733 E34.3045
G1 X146.591 Y146.458 E34.32282
G1 X146.393 Y147.166 E34.34116
G1 X146.12 Y147.848 E34.35949
G1 X145.774 Y148.496 E34.37781
G1 X145.36 Y149.103 E34.39614
G1 X144.883 Y149.661 E34.41445
G1 X144.347 Y150.164 E34.43279
G1 X143.76 Y150.606 E34.45112
G1 X143.129 Y150.981 E34.46943
G1 X142.461 Y151.286 E34.48775
G1 X141.763 Y151.516 E34.50608
G1 X141.044 Y151.669 E34.52442
G1 X140 Y151.75 E34.55054
G1 X80 Y151.75 E36.04724
G1 X79.267 Y151.71 E36.06555
G1 X78.542 Y151.591 E36.08388
G1 X77.834 Y151.393 E36.10222
G1 X77.152 Y151.12 E36.12055
G1 X76.504 Y150.774 E36.13887
G1 X75.897 Y150.36 E36.1572
G1 X75.339 Y149.883 E36.17551
G1 X74.836 Y149.347 E36.19385
G1 X74.394 Y148.76 E36.21218
G1 X74.019 Y148.129 E36.23049
G1 X73.714 Y147.461 E36.2488
G1 X73.484 Y146.763 E36.26714
G1 X73.331 Y146.044 E36.28547
G1 X73.25 Y145 E36.31159
G1 X73.25 Y75 E38.05775
G1 X73.29 Y74.267 E38.07606
G1 X73.409 Y73.542 E38.09439
G1 X73.607 Y72.834 E38.11273
G1 X73.88 Y72.152 E38.13105
G1 X74.226 Y71.504 E38.14938
G1 X74.64 Y70.897 E38.16771
G1 X75.117 Y70.339 E38.18602
G0 F6000 X75.413 Y70.465
G1 F900 X75.946 Y69.984 E38.20393
G1 X76.528 Y69.564 E38.22183
G1 X77.154 Y69.212 E38.23975
G1 X77.815 Y68.931 E38.25766
G1 X78.503 Y68.726 E38.27557
G1 X79.21 Y68.599 E38.29349
G1 X80 Y68.55 E38.31323
G1 X140 Y68.55 E39.80994
G1 X140.717 Y68.59 E39.82785
G1 X141.425 Y68.709 E39.84576
G1 X142.115 Y68.907 E39.86367
G1 X142.78 Y69.18 E39.8816
G1 X143.409 Y69.525 E39.8995
G1 X143.997 Y69.938 E39.91742
G1 X144.535 Y70.413 E39.93532
G1 X145.016 Y70.946 E39.95323
G1 X145.436 Y71.528 E39.97114
G1 X145.788 Y72.154 E39.98905
G1 X146.069 Y72.815 E40.00697
G1 X146.274 Y73.503 E40.02488
G1 X146.401 Y74.21 E40.0428
G1 X146.45 Y75 E40.06254
G1 X146.45 Y145 E41.8087
G1 X146.41 Y145.717 E41.82661
G1 X146.291 Y146.425 E41.84452
G1 X146.093 Y147.115 E41.86243
G1 X145.82 Y147.78 E41.88036
G1 X145.475 Y148.409 E41.89825
G1 X145.062 Y148.997 E41.91618
G1 X144.587 Y149.535 E41.93408
G1 X144.054 Y150.016 E41.95199
G1 X143.472 Y150.436 E41.96989
G1 X142.846 Y150.788 E41.98781
G1 X142.185 Y151.069 E42.00573
G1 X141.497 Y151.274 E42.02363
G1 X140.79 Y151.401 E42.04155
G1 X140 Y151.45 E42.0613
G1 X80 Y151.45 E43.558
G1 X79.283 Y151.41 E43.57592
G1 X78.575 Y151.291 E43.59383
G1 X77.885 Y151.093 E43.61173
G1 X77.22 Y150.82 E43.62966
G1 X76.591 Y150.475 E43.64756
G1 X76.003 Y150.062 E43.66548
G1 X75.465 Y149.587 E43.68339
G1 X74.984 Y149.054 E43.7013
G1 X74.564 Y148.472 E43.7192
G1 X74.212 Y147.846 E43.73711
G1 X73.931 Y147.185 E43.75503
G1 X73.726 Y146.497 E43.77294
G1 X73.599 Y145.79 E43.79086
G1 X73.55 Y145 E43.8106
G1 X73.55 Y75 E45.55676
G1 X73.59 Y74.283 E45.57467
G1 X73.709 Y73.575 E45.59258
G1 X73.907 Y72.885 E45.61049
G1 X74.18 Y72.22 E45.62842
G1 X74.525 Y71.591 E45.64632
G1 X74.938 Y71.003 E45.66424
G1 X75.413 Y70.465 E45.68214
G0 F6000 X75.709 Y70.595
G1 F900 X76.238 Y70.135 E45.69963
G1 X76.816 Y69.738 E45.71712
G1 X77.436 Y69.41 E45.73462
G1 X78.089 Y69.155 E45.75211
G1 X78.766 Y68.975 E45.76958
G1 X79.46 Y68.874 E45.78707
G1 X80 Y68.85 E45.80056
G1 X140 Y68.85 E47.29726
G1 X140.7 Y68.89 E47.31475
G1 X141.391 Y69.009 E47.33225
G1 X142.064 Y69.207 E47.34974
G1 X142.71 Y69.479 E47.36723
G1 X143.321 Y69.823 E47.38472
G1 X143.888 Y70.235 E47.4022
G1 X144.405 Y70.709 E47.4197
G1 X144.865 Y71.238 E47.43719
G1 X145.262 Y71.816 E47.45468
G1 X145.59 Y72.436 E47.47218
G1 X145.845 Y73.089 E47.48966
G1 X146.025 Y73.766 E47.50714
G1 X146.126 Y74.46 E47.52463
G1 X146.15 Y75 E47.53812
G1 X146.15 Y145 E49.28427
G1 X146.11 Y145.7 E49.30176
G1 X145.991 Y146.391 E49.31925
G1 X145.793 Y147.064 E49.33675
G1 X145.521 Y147.71 E49.35424
G1 X145.177 Y148.321 E49.37173
G1 X144.765 Y148.888 E49.38921
G1 X144.291 Y149.405 E49.40671
G1 X143.762 Y149.865 E49.4242
G1 X143.184 Y150.262 E49.44169
G1 X142.564 Y150.59 E49.45919
G1 X141.911 Y150.845 E49.47667
G1 X141.234 Y151.025 E49.49415
G1 X140.54 Y151.126 E49.51164
G1 X140 Y151.15 E49.52512
G1 X80 Y151.15 E51.02183
G1 X79.3 Y151.11 E51.03932
G1 X78.609 Y150.991 E51.05681
G1 X77.936 Y150.793 E51.07431
G1 X77.29 Y150.521 E51.0918
G1 X76.679 Y150.177 E51.10929
G1 X76.112 Y149.765 E51.12677
G1 X75.595 Y149.291 E51.14427
G1 X75.135 Y148.762 E51.16175
G1 X74.738 Y148.184 E51.17925
G1 X74.41 Y147.564 E51.19674
G1 X74.155 Y146.911 E51.21423
G1 X73.975 Y146.234 E51.2317
G1 X73.874 Y145.54 E51.2492
G1 X73.85 Y145 E51.26268
G1 X73.85 Y75 E53.00884
G1 X73.89 Y74.3 E53.02633
G1 X74.009 Y73.609 E53.04382
G1 X74.207 Y72.936 E53.06132
G1 X74.479 Y72.29 E53.0788
G1 X74.823 Y71.679 E53.0963
G1 X75.235 Y71.112 E53.11378
G1 X75.709 Y70.595 E53.13128
G0 F6000 X76.003 Y70.728
G1 F900 X76.529 Y70.291 E53.14833
G1 X77.103 Y69.918 E53.16541
G1 X77.715 Y69.615 E53.18245
G1 X78.359 Y69.385 E53.1995
G1 X79.026 Y69.232 E53.21657
G1 X80 Y69.15 E53.24096
G1 X140 Y69.15 E54.73766
G1 X140.683 Y69.19 E54.75473
G1 X141.356 Y69.309 E54.77178
G1 X142.011 Y69.506 E54.78884
G1 X142.638 Y69.779 E54.8059
G1 X143.229 Y70.122 E54.82294
G1 X143.776 Y70.532 E54.84
G1 X144.272 Y71.003 E54.85706
G1 X144.709 Y71.529 E54.87412
G1 X145.082 Y72.103 E54.89119
G1 X145.385 Y72.715 E54.90823
G1 X145.615 Y73.359 E54.92529
G1 X145.768 Y74.026 E54.94236
G1 X145.85 Y75 E54.96674
G1 X145.85 Y145 E56.7129
G1 X145.81 Y145.683 E56.72996
G1 X145.691 Y146.356 E56.74701
G1 X145.494 Y147.011 E56.76407
G1 X145.221 Y147.638 E56.78113
G1 X144.878 Y148.229 E56.79818
G1 X144.468 Y148.776 E56.81523
G1 X143.997 Y149.272 E56.83229
G1 X143.471 Y149.709 E56.84935
G1 X142.897 Y150.082 E56.86643
G1 X142.285 Y150.385 E56.88346
G1 X141.641 Y150.615 E56.90052
G1 X140.974 Y150.768 E56.91759
G1 X140 Y150.85 E56.94198
G1 X80 Y150.85 E58.43868
G1 X79.317 Y150.81 E58.45575
G1 X78.644 Y150.691 E58.4728
G1 X77.989 Y150.494 E58.48986
G1 X77.362 Y150.221 E58.50692
G1 X76.771 Y149.878 E58.52396
G1 X76.224 Y149.468 E58.54102
G1 X75.728 Y148.997 E58.55808
G1 X75.291 Y148.471 E58.57514
G1 X74.918 Y147.897 E58.59221
G1 X74.615 Y147.285 E58.60925
G1 X74.385 Y146.641 E58.62631
G1 X74.232 Y145.974 E58.64338
G1 X74.15 Y145 E58.66776
G1 X74.15 Y75 E60.41392
G1 X74.19 Y74.317 E60.43098
G1 X74.309 Y73.644 E60.44803
G1 X74.506 Y72.989 E60.46509
G1 X74.779 Y72.362 E60.48215
G1 X75.122 Y71.771 E60.4992
G1 X75.532 Y71.224 E60.51625
G1 X76.003 Y70.728 E60.53331
G0 F6000 X76.298 Y70.865
G1 F900 X76.82 Y70.451 E60.54993
G1 X77.388 Y70.103 E60.56655
G1 X77.993 Y69.826 E60.58315
G1 X78.627 Y69.622 E60.59976
G1 X79.281 Y69.497 E60.61637
G1 X80 Y69.45 E60.63434
G1 X140 Y69.45 E62.13105
G1 X140.665 Y69.49 E62.14767
G1 X141.32 Y69.609 E62.16428
G1 X141.956 Y69.806 E62.18088
G1 X142.564 Y70.078 E62.1975
G1 X143.136 Y70.421 E62.21414
G1 X143.662 Y70.829 E62.23074
G1 X144.135 Y71.298 E62.24736
G1 X144.549 Y71.82 E62.26398
G1 X144.897 Y72.388 E62.28059
G1 X145.174 Y72.993 E62.29719
G1 X145.378 Y73.627 E62.31381
