;FLAVOR:Marlin
;TIME:12412
;Filament used: 5.52204m
;Layer height: 0.2
;MINX:54.248
;MINY:78.25
;MINZ:0.2
;MAXX:140.75
;MAXY:149.158
;MAXZ:55
;Generated with Cura_SteamEngine 4.13.1
M140 S70
M105
M190 S70
M104 S240
M105
M109 S240
M82 ;absolute extrusion mode
; Ender 3 Custom Start G-code
G92 E0 ; Reset Extruder
G28 ; Home all axes
G29 ; Auto bed-level (BL-Touch)
G1 Z2.0 F3000 ; Move Z Axis up little to prevent scratching of Heat Bed
G1 X0.1 Y20 Z0.3 F5000.0 ; Move to start position
G1 X0.1 Y200.0 Z0.3 F1500.0 E15 ; Draw the first line
G1 X0.4 Y200.0 Z0.3 F5000.0 ; Move to side a little
G1 X0.4 Y20 Z0.3 F1500.0 E30 ; Draw the second line
G92 E0 ; Reset Extruder
G1 Z2.0 F3000 ; Move Z Axis up little to prevent scratching of Heat Bed
G1 X5 Y20 Z0.3 F5000.0 ; Move over to prevent blob squish
G92 E0
G92 E0
G1 F1500 E-1.7
;LAYER_COUNT:275
;LAYER:0
M107
G0 F6000 X82.172 Y81.649 Z0.2
;TYPE:SKIRT
G1 F1500 E0
G1 F900 X82.835 Y81.001 E0.02313
G1 X83.552 Y80.413 E0.04626
G1 X84.317 Y79.889 E0.06939
G1 X85.124 Y79.433 E0.09251
G1 X85.967 Y79.047 E0.11564
G1 X86.841 Y78.737 E0.13877
G1 X87.738 Y78.502 E0.1619
G1 X88.652 Y78.346 E0.18503
G1 X89.674 Y78.265 E0.21061
G1 X89.998 Y78.255 E0.21869
G1 X90.33 Y78.25 E0.22697
G1 X129.293 Y78.25 E1.19891
G1 X130.145 Y78.261 E1.22016
G1 X131.071 Y78.314 E1.2433
G1 X131.988 Y78.447 E1.26642
G1 X132.891 Y78.659 E1.28955
G1 X133.772 Y78.947 E1.31267
G1 X134.625 Y79.31 E1.3358
G1 X135.444 Y79.746 E1.35894
G1 X136.222 Y80.25 E1.38207
G1 X136.953 Y80.819 E1.40518
G1 X137.633 Y81.45 E1.42832
G1 X138.256 Y82.136 E1.45143
G1 X138.818 Y82.874 E1.47457
G1 X139.314 Y83.657 E1.49769
G1 X139.74 Y84.481 E1.52083
G1 X140.094 Y85.337 E1.54394
G1 X140.373 Y86.222 E1.56709
G1 X140.575 Y87.127 E1.59022
G1 X140.698 Y88.046 E1.61335
G1 X140.737 Y88.708 E1.62989
G1 X140.746 Y89.028 E1.63787
G1 X140.75 Y89.33 E1.64541
G1 X140.749 Y106.946 E2.08484
G1 X140.739 Y107.648 E2.10235
G1 X140.686 Y108.574 E2.12549
G1 X140.553 Y109.491 E2.14861
G1 X140.342 Y110.394 E2.17174
G1 X140.053 Y111.275 E2.19487
G1 X139.69 Y112.128 E2.21799
G1 X139.255 Y112.947 E2.24112
G1 X138.751 Y113.725 E2.26425
G1 X138.181 Y114.457 E2.28739
G1 X137.551 Y115.137 E2.31051
G1 X136.984 Y115.659 E2.32974
G1 X135.988 Y116.511 E2.36244
G1 X135.611 Y116.824 E2.37466
G1 X133.725 Y118.488 E2.4374
G1 X131.883 Y120.207 E2.50025
G1 X130.076 Y121.992 E2.56361
G1 X128.346 Y123.801 E2.62605
G1 X126.632 Y125.696 E2.68979
G1 X125.014 Y127.592 E2.75196
G1 X123.423 Y129.567 E2.81523
G1 X121.894 Y131.579 E2.87826
G1 X120.422 Y133.632 E2.94128
G1 X119.015 Y135.718 E3.00405
G1 X117.656 Y137.86 E3.06732
G1 X116.38 Y140.005 E3.12958
G1 X115.125 Y142.257 E3.19389
G1 X114.45 Y143.508 E3.22935
G1 X113.974 Y144.304 E3.25249
G1 X113.432 Y145.056 E3.27561
G1 X112.827 Y145.759 E3.29875
G1 X112.163 Y146.406 E3.32188
G1 X111.447 Y146.994 E3.34499
G1 X110.682 Y147.519 E3.36813
G1 X109.875 Y147.975 E3.39125
G1 X109.032 Y148.36 E3.41437
G1 X108.158 Y148.671 E3.43751
G1 X107.261 Y148.906 E3.46064
G1 X106.347 Y149.062 E3.48377
G1 X105.324 Y149.143 E3.50937
G1 X105 Y149.153 E3.51746
G1 X104.668 Y149.158 E3.52574
G1 X65.566 Y149.157 E4.50114
G1 X64.868 Y149.148 E4.51856
G1 X63.943 Y149.096 E4.54167
G1 X63.025 Y148.965 E4.5648
G1 X62.122 Y148.755 E4.58793
G1 X61.24 Y148.468 E4.61106
G1 X60.387 Y148.105 E4.63419
G1 X59.568 Y147.671 E4.65731
G1 X58.789 Y147.168 E4.68044
G1 X58.056 Y146.6 E4.70357
G1 X57.376 Y145.97 E4.7267
G1 X56.752 Y145.285 E4.74981
G1 X56.189 Y144.548 E4.77294
G1 X55.692 Y143.765 E4.79608
G1 X55.264 Y142.942 E4.81922
G1 X54.909 Y142.086 E4.84234
G1 X54.629 Y141.202 E4.86547
G1 X54.426 Y140.298 E4.88858
G1 X54.302 Y139.379 E4.91171
G1 X54.261 Y138.689 E4.92895
G1 X54.252 Y138.356 E4.93726
G1 X54.248 Y138.066 E4.9445
G1 X54.249 Y120.462 E5.38363
G1 X54.259 Y119.76 E5.40115
G1 X54.312 Y118.834 E5.42428
G1 X54.445 Y117.917 E5.4474
G1 X54.656 Y117.014 E5.47053
G1 X54.945 Y116.133 E5.49366
G1 X55.308 Y115.28 E5.51678
G1 X55.743 Y114.461 E5.53991
G1 X56.247 Y113.683 E5.56304
G1 X56.817 Y112.951 E5.58618
G1 X57.447 Y112.271 E5.60931
G1 X58.014 Y111.749 E5.62853
G1 X59.01 Y110.897 E5.66123
G1 X59.387 Y110.584 E5.67345
G1 X61.273 Y108.92 E5.73619
G1 X63.115 Y107.201 E5.79904
G1 X64.922 Y105.416 E5.8624
G1 X66.652 Y103.607 E5.92484
G1 X68.366 Y101.712 E5.98858
G1 X69.984 Y99.816 E6.05075
G1 X71.575 Y97.841 E6.11402
G1 X73.104 Y95.829 E6.17705
G1 X74.576 Y93.776 E6.24007
G1 X75.983 Y91.69 E6.30284
G1 X77.342 Y89.548 E6.36612
G1 X78.618 Y87.403 E6.42837
G1 X79.896 Y85.108 E6.4939
G1 X80.549 Y83.899 E6.52818
G1 X81.024 Y83.103 E6.5513
G1 X81.567 Y82.351 E6.57444
G1 X82.172 Y81.649 E6.59756
G0 F6000 X82.417 Y81.826
G1 F900 X83.074 Y81.19 E6.62037
G1 X83.784 Y80.614 E6.64317
G1 X84.541 Y80.103 E6.66596
G1 X85.341 Y79.659 E6.68878
G1 X86.176 Y79.287 E6.71158
G1 X87.04 Y78.99 E6.73437
G1 X87.927 Y78.769 E6.75717
G1 X88.83 Y78.626 E6.77998
G1 X89.684 Y78.565 E6.80134
G1 X90.008 Y78.555 E6.80942
G1 X90.33 Y78.55 E6.81746
G1 X129.293 Y78.55 E7.78939
G1 X130.141 Y78.561 E7.81055
G1 X131.053 Y78.614 E7.83334
G1 X131.958 Y78.747 E7.85615
G1 X132.847 Y78.958 E7.87895
G1 X133.715 Y79.246 E7.90176
G1 X134.554 Y79.609 E7.92456
G1 X135.358 Y80.043 E7.94736
G1 X136.121 Y80.547 E7.97017
G1 X136.837 Y81.115 E7.99296
G1 X137.501 Y81.743 E8.01576
G1 X138.107 Y82.427 E8.03856
G1 X138.651 Y83.162 E8.06137
G1 X139.129 Y83.941 E8.08417
G1 X139.537 Y84.759 E8.10697
G1 X139.872 Y85.61 E8.12978
G1 X140.132 Y86.486 E8.15258
G1 X140.313 Y87.382 E8.17538
G1 X140.437 Y88.716 E8.2088
G1 X140.446 Y89.036 E8.21679
G1 X140.45 Y89.33 E8.22412
G1 X140.449 Y106.942 E8.66345
G1 X140.439 Y107.644 E8.68097
G1 X140.386 Y108.556 E8.70375
G1 X140.253 Y109.461 E8.72657
G1 X140.042 Y110.35 E8.74936
G1 X139.754 Y111.218 E8.77218
G1 X139.392 Y112.057 E8.79497
G1 X138.957 Y112.861 E8.81778
G1 X138.454 Y113.624 E8.84057
G1 X137.886 Y114.34 E8.86337
G1 X137.257 Y115.004 E8.88619
G1 X136.789 Y115.431 E8.90199
G1 X135.796 Y116.28 E8.93458
G1 X135.434 Y116.582 E8.94634
G1 X133.516 Y118.272 E9.01011
G1 X131.661 Y120.003 E9.0734
G1 X129.878 Y121.766 E9.13595
G1 X128.119 Y123.605 E9.19943
G1 X126.412 Y125.493 E9.26292
G1 X124.78 Y127.405 E9.32562
G1 X123.181 Y129.389 E9.38919
G1 X121.667 Y131.38 E9.45158
G1 X120.162 Y133.481 E9.51605
G1 X118.773 Y135.539 E9.57799
G1 X117.406 Y137.695 E9.64167
G1 X116.114 Y139.866 E9.70469
G1 X114.859 Y142.118 E9.769
G1 X114.186 Y143.366 E9.80437
G1 X113.716 Y144.15 E9.82717
G1 X113.18 Y144.89 E9.84996
G1 X112.582 Y145.581 E9.87276
G1 X111.925 Y146.217 E9.89557
G1 X111.215 Y146.793 E9.91838
G1 X110.458 Y147.305 E9.94117
G1 X109.658 Y147.748 E9.96398
G1 X108.823 Y148.12 E9.98679
G1 X107.959 Y148.418 E10.00959
G1 X107.072 Y148.639 E10.03239
G1 X106.169 Y148.781 E10.05519
G1 X105.314 Y148.843 E10.07657
G1 X104.99 Y148.853 E10.08466
G1 X104.668 Y148.858 E10.09269
G1 X65.57 Y148.857 E11.068
G1 X64.872 Y148.848 E11.08541
G1 X63.96 Y148.796 E11.1082
G1 X63.055 Y148.665 E11.13101
G1 X62.165 Y148.455 E11.15382
G1 X61.297 Y148.168 E11.17662
G1 X60.458 Y147.807 E11.19941
G1 X59.653 Y147.373 E11.22222
G1 X58.889 Y146.871 E11.24503
G1 X58.172 Y146.304 E11.26783
G1 X57.508 Y145.676 E11.29063
G1 X56.9 Y144.993 E11.31344
G1 X56.355 Y144.26 E11.33622
G1 X55.876 Y143.481 E11.35903
G1 X55.467 Y142.664 E11.38182
G1 X55.131 Y141.814 E11.40462
G1 X54.87 Y140.937 E11.42745
G1 X54.687 Y140.042 E11.45024
G1 X54.561 Y138.681 E11.48433
G1 X54.552 Y138.348 E11.49264
G1 X54.548 Y138.066 E11.49968
G1 X54.549 Y120.466 E11.93871
G1 X54.559 Y119.764 E11.95622
G1 X54.612 Y118.852 E11.97901
G1 X54.745 Y117.947 E12.00183
G1 X54.956 Y117.058 E12.02462
G1 X55.244 Y116.19 E12.04744
G1 X55.606 Y115.351 E12.07023
G1 X56.041 Y114.547 E12.09303
G1 X56.544 Y113.784 E12.11583
G1 X57.112 Y113.068 E12.13863
G1 X57.741 Y112.404 E12.16144
G1 X58.209 Y111.977 E12.17725
G1 X59.202 Y111.128 E12.20984
G1 X59.564 Y110.826 E12.2216
G1 X61.482 Y109.136 E12.28536
G1 X63.337 Y107.405 E12.34866
G1 X65.12 Y105.642 E12.4112
G1 X66.879 Y103.803 E12.47468
G1 X68.586 Y101.915 E12.53818
G1 X70.218 Y100.003 E12.60088
G1 X71.817 Y98.019 E12.66445
G1 X73.331 Y96.028 E12.72684
G1 X74.836 Y93.927 E12.79131
G1 X76.225 Y91.869 E12.85324
G1 X77.592 Y89.713 E12.91693
G1 X78.884 Y87.542 E12.97995
G1 X80.131 Y85.306 E13.04381
G1 X80.813 Y84.042 E13.07964
G1 X81.282 Y83.257 E13.10245
G1 X81.818 Y82.517 E13.12524
G1 X82.417 Y81.826 E13.14805
G0 F6000 X82.662 Y82.004
G1 F900 X83.312 Y81.38 E13.17053
G1 X84.015 Y80.817 E13.193
G1 X84.765 Y80.318 E13.21547
G1 X85.556 Y79.887 E13.23794
G1 X86.383 Y79.529 E13.26042
G1 X87.238 Y79.245 E13.28289
G1 X88.114 Y79.038 E13.30535
G1 X89.006 Y78.909 E13.32783
G1 X89.693 Y78.865 E13.345
G1 X90.017 Y78.855 E13.35309
G1 X90.33 Y78.85 E13.3609
G1 X129.293 Y78.85 E14.33283
G1 X130.136 Y78.861 E14.35386
G1 X131.036 Y78.914 E14.37635
G1 X131.927 Y79.046 E14.39882
G1 X132.803 Y79.257 E14.4213
G1 X133.656 Y79.545 E14.44376
G1 X134.481 Y79.907 E14.46623
G1 X135.271 Y80.341 E14.48871
G1 X136.019 Y80.844 E14.5112
G1 X136.719 Y81.41 E14.53366
G1 X137.366 Y82.037 E14.55613
G1 X137.956 Y82.718 E14.57861
G1 X138.482 Y83.449 E14.60107
G1 X138.942 Y84.224 E14.62355
G1 X139.331 Y85.036 E14.64601
G1 X139.646 Y85.88 E14.66848
G1 X139.886 Y86.749 E14.69097
G1 X140.047 Y87.635 E14.71344
G1 X140.137 Y88.725 E14.74072
G1 X140.146 Y89.045 E14.74871
G1 X140.15 Y89.33 E14.75582
G1 X140.149 Y106.938 E15.19505
G1 X140.139 Y107.64 E15.21256
G1 X140.086 Y108.539 E15.23503
G1 X139.954 Y109.43 E15.25749
G1 X139.743 Y110.306 E15.27997
G1 X139.455 Y111.16 E15.30245
G1 X139.093 Y111.984 E15.3249
G1 X138.659 Y112.774 E15.34739
G1 X138.157 Y113.522 E15.36986
G1 X137.59 Y114.222 E15.39233
G1 X136.964 Y114.87 E15.41481
G1 X136.593 Y115.203 E15.42724
G1 X135.604 Y116.049 E15.45971
G1 X135.218 Y116.37 E15.47223
G1 X133.325 Y118.039 E15.53519
G1 X131.476 Y119.765 E15.59828
G1 X129.662 Y121.557 E15.66189
G1 X127.893 Y123.407 E15.72574
G1 X126.189 Y125.291 E15.78911
G1 X124.549 Y127.213 E15.85213
G1 X122.95 Y129.198 E15.91572
G1 X121.416 Y131.215 E15.97893
G1 X119.93 Y133.289 E16.04257
G1 X118.51 Y135.394 E16.10591
G1 X117.154 Y137.531 E16.16905
G1 X115.855 Y139.715 E16.23244
G1 X114.593 Y141.979 E16.29709
G1 X113.922 Y143.223 E16.33235
G1 X113.459 Y143.996 E16.35483
G1 X112.929 Y144.724 E16.37729
G1 X112.337 Y145.403 E16.39976
G1 X111.687 Y146.027 E16.42224
G1 X110.984 Y146.591 E16.44472
G1 X110.234 Y147.09 E16.46719
G1 X109.443 Y147.52 E16.48965
G1 X108.616 Y147.879 E16.51214
G1 X107.761 Y148.163 E16.53462
G1 X106.884 Y148.37 E16.55709
G1 X105.993 Y148.499 E16.57955
G1 X105.305 Y148.543 E16.59675
G1 X104.981 Y148.553 E16.60483
G1 X104.668 Y148.558 E16.61264
G1 X65.574 Y148.557 E17.58785
G1 X64.876 Y148.548 E17.60526
G1 X63.977 Y148.497 E17.62772
G1 X63.085 Y148.365 E17.65021
G1 X62.209 Y148.156 E17.67268
G1 X61.355 Y147.869 E17.69515
G1 X60.53 Y147.508 E17.71762
G1 X59.74 Y147.075 E17.74009
G1 X58.991 Y146.574 E17.76257
G1 X58.29 Y146.008 E17.78504
G1 X57.642 Y145.383 E17.8075
G1 X57.051 Y144.702 E17.82999
G1 X56.524 Y143.972 E17.85245
G1 X56.063 Y143.198 E17.87493
G1 X55.673 Y142.386 E17.8974
G1 X55.356 Y141.543 E17.91986
G1 X55.115 Y140.674 E17.94236
G1 X54.953 Y139.788 E17.96483
G1 X54.861 Y138.673 E17.99273
G1 X54.852 Y138.34 E18.00104
G1 X54.848 Y138.066 E18.00788
G1 X54.849 Y120.47 E18.44681
G1 X54.859 Y119.768 E18.46433
G1 X54.912 Y118.869 E18.48679
G1 X55.044 Y117.978 E18.50926
G1 X55.255 Y117.102 E18.53174
G1 X55.543 Y116.248 E18.55422
G1 X55.905 Y115.424 E18.57667
G1 X56.339 Y114.634 E18.59915
G1 X56.841 Y113.886 E18.62163
G1 X57.408 Y113.186 E18.6441
G1 X58.034 Y112.538 E18.66657
G1 X58.405 Y112.205 E18.67901
G1 X59.394 Y111.359 E18.71147
G1 X59.78 Y111.038 E18.724
G1 X61.673 Y109.369 E18.78695
G1 X63.525 Y107.64 E18.85015
G1 X65.336 Y105.851 E18.91365
G1 X67.105 Y104.001 E18.97751
G1 X68.809 Y102.117 E19.04087
G1 X70.449 Y100.195 E19.1039
G1 X72.048 Y98.21 E19.16748
G1 X73.582 Y96.193 E19.23069
G1 X75.068 Y94.119 E19.29434
G1 X76.488 Y92.014 E19.35768
G1 X77.844 Y89.877 E19.42081
G1 X79.143 Y87.693 E19.4842
G1 X80.428 Y85.387 E19.55005
G1 X81.077 Y84.184 E19.58415
G1 X81.54 Y83.411 E19.60663
G1 X82.069 Y82.683 E19.62908
G1 X82.662 Y82.004 E19.65156
G1 F1500 E17.95156
;MESH:SwitchHolderPerpendicular-D3V-15-1C5-Body.stl
G0 F6000 X78.962 Y123.322
G0 X79.07 Y121.467
G0 X80.716 Y122.969
G0 X81.13 Y123.436
G0 X81.421 Y123.99
G0 X81.57 Y124.597
G0 X81.57 Y125.219
G0 X81.421 Y125.826
G0 X81.187 Y126.274
G0 X79.788 Y128.119
;TYPE:WALL-INNER
G1 F1500 E19.65156
G1 F900 X80.536 Y127.837 E19.6715
G1 X81.19 Y127.383 E19.69136
G1 X81.721 Y126.788 E19.71126
G1 X82.092 Y126.08 E19.7312
G1 X82.281 Y125.305 E19.7511
G1 X82.281 Y124.511 E19.7709
G1 X82.092 Y123.736 E19.7908
G1 X81.721 Y123.028 E19.81074
G1 X81.19 Y122.433 E19.83063
G1 X80.536 Y121.979 E19.85049
G1 X79.788 Y121.697 E19.87043
G1 X79.061 Y121.608 E19.8887
G1 X70.935 Y121.608 E20.09141
G1 X70.207 Y121.697 E20.1097
G1 X69.459 Y121.981 E20.12966
G1 X68.806 Y122.433 E20.14947
G1 X68.275 Y123.028 E20.16937
G1 X67.904 Y123.735 E20.18928
G1 X67.714 Y124.511 E20.20921
G1 X67.714 Y125.305 E20.22902
G1 X67.904 Y126.081 E20.24895
G1 X68.275 Y126.788 E20.26887
G1 X68.806 Y127.383 E20.28876
G1 X69.459 Y127.835 E20.30857
G1 X70.207 Y128.119 E20.32853
G1 X70.935 Y128.208 E20.34682
G1 X79.061 Y128.208 E20.54953
G1 X79.788 Y128.119 E20.5678
G0 F6000 X79.716 Y127.826
G1 F900 X80.395 Y127.569 E20.58591
G1 X80.99 Y127.157 E20.60396
G1 X81.472 Y126.616 E20.62204
G1 X81.809 Y125.973 E20.64014
G1 X81.981 Y125.269 E20.65822
G1 X81.981 Y124.547 E20.67623
G1 X81.809 Y123.843 E20.69431
G1 X81.472 Y123.2 E20.71242
G1 X80.99 Y122.659 E20.73049
G1 X80.395 Y122.247 E20.74855
G1 X79.716 Y121.99 E20.76666
G1 X79.043 Y121.908 E20.78357
G1 X70.953 Y121.908 E20.98538
G1 X70.279 Y121.99 E21.00231
G1 X69.6 Y122.248 E21.02043
G1 X69.006 Y122.659 E21.03845
G1 X68.524 Y123.2 E21.05653
G1 X68.187 Y123.842 E21.07461
G1 X68.014 Y124.547 E21.09272
G1 X68.014 Y125.269 E21.11073
G1 X68.187 Y125.974 E21.12884
G1 X68.524 Y126.616 E21.14693
G1 X69.006 Y127.157 E21.165
G1 X69.6 Y127.568 E21.18302
G1 X70.279 Y127.826 E21.20114
G1 X70.953 Y127.908 E21.21808
G1 X79.043 Y127.908 E21.41988
G1 X79.716 Y127.826 E21.43679
G0 F6000 X79.644 Y127.533
G1 F900 X80.254 Y127.301 E21.45307
G1 X80.79 Y126.931 E21.46932
G1 X81.223 Y126.444 E21.48558
G1 X81.526 Y125.866 E21.50186
G1 X81.681 Y125.233 E21.51811
G1 X81.681 Y124.583 E21.53433
G1 X81.526 Y123.95 E21.55058
G1 X81.223 Y123.372 E21.56686
G1 X80.79 Y122.885 E21.58312
G1 X80.254 Y122.515 E21.59936
G1 X79.644 Y122.283 E21.61564
G1 X79.025 Y122.208 E21.6312
G1 X70.971 Y122.208 E21.83211
G1 X70.351 Y122.283 E21.84769
G1 X69.741 Y122.515 E21.86397
G1 X69.206 Y122.885 E21.88019
G1 X68.773 Y123.372 E21.89645
G1 X68.47 Y123.949 E21.9127
G1 X68.314 Y124.583 E21.92899
G1 X68.314 Y125.233 E21.94521
G1 X68.47 Y125.867 E21.96149
G1 X68.773 Y126.444 E21.97775
G1 X69.206 Y126.931 E21.99401
G1 X69.741 Y127.301 E22.01023
G1 X70.351 Y127.533 E22.02651
G1 X70.971 Y127.608 E22.04209
G1 X79.025 Y127.608 E22.243
G1 X79.644 Y127.533 E22.25855
G0 F6000 X79.572 Y127.24
;TYPE:WALL-OUTER
G1 F900 X80.113 Y127.034 E22.27299
G1 X80.59 Y126.705 E22.28745
G1 X80.974 Y126.272 E22.30188
G1 X81.243 Y125.759 E22.31633
G1 X81.381 Y125.197 E22.33077
G1 X81.381 Y124.619 E22.34519
G1 X81.243 Y124.057 E22.35962
G1 X80.974 Y123.544 E22.37407
G1 X80.59 Y123.111 E22.38851
G1 X80.113 Y122.782 E22.40296
G1 X79.572 Y122.576 E22.4174
G1 X79.007 Y122.508 E22.4316
G1 X70.989 Y122.508 E22.63161
G1 X70.423 Y122.576 E22.64583
G1 X69.882 Y122.782 E22.66027
G1 X69.406 Y123.111 E22.6747
G1 X69.022 Y123.544 E22.68914
G1 X68.753 Y124.056 E22.70357
G1 X68.614 Y124.619 E22.71803
G1 X68.614 Y125.197 E22.73245
G1 X68.753 Y125.76 E22.74692
G1 X69.022 Y126.272 E22.76135
G1 X69.406 Y126.705 E22.77578
G1 X69.882 Y127.034 E22.79022
G1 X70.423 Y127.24 E22.80466
G1 X70.989 Y127.308 E22.81888
G1 X79.007 Y127.308 E23.01889
G1 X79.572 Y127.24 E23.03308
G0 F6000 X79.651 Y127.56
G1 F1500 E21.33308
G0 F6000 X81.838 Y126.869
G0 X80.301 Y125.804
G0 X89.695 Y125.804
G0 X88.158 Y126.869
