;FLAVOR:Marlin
;TIME:15632
;Filament used: 9.29033m
;Layer height: 0.2
;MINX:24.25
;MINY:69.25
;MINZ:0.2
;MAXX:195.75
;MAXY:150.75
;MAXZ:20
;Generated with Cura_SteamEngine 4.13.1
M140 S70
M105
M190 S70
M104 S240
M105
M109 S240
M82 ;absolute extrusion mode
; Ender 3 Custom Start G-code
G92 E0 ; Reset Extruder
G28 ; Home all axes
G29 ; Auto bed-level (BL-Touch)
G1 Z2.0 F3000 ; Move Z Axis up little to prevent scratching of Heat Bed
G1 X0.1 Y20 Z0.3 F5000.0 ; Move to start position
G1 X0.1 Y200.0 Z0.3 F1500.0 E15 ; Draw the first line
G1 X0.4 Y200.0 Z0.3 F5000.0 ; Move to side a little
G1 X0.4 Y20 Z0.3 F1500.0 E30 ; Draw the second line
G92 E0 ; Reset Extruder
G1 Z2.0 F3000 ; Move Z Axis up little to prevent scratching of Heat Bed
G1 X5 Y20 Z0.3 F5000.0 ; Move over to prevent blob squish
G92 E0
G92 E0
G1 F1500 E-1.7
;LAYER_COUNT:100
;LAYER:0
M107
G0 F6000 X30.472 Y70.263 Z0.2
;TYPE:SKIRT
G1 F1500 E0
G1 F900 X31.328 Y69.909 E0.02311
G1 X32.212 Y69.629 E0.04624
G1 X33.117 Y69.427 E0.06937
G1 X34.036 Y69.303 E0.0925
G1 X34.708 Y69.263 E0.10929
G1 X35.029 Y69.254 E0.1173
G1 X35.33 Y69.25 E0.12481
G1 X68.305 Y69.25 E0.94738
G1 X69.179 Y69.262 E0.96918
G1 X70.105 Y69.317 E0.99232
G1 X71.022 Y69.451 E1.01544
G1 X71.925 Y69.663 E1.03858
G1 X72.805 Y69.953 E1.06169
G1 X73.294 Y70.151 E1.07485
G1 X74.329 Y70.601 E1.103
G1 X76.739 Y71.609 E1.16817
G1 X79.106 Y72.523 E1.23146
G1 X81.476 Y73.356 E1.29413
G1 X83.879 Y74.13 E1.3571
G1 X86.306 Y74.835 E1.42015
G1 X88.747 Y75.471 E1.48307
G1 X91.218 Y76.04 E1.54632
G1 X93.675 Y76.534 E1.60884
G1 X96.189 Y76.963 E1.67246
G1 X98.662 Y77.316 E1.73477
G1 X101.169 Y77.601 E1.79771
G1 X103.667 Y77.813 E1.86025
G1 X106.215 Y77.958 E1.92391
G1 X108.743 Y78.03 E1.987
G1 X111.245 Y78.03 E2.04941
G1 X113.792 Y77.958 E2.11297
G1 X116.308 Y77.816 E2.17584
G1 X118.818 Y77.603 E2.23867
G1 X121.317 Y77.319 E2.30141
G1 X123.829 Y76.962 E2.3647
G1 X126.311 Y76.536 E2.42752
G1 X128.745 Y76.05 E2.48944
G1 X131.275 Y75.467 E2.5542
G1 X133.651 Y74.848 E2.61545
G1 X136.114 Y74.133 E2.67943
G1 X138.524 Y73.358 E2.74258
G1 X140.914 Y72.515 E2.8058
G1 X143.222 Y71.625 E2.8675
G1 X145.591 Y70.637 E2.93153
G1 X146.153 Y70.387 E2.94687
G1 X146.747 Y70.132 E2.963
G1 X147.614 Y69.803 E2.98613
G1 X148.506 Y69.55 E3.00926
G1 X149.417 Y69.375 E3.0324
G1 X150.604 Y69.267 E3.06213
G1 X151.038 Y69.255 E3.07296
G1 X151.52 Y69.25 E3.08499
G1 X184.447 Y69.251 E3.90635
G1 X185.145 Y69.261 E3.92377
G1 X186.071 Y69.314 E3.9469
G1 X186.988 Y69.447 E3.97002
G1 X187.891 Y69.659 E3.99316
G1 X188.772 Y69.947 E4.01628
G1 X189.625 Y70.31 E4.0394
G1 X190.444 Y70.746 E4.06255
G1 X191.222 Y71.25 E4.08567
G1 X191.953 Y71.819 E4.10878
G1 X192.633 Y72.45 E4.13192
G1 X193.256 Y73.136 E4.15503
G1 X193.818 Y73.874 E4.17817
G1 X194.314 Y74.657 E4.20129
G1 X194.74 Y75.481 E4.22443
G1 X195.094 Y76.337 E4.24754
G1 X195.373 Y77.222 E4.27069
G1 X195.575 Y78.127 E4.29382
G1 X195.698 Y79.046 E4.31695
G1 X195.737 Y79.708 E4.33349
G1 X195.746 Y80.028 E4.34148
G1 X195.75 Y80.33 E4.34901
G1 X195.749 Y89.411 E4.57554
G1 X195.739 Y90.141 E4.59375
G1 X195.686 Y91.067 E4.61689
G1 X195.554 Y91.985 E4.64002
G1 X195.343 Y92.887 E4.66313
G1 X195.055 Y93.769 E4.68627
G1 X194.693 Y94.622 E4.70939
G1 X194.258 Y95.441 E4.73252
G1 X193.754 Y96.219 E4.75564
G1 X193.185 Y96.951 E4.77877
G1 X192.555 Y97.631 E4.8019
G1 X191.869 Y98.255 E4.82503
G1 X191.132 Y98.817 E4.84815
G1 X190.506 Y99.221 E4.86673
G1 X189.624 Y99.747 E4.89235
G1 X188.834 Y100.204 E4.91512
G1 X186.717 Y101.507 E4.97713
G1 X184.594 Y102.9 E5.04047
G1 X182.515 Y104.35 E5.1037
G1 X180.484 Y105.853 E5.16672
G1 X178.512 Y107.401 E5.22926
G1 X176.563 Y109.021 E5.29248
G1 X174.683 Y110.676 E5.35496
G1 X172.796 Y112.435 E5.41931
G1 X171.404 Y113.798 E5.46791
G1 X137.972 Y147.229 E6.6473
G1 X137.478 Y147.708 E6.66446
G1 X136.785 Y148.324 E6.68759
G1 X136.042 Y148.878 E6.71071
G1 X135.254 Y149.366 E6.73383
G1 X134.426 Y149.784 E6.75697
G1 X133.566 Y150.13 E6.78009
G1 X132.679 Y150.4 E6.80322
G1 X131.772 Y150.592 E6.82635
G1 X130.852 Y150.706 E6.84947
G1 X130.358 Y150.734 E6.86181
G1 X129.978 Y150.744 E6.8713
G1 X129.438 Y150.75 E6.88477
G1 X90.554 Y150.749 E7.85473
G1 X89.852 Y150.739 E7.87225
G1 X88.926 Y150.686 E7.89538
G1 X88.009 Y150.553 E7.9185
G1 X87.106 Y150.342 E7.94163
G1 X86.225 Y150.053 E7.96476
G1 X85.372 Y149.69 E7.98788
G1 X84.553 Y149.255 E8.01102
G1 X83.775 Y148.751 E8.03414
G1 X83.043 Y148.181 E8.05728
G1 X82.694 Y147.871 E8.06893
G1 X82.542 Y147.73 E8.0741
G1 X82.331 Y147.529 E8.08137
G1 X82.136 Y147.338 E8.08818
G1 X48.582 Y113.784 E9.27189
G1 X46.703 Y111.958 E9.33724
G1 X44.851 Y110.257 E9.39997
G1 X42.917 Y108.58 E9.46383
G1 X40.983 Y106.994 E9.52622
G1 X38.975 Y105.441 E9.58954
G1 X36.947 Y103.964 E9.65212
G1 X34.865 Y102.536 E9.7151
G1 X32.749 Y101.169 E9.77794
G1 X29.905 Y99.459 E9.86072
G1 X29.596 Y99.279 E9.86964
G1 X28.816 Y98.778 E9.89277
G1 X28.081 Y98.211 E9.91592
G1 X27.399 Y97.584 E9.93903
G1 X26.773 Y96.9 E9.96216
G1 X26.208 Y96.164 E9.98531
G1 X25.709 Y95.383 E10.00843
G1 X25.279 Y94.562 E10.03155
G1 X24.921 Y93.706 E10.05469
G1 X24.639 Y92.823 E10.07781
G1 X24.433 Y91.919 E10.10094
G1 X24.307 Y91.001 E10.12406
G1 X24.263 Y90.292 E10.14178
G1 X24.254 Y89.971 E10.14979
G1 X24.25 Y89.67 E10.1573
G1 X24.251 Y80.529 E10.38532
G1 X24.26 Y79.864 E10.40191
G1 X24.312 Y78.938 E10.42505
G1 X24.445 Y78.02 E10.44818
G1 X24.655 Y77.117 E10.47131
G1 X24.943 Y76.236 E10.49443
G1 X25.305 Y75.383 E10.51755
G1 X25.74 Y74.564 E10.54068
G1 X26.244 Y73.785 E10.56383
G1 X26.813 Y73.053 E10.58695
G1 X27.443 Y72.373 E10.61008
G1 X28.129 Y71.749 E10.63321
G1 X28.866 Y71.187 E10.65633
G1 X29.649 Y70.691 E10.67945
G1 X30.472 Y70.263 E10.70259
G0 F6000 X30.75 Y70.466
G1 F900 X31.601 Y70.13 E10.72541
G1 X32.477 Y69.87 E10.74821
G1 X33.373 Y69.688 E10.77101
G1 X34.716 Y69.563 E10.80466
G1 X35.037 Y69.554 E10.81267
G1 X35.33 Y69.55 E10.81998
G1 X68.305 Y69.55 E11.64255
G1 X69.175 Y69.562 E11.66425
G1 X70.087 Y69.616 E11.68704
G1 X70.991 Y69.75 E11.70984
G1 X71.88 Y69.962 E11.73263
G1 X72.748 Y70.252 E11.75546
G1 X73.174 Y70.426 E11.76694
G1 X74.157 Y70.853 E11.79368
G1 X76.651 Y71.897 E11.86112
G1 X79.003 Y72.805 E11.92401
G1 X81.39 Y73.644 E11.98713
G1 X83.777 Y74.413 E12.04968
G1 X86.219 Y75.123 E12.11312
G1 X88.663 Y75.759 E12.17612
G1 X91.164 Y76.335 E12.24014
G1 X93.637 Y76.833 E12.30307
G1 X96.133 Y77.259 E12.36623
G1 X98.618 Y77.613 E12.42885
G1 X101.146 Y77.9 E12.49231
G1 X103.658 Y78.114 E12.5552
G1 X106.19 Y78.258 E12.61846
G1 X108.734 Y78.33 E12.68195
G1 X111.253 Y78.33 E12.74479
G1 X113.818 Y78.257 E12.8088
G1 X116.314 Y78.117 E12.87116
G1 X118.844 Y77.901 E12.9345
G1 X121.356 Y77.616 E12.99756
G1 X123.856 Y77.261 E13.06055
G1 X126.383 Y76.828 E13.12451
G1 X128.84 Y76.336 E13.18701
G1 X131.303 Y75.769 E13.25006
G1 X133.78 Y75.125 E13.3139
G1 X136.184 Y74.426 E13.37635
G1 X138.61 Y73.646 E13.43992
G1 X141.017 Y72.797 E13.50359
G1 X143.309 Y71.914 E13.56486
G1 X145.744 Y70.898 E13.63068
G1 X146.272 Y70.662 E13.6451
G1 X146.866 Y70.407 E13.66123
G1 X147.721 Y70.084 E13.68403
G1 X148.601 Y69.836 E13.70683
G1 X149.499 Y69.667 E13.72963
G1 X150.615 Y69.567 E13.75758
G1 X151.041 Y69.555 E13.76821
G1 X151.52 Y69.55 E13.78016
G1 X184.443 Y69.551 E14.60143
G1 X185.141 Y69.561 E14.61884
G1 X186.053 Y69.614 E14.64163
G1 X186.958 Y69.747 E14.66445
G1 X187.847 Y69.958 E14.68724
G1 X188.715 Y70.246 E14.71005
G1 X189.554 Y70.609 E14.73286
G1 X190.358 Y71.043 E14.75565
G1 X191.121 Y71.547 E14.77846
G1 X191.837 Y72.115 E14.80126
G1 X192.501 Y72.743 E14.82405
G1 X193.107 Y73.427 E14.84685
G1 X193.651 Y74.162 E14.86966
G1 X194.129 Y74.941 E14.89246
G1 X194.537 Y75.759 E14.91526
G1 X194.872 Y76.61 E14.93808
G1 X195.132 Y77.486 E14.96087
G1 X195.313 Y78.382 E14.98367
G1 X195.437 Y79.716 E15.01709
G1 X195.446 Y80.036 E15.02508
G1 X195.45 Y80.33 E15.03241
G1 X195.449 Y89.407 E15.25884
G1 X195.439 Y90.137 E15.27705
G1 X195.387 Y91.05 E15.29986
G1 X195.254 Y91.954 E15.32265
G1 X195.044 Y92.844 E15.34547
G1 X194.756 Y93.712 E15.36828
G1 X194.394 Y94.551 E15.39107
G1 X193.96 Y95.355 E15.41386
G1 X193.457 Y96.119 E15.43668
G1 X192.889 Y96.835 E15.45948
G1 X192.261 Y97.499 E15.48228
G1 X191.578 Y98.106 E15.50507
G1 X190.844 Y98.651 E15.52788
G1 X190.352 Y98.963 E15.54241
G1 X189.474 Y99.487 E15.56792
G1 X188.702 Y99.933 E15.59016
G1 X186.545 Y101.262 E15.65336
G1 X184.416 Y102.658 E15.71686
G1 X182.356 Y104.094 E15.7795
G1 X180.295 Y105.62 E15.84347
G1 X178.309 Y107.178 E15.90644
G1 X176.386 Y108.778 E15.96884
G1 X174.456 Y110.477 E16.03298
G1 X172.614 Y112.194 E16.0958
G1 X171.194 Y113.584 E16.14537
G1 X137.763 Y147.013 E17.3247
G1 X137.269 Y147.492 E17.34186
G1 X136.586 Y148.099 E17.36466
G1 X135.852 Y148.644 E17.38746
G1 X135.073 Y149.123 E17.41027
G1 X134.256 Y149.532 E17.43307
G1 X133.406 Y149.868 E17.45587
G1 X132.529 Y150.128 E17.47868
G1 X131.634 Y150.311 E17.50147
G1 X130.348 Y150.434 E17.5337
G1 X129.975 Y150.444 E17.54301
G1 X129.438 Y150.45 E17.5564
G1 X90.558 Y150.449 E18.52627
G1 X89.856 Y150.439 E18.54378
G1 X88.944 Y150.386 E18.56657
G1 X88.039 Y150.253 E18.58939
G1 X87.15 Y150.042 E18.61218
G1 X86.282 Y149.754 E18.63499
G1 X85.443 Y149.392 E18.65779
G1 X84.639 Y148.957 E18.68059
G1 X83.876 Y148.454 E18.70339
G1 X82.898 Y147.651 E18.73495
G1 X82.746 Y147.51 E18.74012
G1 X82.541 Y147.314 E18.7472
G1 X82.269 Y147.047 E18.75671
G1 X48.791 Y113.569 E19.93773
G1 X46.92 Y111.75 E20.00283
G1 X45.02 Y110.006 E20.06716
G1 X43.129 Y108.366 E20.1296
G1 X41.161 Y106.752 E20.19309
G1 X39.16 Y105.205 E20.25618
G1 X37.126 Y103.723 E20.31896
G1 X35.039 Y102.292 E20.38209
G1 X32.894 Y100.906 E20.44579
G1 X30.024 Y99.18 E20.52933
G1 X29.747 Y99.019 E20.53733
G1 X28.978 Y98.525 E20.56012
G1 X28.255 Y97.965 E20.58294
G1 X27.584 Y97.344 E20.60574
G1 X26.97 Y96.667 E20.62854
G1 X26.417 Y95.939 E20.65135
G1 X25.93 Y95.166 E20.67414
G1 X25.513 Y94.353 E20.69693
G1 X25.168 Y93.506 E20.71974
G1 X24.898 Y92.633 E20.74254
G1 X24.706 Y91.739 E20.76535
G1 X24.593 Y90.832 E20.78815
G1 X24.563 Y90.284 E20.80184
G1 X24.554 Y89.963 E20.80985
G1 X24.55 Y89.67 E20.81716
G1 X24.551 Y80.533 E21.04508
G1 X24.56 Y79.868 E21.06167
G1 X24.612 Y78.955 E21.08448
G1 X24.744 Y78.05 E21.1073
G1 X24.955 Y77.161 E21.13009
G1 X25.242 Y76.293 E21.1529
G1 X25.604 Y75.454 E21.17569
G1 X26.038 Y74.649 E21.1985
G1 X26.541 Y73.886 E21.2213
G1 X27.108 Y73.169 E21.2441
G1 X27.736 Y72.505 E21.2669
G1 X28.42 Y71.898 E21.28971
G1 X29.154 Y71.353 E21.31252
G1 X29.933 Y70.875 E21.33532
G1 X30.75 Y70.466 E21.35811
G0 F6000 X31.028 Y70.672
G1 F900 X31.872 Y70.356 E21.38059
G1 X32.74 Y70.116 E21.40305
G1 X33.626 Y69.954 E21.42552
G1 X34.725 Y69.863 E21.45303
G1 X35.046 Y69.854 E21.46104
G1 X35.33 Y69.85 E21.46813
G1 X68.305 Y69.85 E22.29069
G1 X69.17 Y69.862 E22.31227
G1 X70.069 Y69.916 E22.33474
G1 X70.96 Y70.05 E22.35721
G1 X71.836 Y70.262 E22.3797
G1 X73.055 Y70.701 E22.41202
G1 X74.095 Y71.153 E22.4403
G1 X76.532 Y72.173 E22.5062
G1 X78.89 Y73.083 E22.56925
G1 X81.272 Y73.921 E22.63224
G1 X83.717 Y74.708 E22.69631
G1 X86.157 Y75.417 E22.7597
G1 X88.606 Y76.055 E22.82283
G1 X91.068 Y76.621 E22.88584
G1 X93.593 Y77.13 E22.9501
G1 X96.078 Y77.554 E23.01298
G1 X98.58 Y77.91 E23.07602
G1 X101.12 Y78.199 E23.13979
G1 X103.617 Y78.411 E23.2023
G1 X106.199 Y78.559 E23.26682
G1 X108.726 Y78.63 E23.32988
G1 X111.262 Y78.63 E23.39314
G1 X113.806 Y78.558 E23.45663
G1 X116.36 Y78.414 E23.52044
G1 X118.866 Y78.201 E23.58317
G1 X121.395 Y77.914 E23.64667
G1 X123.911 Y77.556 E23.71006
G1 X126.426 Y77.125 E23.77371
G1 X128.894 Y76.631 E23.8365
G1 X131.382 Y76.058 E23.90019
G1 X133.857 Y75.414 E23.96398
G1 X136.296 Y74.706 E24.02733
G1 X138.696 Y73.934 E24.09022
G1 X141.089 Y73.09 E24.15352
G1 X143.446 Y72.181 E24.21654
G1 X145.846 Y71.18 E24.2814
G1 X146.39 Y70.938 E24.29626
G1 X146.984 Y70.683 E24.31238
G1 X147.827 Y70.365 E24.33486
G1 X148.695 Y70.123 E24.35733
G1 X149.58 Y69.958 E24.37979
G1 X150.626 Y69.866 E24.40598
G1 X150.794 Y69.86 E24.41018
G1 X151.408 Y69.851 E24.4255
G1 X184.293 Y69.85 E25.24581
G1 X185.136 Y69.861 E25.26685
G1 X186.036 Y69.914 E25.28933
G1 X186.927 Y70.046 E25.3118
G1 X187.803 Y70.257 E25.33428
G1 X188.656 Y70.545 E25.35674
G1 X189.481 Y70.907 E25.37921
G1 X190.271 Y71.341 E25.4017
G1 X191.019 Y71.844 E25.42418
G1 X191.719 Y72.41 E25.44664
G1 X192.366 Y73.037 E25.46911
G1 X192.956 Y73.718 E25.49159
G1 X193.482 Y74.449 E25.51405
G1 X193.942 Y75.224 E25.53654
G1 X194.331 Y76.036 E25.559
G1 X194.646 Y76.88 E25.58147
G1 X194.886 Y77.749 E25.60396
G1 X195.047 Y78.635 E25.62642
G1 X195.137 Y79.725 E25.6537
G1 X195.146 Y80.045 E25.66169
G1 X195.15 Y80.33 E25.6688
G1 X195.149 Y89.403 E25.89512
G1 X195.139 Y90.133 E25.91334
G1 X195.087 Y91.032 E25.9358
G1 X194.955 Y91.924 E25.95829
G1 X194.745 Y92.8 E25.98076
G1 X194.457 Y93.653 E26.00322
G1 X194.096 Y94.479 E26.02571
G1 X193.662 Y95.268 E26.04817
G1 X193.16 Y96.016 E26.07064
G1 X192.594 Y96.717 E26.09312
G1 X191.968 Y97.365 E26.11559
G1 X191.287 Y97.955 E26.13807
G1 X190.198 Y98.706 E26.17107
G1 X189.324 Y99.227 E26.19645
G1 X188.544 Y99.678 E26.21893
G1 X186.382 Y101.009 E26.28226
G1 X184.254 Y102.405 E26.34574
G1 X182.18 Y103.851 E26.40881
G1 X180.122 Y105.374 E26.47268
G1 X178.128 Y106.939 E26.53591
G1 X176.188 Y108.553 E26.59886
G1 X174.265 Y110.245 E26.66276
G1 X172.391 Y111.992 E26.72667
G1 X170.984 Y113.37 E26.77579
G1 X137.555 Y146.798 E27.95507
G1 X137.061 Y147.277 E27.97224
G1 X136.387 Y147.875 E27.99471
G1 X135.662 Y148.41 E28.01719
G1 X134.893 Y148.88 E28.03967
G1 X134.086 Y149.279 E28.06213
G1 X133.246 Y149.605 E28.08461
G1 X132.381 Y149.856 E28.10707
G1 X131.497 Y150.028 E28.12954
G1 X130.338 Y150.134 E28.15857
G1 X129.971 Y150.144 E28.16773
G1 X129.438 Y150.15 E28.18102
G1 X90.562 Y150.149 E29.15079
G1 X89.86 Y150.139 E29.1683
G1 X88.961 Y150.086 E29.19077
G1 X88.07 Y149.954 E29.21324
G1 X87.194 Y149.743 E29.23571
G1 X86.34 Y149.455 E29.2582
G1 X85.516 Y149.093 E29.28065
G1 X84.726 Y148.659 E29.30313
G1 X83.978 Y148.157 E29.3256
G1 X83.102 Y147.431 E29.35398
G1 X82.95 Y147.29 E29.35916
G1 X82.751 Y147.1 E29.36602
G1 X82.481 Y146.835 E29.37546
G1 X49 Y113.354 E30.55659
G1 X47.12 Y111.527 E30.62198
G1 X45.225 Y109.786 E30.68618
G1 X43.324 Y108.138 E30.74893
G1 X41.343 Y106.513 E30.81285
G1 X39.347 Y104.97 E30.87578
G1 X37.274 Y103.461 E30.93974
G1 X35.222 Y102.053 E31.00182
G1 X33.066 Y100.66 E31.06585
G1 X30.164 Y98.915 E31.15032
G1 X29.898 Y98.76 E31.158
G1 X29.14 Y98.272 E31.18049
G1 X28.429 Y97.719 E31.20296
G1 X27.77 Y97.106 E31.22541
G1 X27.168 Y96.436 E31.24788
G1 X26.627 Y95.715 E31.27036
G1 X26.152 Y94.949 E31.29285
G1 X25.748 Y94.144 E31.31532
G1 X25.416 Y93.307 E31.33778
G1 X25.16 Y92.443 E31.36026
G1 X24.981 Y91.56 E31.38273
G1 X24.863 Y90.275 E31.41492
G1 X24.854 Y89.954 E31.42293
G1 X24.85 Y89.67 E31.43002
G1 X24.851 Y80.537 E31.65784
G1 X24.86 Y79.872 E31.67443
G1 X24.912 Y78.972 E31.69692
G1 X25.044 Y78.081 E31.71939
G1 X25.254 Y77.205 E31.74186
G1 X25.541 Y76.351 E31.76433
G1 X25.903 Y75.526 E31.7868
G1 X26.336 Y74.736 E31.80928
G1 X26.838 Y73.988 E31.83175
G1 X27.404 Y73.287 E31.85422
G1 X28.03 Y72.639 E31.8767
G1 X28.711 Y72.049 E31.89918
G1 X29.441 Y71.522 E31.92163
G1 X30.216 Y71.062 E31.94412
G1 X31.028 Y70.672 E31.96659
G1 F1500 E30.26659
;MESH:HalfAdapterSwitchHolder-Body.stl
G0 F6000 X69.634 Y79.347
G0 X80.555 Y106.596
G0 X118.415 Y134.059
G0 X116.565 Y134.262
G0 X119.511 Y137.264
;TYPE:WALL-INNER
G1 F1500 E31.96659
G1 F900 X120 Y137.303 E31.97882
G1 X120.498 Y137.264 E31.99128
G1 X120.976 Y137.153 E32.00353
G1 X121.433 Y136.974 E32.01577
G1 X121.864 Y136.726 E32.02817
G1 X122.249 Y136.417 E32.04049
G1 X122.583 Y136.058 E32.05272
G1 X122.863 Y135.648 E32.0651
G1 X123.075 Y135.202 E32.07742
G1 X123.219 Y134.732 E32.08968
G1 X123.294 Y134.245 E32.10198
G1 X123.294 Y133.749 E32.11435
G1 X123.219 Y133.259 E32.12671
G1 X123.073 Y132.791 E32.13894
G1 X122.858 Y132.345 E32.15129
G1 X122.579 Y131.937 E32.16362
G1 X122.242 Y131.576 E32.17594
G1 X121.856 Y131.269 E32.18825
G1 X121.432 Y131.024 E32.20046
G1 X120.968 Y130.841 E32.2129
G1 X120.487 Y130.733 E32.2252
