;FLAVOR:Marlin
;TIME:10365
;Filament used: 5.83055m
;Layer height: 0.2
;MINX:66.33
;MINY:53.58
;MINZ:0.2
;MAXX:153.67
;MAXY:166.752
;MAXZ:13
;Generated with Cura_SteamEngine 4.13.1
M140 S70
M105
M190 S70
M104 S240
M105
M109 S240
M82 ;absolute extrusion mode
; Ender 3 Custom Start G-code
G92 E0 ; Reset Extruder
G28 ; Home all axes
G29 ; Auto bed-level (BL-Touch)
G1 Z2.0 F3000 ; Move Z Axis up little to prevent scratching of Heat Bed
G1 X0.1 Y20 Z0.3 F5000.0 ; Move to start position
G1 X0.1 Y200.0 Z0.3 F1500.0 E15 ; Draw the first line
G1 X0.4 Y200.0 Z0.3 F5000.0 ; Move to side a little
G1 X0.4 Y20 Z0.3 F1500.0 E30 ; Draw the second line
G92 E0 ; Reset Extruder
G1 Z2.0 F3000 ; Move Z Axis up little to prevent scratching of Heat Bed
G1 X5 Y20 Z0.3 F5000.0 ; Move over to prevent blob squish
G92 E0
G92 E0
G1 F1500 E-1.7
;LAYER_COUNT:65
;LAYER:0
M107
G0 F6000 X69.024 Y58.249 Z0.2
;TYPE:SKIRT
G1 F1500 E0
G1 F900 X69.632 Y57.549 E0.02313
G1 X70.298 Y56.904 E0.04626
G1 X70.722 Y56.547 E0.06008
G1 X71.126 Y56.224 E0.07299
G1 X71.406 Y56.007 E0.08182
G1 X71.564 Y55.889 E0.08674
G1 X72.331 Y55.367 E0.10988
G1 X73.139 Y54.912 E0.13302
G1 X73.983 Y54.529 E0.15614
G1 X74.818 Y54.233 E0.17824
G1 X75.07 Y54.155 E0.18482
G1 X75.35 Y54.072 E0.1921
G1 X75.55 Y54.016 E0.19728
G1 X76.453 Y53.805 E0.22041
G1 X77.304 Y53.679 E0.24187
G1 X77.472 Y53.661 E0.24609
G1 X78.413 Y53.602 E0.26961
G1 X79.468 Y53.582 E0.29593
G1 X79.672 Y53.58 E0.30102
G1 X140.697 Y53.581 E1.82329
G1 X141.395 Y53.591 E1.84071
G1 X142.146 Y53.628 E1.85946
G1 X142.288 Y53.64 E1.86302
G1 X142.733 Y53.687 E1.87418
G1 X142.97 Y53.717 E1.88014
G1 X143.884 Y53.873 E1.90327
G1 X145.04 Y54.191 E1.93318
G1 X145.332 Y54.289 E1.94086
G1 X145.788 Y54.453 E1.95295
G1 X145.907 Y54.499 E1.95613
G1 X146.378 Y54.694 E1.96885
G1 X146.672 Y54.824 E1.97687
G1 X147.503 Y55.235 E1.99999
G1 X148.296 Y55.717 E2.02314
G1 X149.044 Y56.264 E2.04626
G1 X149.742 Y56.875 E2.0694
G1 X150.385 Y57.543 E2.09253
G1 X150.916 Y58.195 E2.1135
G1 X151.235 Y58.622 E2.1268
G1 X151.386 Y58.832 E2.13325
G1 X151.894 Y59.608 E2.15639
G1 X152.291 Y60.336 E2.17707
G1 X152.344 Y60.443 E2.18005
G1 X152.561 Y60.908 E2.19285
G1 X152.669 Y61.155 E2.19957
G1 X153.003 Y62.02 E2.2227
G1 X153.15 Y62.492 E2.23504
G1 X153.173 Y62.572 E2.23711
G1 X153.318 Y63.132 E2.25154
G1 X153.364 Y63.332 E2.25666
G1 X153.569 Y64.525 E2.28686
G1 X153.578 Y64.604 E2.28884
G1 X153.645 Y65.612 E2.31404
G1 X153.668 Y66.796 E2.34358
G1 X153.67 Y67.005 E2.3488
G1 X153.669 Y155.339 E4.5523
G1 X153.659 Y156.057 E4.57021
G1 X153.606 Y156.982 E4.59332
G1 X153.474 Y157.9 E4.61646
G1 X153.263 Y158.803 E4.63959
G1 X152.975 Y159.684 E4.66271
G1 X152.612 Y160.537 E4.68583
G1 X152.177 Y161.356 E4.70897
G1 X151.673 Y162.134 E4.73209
G1 X151.104 Y162.866 E4.75522
G1 X150.473 Y163.546 E4.77836
G1 X149.787 Y164.169 E4.80147
G1 X149.05 Y164.731 E4.82459
G1 X148.266 Y165.228 E4.84775
G1 X147.443 Y165.654 E4.87087
G1 X146.737 Y165.953 E4.88999
G1 X146.506 Y166.041 E4.89616
G1 X145.626 Y166.333 E4.91929
G1 X144.724 Y166.549 E4.94242
G1 X143.807 Y166.686 E4.96555
G1 X142.805 Y166.744 E4.99059
G1 X141.982 Y166.752 E5.01112
G1 X141.771 Y166.75 E5.01638
G1 X78.169 Y166.75 E6.60294
G1 X77.969 Y166.752 E6.60793
G1 X77.025 Y166.739 E6.63148
G1 X76.099 Y166.686 E6.65462
G1 X75.182 Y166.554 E6.67773
G1 X74.279 Y166.343 E6.70086
G1 X73.398 Y166.055 E6.72398
G1 X72.544 Y165.692 E6.74713
G1 X71.725 Y165.258 E6.77025
G1 X70.947 Y164.754 E6.79338
G1 X70.215 Y164.185 E6.8165
G1 X69.526 Y163.546 E6.83994
G1 X69.443 Y163.462 E6.84289
G1 X68.821 Y162.775 E6.86601
G1 X68.26 Y162.037 E6.88913
G1 X67.764 Y161.253 E6.91227
G1 X67.338 Y160.43 E6.93539
G1 X66.985 Y159.572 E6.95853
G1 X66.706 Y158.688 E6.98166
G1 X66.505 Y157.783 E7.00478
G1 X66.383 Y156.864 E7.02791
G1 X66.347 Y156.299 E7.04203
G1 X66.334 Y155.845 E7.05336
G1 X66.33 Y155.429 E7.06374
G1 X66.331 Y66.507 E9.28191
G1 X66.341 Y65.842 E9.2985
G1 X66.4 Y64.865 E9.32291
G1 X66.436 Y64.527 E9.33139
G1 X66.574 Y63.611 E9.3545
G1 X66.866 Y62.456 E9.38422
G1 X66.968 Y62.13 E9.39274
G1 X67.283 Y61.258 E9.41587
G1 X67.552 Y60.656 E9.43232
G1 X67.628 Y60.499 E9.43667
G1 X67.868 Y60.033 E9.44974
G1 X67.999 Y59.793 E9.45656
G1 X68.478 Y58.999 E9.47969
G1 X69.024 Y58.249 E9.50284
G0 F6000 X69.274 Y58.416
G1 F900 X69.876 Y57.728 E9.52564
G1 X70.535 Y57.095 E9.54843
G1 X70.909 Y56.781 E9.56062
G1 X71.313 Y56.458 E9.57352
G1 X71.586 Y56.247 E9.58213
G1 X71.744 Y56.129 E9.58704
G1 X72.5 Y55.615 E9.60985
G1 X73.297 Y55.168 E9.63264
G1 X74.131 Y54.793 E9.65545
G1 X74.907 Y54.519 E9.67598
G1 X75.159 Y54.441 E9.68256
G1 X75.431 Y54.361 E9.68964
G1 X75.631 Y54.305 E9.69482
G1 X76.522 Y54.097 E9.71764
G1 X77.336 Y53.977 E9.73817
G1 X77.504 Y53.959 E9.74238
G1 X78.419 Y53.902 E9.76525
G1 X79.474 Y53.882 E9.79157
G1 X79.672 Y53.88 E9.79651
G1 X140.693 Y53.881 E11.31869
G1 X141.391 Y53.891 E11.3361
G1 X142.121 Y53.927 E11.35433
G1 X142.263 Y53.939 E11.35789
G1 X142.695 Y53.985 E11.36872
G1 X142.932 Y54.015 E11.37468
G1 X143.833 Y54.169 E11.39748
G1 X144.945 Y54.475 E11.42625
G1 X145.237 Y54.573 E11.43394
G1 X145.68 Y54.733 E11.44569
G1 X145.799 Y54.779 E11.44887
G1 X146.257 Y54.969 E11.46124
G1 X146.551 Y55.099 E11.46926
G1 X147.37 Y55.505 E11.49206
G1 X148.151 Y55.98 E11.51486
G1 X148.886 Y56.523 E11.53766
G1 X149.572 Y57.127 E11.56046
G1 X150.202 Y57.789 E11.58325
G1 X150.677 Y58.375 E11.60207
G1 X150.859 Y58.617 E11.60962
G1 X151.142 Y59.007 E11.62164
G1 X151.643 Y59.772 E11.64445
G1 X152.022 Y60.47 E11.66427
G1 X152.075 Y60.577 E11.66725
G1 X152.286 Y61.028 E11.67967
G1 X152.394 Y61.275 E11.68639
G1 X152.723 Y62.128 E11.7092
G1 X152.862 Y62.575 E11.72087
G1 X152.885 Y62.655 E11.72295
G1 X153.026 Y63.2 E11.73699
G1 X153.072 Y63.4 E11.74211
G1 X153.271 Y64.559 E11.77145
G1 X153.28 Y64.638 E11.77343
G1 X153.345 Y65.618 E11.79793
G1 X153.368 Y66.802 E11.82747
G1 X153.37 Y67.005 E11.83254
G1 X153.369 Y155.335 E14.03594
G1 X153.359 Y156.053 E14.05385
G1 X153.306 Y156.965 E14.07664
G1 X153.174 Y157.87 E14.09945
G1 X152.963 Y158.759 E14.12224
G1 X152.676 Y159.627 E14.14505
G1 X152.313 Y160.466 E14.16785
G1 X151.879 Y161.27 E14.19064
G1 X151.376 Y162.034 E14.21346
G1 X150.808 Y162.75 E14.23626
G1 X150.18 Y163.414 E14.25906
G1 X149.496 Y164.021 E14.28187
G1 X148.762 Y164.565 E14.30466
G1 X147.983 Y165.043 E14.32746
G1 X147.165 Y165.452 E14.35027
G1 X146.63 Y165.672 E14.3647
G1 X146.399 Y165.76 E14.37087
G1 X145.532 Y166.048 E14.39366
G1 X144.642 Y166.259 E14.41648
G1 X143.738 Y166.391 E14.43926
G1 X142.802 Y166.444 E14.46265
G1 X141.985 Y166.452 E14.48303
G1 X141.774 Y166.45 E14.4883
G1 X78.127 Y166.45 E16.07598
G1 X77.973 Y166.452 E16.07982
G1 X77.029 Y166.439 E16.10337
G1 X76.117 Y166.386 E16.12616
G1 X75.212 Y166.254 E16.14897
G1 X74.322 Y166.044 E16.17178
G1 X73.455 Y165.756 E16.19457
G1 X72.616 Y165.394 E16.21737
G1 X71.811 Y164.96 E16.24018
G1 X71.048 Y164.457 E16.26298
G1 X70.331 Y163.889 E16.28579
G1 X69.74 Y163.335 E16.306
G1 X69.657 Y163.251 E16.30895
G1 X69.043 Y162.573 E16.33176
G1 X68.491 Y161.844 E16.35457
G1 X68.005 Y161.07 E16.37737
G1 X67.589 Y160.257 E16.40015
G1 X67.245 Y159.41 E16.42296
G1 X66.976 Y158.536 E16.44577
G1 X66.785 Y157.642 E16.46857
G1 X66.647 Y156.288 E16.50252
G1 X66.634 Y155.842 E16.51365
G1 X66.63 Y155.426 E16.52403
G1 X66.631 Y66.512 E18.742
G1 X66.641 Y65.847 E18.75859
G1 X66.699 Y64.897 E18.78233
G1 X66.735 Y64.559 E18.79081
G1 X66.871 Y63.655 E18.81362
G1 X67.153 Y62.546 E18.84216
G1 X67.255 Y62.22 E18.85068
G1 X67.566 Y61.36 E18.87349
G1 X67.822 Y60.787 E18.88915
G1 X67.898 Y60.63 E18.8935
G1 X68.131 Y60.176 E18.90623
G1 X68.262 Y59.936 E18.91305
G1 X68.735 Y59.154 E18.93585
G1 X69.274 Y58.416 E18.95864
G0 F6000 X69.525 Y58.583
G1 F900 X70.12 Y57.906 E18.98113
G1 X71.097 Y57.015 E19.01411
G1 X71.501 Y56.692 E19.02701
G1 X71.765 Y56.488 E19.03534
G1 X71.923 Y56.37 E19.04026
G1 X72.669 Y55.863 E19.06276
G1 X73.455 Y55.425 E19.0852
G1 X74.278 Y55.058 E19.10768
G1 X74.996 Y54.806 E19.12666
G1 X75.248 Y54.728 E19.13324
G1 X75.512 Y54.65 E19.14011
G1 X75.712 Y54.594 E19.14529
G1 X76.59 Y54.39 E19.16778
G1 X77.368 Y54.276 E19.18739
G1 X77.536 Y54.258 E19.1916
G1 X78.425 Y54.202 E19.21382
G1 X79.672 Y54.18 E19.24494
G1 X140.688 Y54.181 E20.76699
G1 X141.386 Y54.191 E20.7844
G1 X142.096 Y54.226 E20.80213
G1 X142.238 Y54.238 E20.80569
G1 X142.658 Y54.282 E20.81622
G1 X142.895 Y54.312 E20.82218
G1 X143.782 Y54.465 E20.84463
G1 X144.849 Y54.759 E20.87224
G1 X145.141 Y54.857 E20.87993
G1 X145.572 Y55.013 E20.89136
G1 X145.691 Y55.059 E20.89454
G1 X146.136 Y55.243 E20.90655
G1 X146.43 Y55.373 E20.91457
G1 X147.237 Y55.774 E20.93705
G1 X148.005 Y56.244 E20.95951
G1 X148.728 Y56.781 E20.98198
G1 X149.402 Y57.38 E21.00447
G1 X150.019 Y58.036 E21.02694
G1 X150.437 Y58.555 E21.04356
G1 X150.748 Y58.972 E21.05654
G1 X150.899 Y59.182 E21.06299
G1 X151.392 Y59.937 E21.08548
G1 X151.753 Y60.603 E21.10438
G1 X151.806 Y60.71 E21.10736
G1 X152.011 Y61.149 E21.11944
G1 X152.119 Y61.396 E21.12617
G1 X152.574 Y62.657 E21.15961
G1 X152.597 Y62.737 E21.16168
G1 X152.734 Y63.267 E21.17534
G1 X152.78 Y63.467 E21.18046
G1 X152.973 Y64.593 E21.20896
G1 X152.982 Y64.672 E21.21094
G1 X153.045 Y65.624 E21.23474
G1 X153.068 Y66.808 E21.26428
G1 X153.07 Y67.005 E21.2692
G1 X153.069 Y155.33 E23.47247
G1 X153.059 Y156.048 E23.49038
G1 X153.007 Y156.948 E23.51287
G1 X152.874 Y157.839 E23.53534
G1 X152.664 Y158.715 E23.55782
G1 X152.377 Y159.569 E23.58029
G1 X152.015 Y160.394 E23.60276
G1 X151.581 Y161.183 E23.62523
G1 X151.079 Y161.931 E23.6477
G1 X150.513 Y162.632 E23.67017
G1 X149.886 Y163.28 E23.69266
G1 X149.205 Y163.869 E23.71512
G1 X148.474 Y164.396 E23.7376
G1 X147.7 Y164.856 E23.76006
G1 X146.523 Y165.392 E23.79233
G1 X146.292 Y165.48 E23.79849
G1 X145.437 Y165.763 E23.82096
G1 X144.56 Y165.969 E23.84343
G1 X143.668 Y166.097 E23.86591
G1 X142.798 Y166.144 E23.88764
G1 X141.988 Y166.152 E23.90785
G1 X141.777 Y166.15 E23.91311
G1 X78.127 Y166.15 E25.50087
G1 X77.977 Y166.152 E25.50461
G1 X77.033 Y166.139 E25.52816
G1 X76.134 Y166.087 E25.55062
G1 X75.243 Y165.955 E25.57309
G1 X74.367 Y165.744 E25.59557
G1 X73.513 Y165.457 E25.61804
G1 X72.688 Y165.095 E25.64052
G1 X71.898 Y164.662 E25.66299
G1 X71.15 Y164.16 E25.68546
G1 X70.449 Y163.594 E25.70794
G1 X69.953 Y163.124 E25.72498
G1 X69.87 Y163.04 E25.72793
G1 X69.266 Y162.372 E25.75039
G1 X68.723 Y161.652 E25.77289
G1 X68.247 Y160.888 E25.79534
G1 X67.84 Y160.084 E25.81782
G1 X67.506 Y159.248 E25.84028
G1 X67.247 Y158.385 E25.86275
G1 X67.066 Y157.502 E25.88524
G1 X66.947 Y156.277 E25.91594
G1 X66.934 Y155.84 E25.92685
G1 X66.93 Y155.424 E25.93722
G1 X66.931 Y66.516 E28.15504
G1 X66.941 Y65.851 E28.17163
G1 X66.997 Y64.929 E28.19468
G1 X67.033 Y64.591 E28.20315
G1 X67.168 Y63.7 E28.22563
G1 X67.439 Y62.635 E28.25305
G1 X67.541 Y62.309 E28.26157
G1 X67.848 Y61.462 E28.28404
G1 X68.092 Y60.918 E28.29891
G1 X68.168 Y60.761 E28.30327
G1 X68.395 Y60.32 E28.31564
G1 X68.526 Y60.08 E28.32246
G1 X68.992 Y59.309 E28.34493
G1 X69.525 Y58.583 E28.3674
G1 F1500 E26.6674
G0 F6000 X76.832 Y64.641
G0 X77.554 Y65.019
;TYPE:SUPPORT-INTERFACE
G1 F1500 E28.3674
G1 F900 X78.064 Y64.627 E28.38344
G1 X78.464 Y64.509 E28.39385
G1 X78.486 Y64.504 E28.39441
G1 X78.74 Y64.48 E28.40077
G1 X141.242 Y64.48 E29.95989
G1 X141.58 Y64.518 E29.96838
G1 X141.587 Y64.519 E29.96855
G1 X141.859 Y64.61 E29.97571
G1 X142.233 Y64.769 E29.98585
G1 X142.307 Y64.872 E29.98901
G1 X142.534 Y65.175 E29.99845
G1 X142.688 Y65.513 E30.00772
G1 X142.755 Y65.794 E30.01493
G1 X142.76 Y65.841 E30.0161
G1 X142.759 Y65.841 E30.01613
G1 X142.77 Y66.003 E30.02018
G1 X142.77 Y155.85 E32.26142
G1 X142.623 Y155.85 E32.26509
G1 X142.624 Y65.938 E34.50795
G1 X142.612 Y65.825 E34.51079
G1 X142.515 Y65.452 E34.5204
G1 X142.409 Y65.258 E34.52592
G1 X142.088 Y64.907 E34.53778
G1 X141.893 Y64.783 E34.54355
G1 X141.495 Y64.652 E34.554
G1 X141.354 Y64.628 E34.55757
G1 X78.691 Y64.626 E36.1207
G1 X78.577 Y64.638 E36.12356
G1 X78.203 Y64.733 E36.13319
G1 X78.009 Y64.84 E36.13871
G1 X77.656 Y65.163 E36.15065
G1 X77.529 Y65.363 E36.15656
G1 X77.401 Y65.769 E36.16718
G1 X77.377 Y65.904 E36.1706
G1 X77.377 Y155.85 E38.41431
G1 X77.23 Y155.85 E38.41798
G1 X77.23 Y66.003 E40.65922
G1 X77.268 Y65.662 E40.66778
G1 X77.359 Y65.391 E40.67491
G1 X77.554 Y65.019 E40.68539
G1 F1500 E38.98539
;MESH:Case-Lid-Body.stl
G0 F6000 X76.832 Y64.641
G0 X83.828 Y71.43
G0 X82.237 Y70.47
G0 X82.787 Y72.714
G0 X83.084 Y73.262
G0 X83.444 Y73.613
G0 X85.098 Y74.782
;TYPE:WALL-INNER
G1 F1500 E40.68539
G1 F900 X85.514 Y74.697 E40.69598
G1 X85.904 Y74.554 E40.70634
G1 X86.269 Y74.355 E40.71671
G1 X86.606 Y74.101 E40.72724
G1 X86.899 Y73.801 E40.7377
G1 X87.143 Y73.457 E40.74822
G1 X87.333 Y73.087 E40.75859
G1 X87.468 Y72.687 E40.76913
G1 X87.537 Y72.276 E40.77952
G1 X87.551 Y71.858 E40.78995
G1 X87.497 Y71.438 E40.80052
G1 X87.381 Y71.039 E40.81088
G1 X87.21 Y70.657 E40.82132
G1 X86.979 Y70.304 E40.83185
G1 X86.707 Y69.993 E40.84215
G1 X86.382 Y69.724 E40.85268
G1 X86.027 Y69.505 E40.86308
G1 X85.636 Y69.343 E40.87364
G1 X85.233 Y69.241 E40.88401
G1 X84.817 Y69.198 E40.89444
G1 X84.402 Y69.218 E40.90481
G1 X83.986 Y69.303 E40.9154
G1 X83.594 Y69.447 E40.92581
G1 X83.229 Y69.645 E40.93617
G1 X82.894 Y69.899 E40.94666
G1 X82.601 Y70.199 E40.95712
G1 X82.357 Y70.543 E40.96764
G1 X82.168 Y70.911 E40.97796
G1 X82.032 Y71.31 E40.98848
G1 X81.963 Y71.724 E40.99895
G1 X81.949 Y72.139 E41.0093
G1 X82.003 Y72.556 E41.01979
G1 X82.116 Y72.958 E41.03021
G1 X82.289 Y73.341 E41.04069
G1 X82.515 Y73.693 E41.05113
G1 X82.793 Y74.005 E41.06155
G1 X83.112 Y74.275 E41.07198
G1 X83.473 Y74.495 E41.08252
G1 X83.858 Y74.656 E41.09293
G1 X84.264 Y74.759 E41.10338
G1 X84.68 Y74.802 E41.11381
G1 X85.098 Y74.782 E41.12425
G0 F6000 X85.061 Y74.483
G1 F900 X85.432 Y74.408 E41.13369
G1 X85.78 Y74.28 E41.14294
G1 X86.106 Y74.102 E41.15221
G1 X86.407 Y73.875 E41.16161
G1 X86.668 Y73.608 E41.17093
G1 X86.886 Y73.301 E41.18032
G1 X87.056 Y72.97 E41.1896
G1 X87.176 Y72.614 E41.19897
G1 X87.238 Y72.246 E41.20828
G1 X87.25 Y71.872 E41.21762
G1 X87.202 Y71.499 E41.227
G1 X87.099 Y71.142 E41.23627
G1 X86.946 Y70.801 E41.24559
G1 X86.74 Y70.486 E41.25498
G1 X86.497 Y70.209 E41.26417
G1 X86.207 Y69.968 E41.27358
G1 X85.89 Y69.773 E41.28286
G1 X85.541 Y69.628 E41.29229
G1 X85.181 Y69.537 E41.30155
G1 X84.809 Y69.499 E41.31088
G1 X84.439 Y69.517 E41.32012
G1 X84.068 Y69.592 E41.32956
G1 X83.718 Y69.721 E41.33887
G1 X83.392 Y69.898 E41.34812
G1 X83.093 Y70.125 E41.35748
G1 X82.832 Y70.392 E41.3668
G1 X82.614 Y70.699 E41.37619
G1 X82.445 Y71.028 E41.38542
G1 X82.324 Y71.384 E41.3948
G1 X82.262 Y71.754 E41.40415
G1 X82.25 Y72.125 E41.41341
G1 X82.298 Y72.496 E41.42275
G1 X82.399 Y72.855 E41.43205
G1 X82.553 Y73.197 E41.4414
G1 X82.755 Y73.511 E41.45072
G1 X83.003 Y73.79 E41.46003
G1 X83.288 Y74.031 E41.46934
G1 X83.61 Y74.227 E41.47874
G1 X83.953 Y74.371 E41.48802
G1 X84.316 Y74.463 E41.49736
G1 X84.688 Y74.501 E41.50669
G1 X85.061 Y74.483 E41.51601
G0 F6000 X85.024 Y74.184
G1 F900 X85.35 Y74.118 E41.52431
G1 X85.656 Y74.006 E41.53243
G1 X85.943 Y73.849 E41.54059
G1 X86.208 Y73.649 E41.54888
G1 X86.437 Y73.415 E41.55704
G1 X86.629 Y73.145 E41.56531
G1 X86.779 Y72.853 E41.5735
G1 X86.884 Y72.541 E41.58171
G1 X86.939 Y72.216 E41.58993
G1 X86.949 Y71.887 E41.59814
G1 X86.907 Y71.56 E41.60637
G1 X86.817 Y71.245 E41.61454
G1 X86.682 Y70.945 E41.62274
G1 X86.501 Y70.668 E41.631
G1 X86.287 Y70.425 E41.63908
G1 X86.032 Y70.212 E41.64736
G1 X85.753 Y70.041 E41.65553
G1 X85.446 Y69.913 E41.66382
G1 X85.129 Y69.833 E41.67198
G1 X84.801 Y69.8 E41.6802
G1 X84.476 Y69.816 E41.68832
G1 X84.15 Y69.882 E41.69662
G1 X83.842 Y69.995 E41.7048
G1 X83.555 Y70.151 E41.71295
G1 X83.292 Y70.351 E41.72119
G1 X83.063 Y70.585 E41.72936
G1 X82.871 Y70.855 E41.73762
G1 X82.722 Y71.145 E41.74576
G1 X82.616 Y71.458 E41.754
G1 X82.561 Y71.784 E41.76225
G1 X82.551 Y72.11 E41.77038
G1 X82.593 Y72.436 E41.77858
G1 X82.682 Y72.752 E41.78677
G1 X82.817 Y73.053 E41.795
G1 X82.995 Y73.329 E41.80319
G1 X83.213 Y73.575 E41.81139
G1 X83.464 Y73.787 E41.81959
