;FLAVOR:Marlin
;TIME:14707
;Filament used: 8.65378m
;Layer height: 0.2
;MINX:69.25
;MINY:60.25
;MINZ:0.2
;MAXX:150.75
;MAXY:159.75
;MAXZ:10
;Generated with Cura_SteamEngine 4.13.1
M140 S70
M105
M190 S70
M104 S240
M105
M109 S240
M82 ;absolute extrusion mode
; Ender 3 Custom Start G-code
G92 E0 ; Reset Extruder
G28 ; Home all axes
G29 ; Auto bed-level (BL-Touch)
G1 Z2.0 F3000 ; Move Z Axis up little to prevent scratching of Heat Bed
G1 X0.1 Y20 Z0.3 F5000.0 ; Move to start position
G1 X0.1 Y200.0 Z0.3 F1500.0 E15 ; Draw the first line
G1 X0.4 Y200.0 Z0.3 F5000.0 ; Move to side a little
G1 X0.4 Y20 Z0.3 F1500.0 E30 ; Draw the second line
G92 E0 ; Reset Extruder
G1 Z2.0 F3000 ; Move Z Axis up little to prevent scratching of Heat Bed
G1 X5 Y20 Z0.3 F5000.0 ; Move over to prevent blob squish
G92 E0
G92 E0
G1 F1500 E-1.7
;LAYER_COUNT:50
;LAYER:0
M107
G0 F6000 X71.813 Y64.053 Z0.2
;TYPE:SKIRT
G1 F1500 E0
G1 F900 X72.443 Y63.373 E0.02312
G1 X73.129 Y62.749 E0.04626
G1 X73.866 Y62.187 E0.06938
G1 X74.649 Y61.691 E0.0925
G1 X75.472 Y61.263 E0.11564
G1 X76.328 Y60.909 E0.13874
G1 X77.212 Y60.629 E0.16188
G1 X78.117 Y60.427 E0.18501
G1 X79.036 Y60.303 E0.20814
G1 X79.708 Y60.263 E0.22493
G1 X80.029 Y60.254 E0.23294
G1 X80.33 Y60.25 E0.24045
G1 X139.293 Y60.25 E1.71129
G1 X140.145 Y60.261 E1.73254
G1 X141.071 Y60.314 E1.75568
G1 X141.988 Y60.447 E1.7788
G1 X142.891 Y60.659 E1.80193
G1 X143.772 Y60.947 E1.82505
G1 X144.625 Y61.31 E1.84818
G1 X145.444 Y61.746 E1.87132
G1 X146.222 Y62.25 E1.89445
G1 X146.953 Y62.819 E1.91756
G1 X147.633 Y63.45 E1.9407
G1 X148.256 Y64.136 E1.96381
G1 X148.818 Y64.874 E1.98695
G1 X149.314 Y65.657 E2.01007
G1 X149.74 Y66.481 E2.03321
G1 X150.094 Y67.337 E2.05632
G1 X150.373 Y68.222 E2.07947
G1 X150.575 Y69.127 E2.1026
G1 X150.698 Y70.046 E2.12573
G1 X150.737 Y70.708 E2.14227
G1 X150.746 Y71.028 E2.15025
G1 X150.75 Y71.33 E2.15779
G1 X150.749 Y148.397 E4.08023
G1 X150.74 Y149.124 E4.09837
G1 X150.689 Y150.05 E4.1215
G1 X150.558 Y150.968 E4.14463
G1 X150.348 Y151.871 E4.16776
G1 X150.061 Y152.752 E4.19087
G1 X149.7 Y153.606 E4.214
G1 X149.266 Y154.426 E4.23715
G1 X148.763 Y155.205 E4.26028
G1 X148.195 Y155.937 E4.28339
G1 X147.566 Y156.618 E4.30651
G1 X146.881 Y157.243 E4.32965
G1 X146.144 Y157.806 E4.35278
G1 X145.362 Y158.303 E4.37589
G1 X144.539 Y158.731 E4.39903
G1 X143.683 Y159.087 E4.42216
G1 X142.8 Y159.368 E4.44527
G1 X141.895 Y159.571 E4.46841
G1 X140.976 Y159.696 E4.49155
G1 X140.292 Y159.737 E4.50864
G1 X139.971 Y159.746 E4.51665
G1 X139.67 Y159.75 E4.52416
G1 X80.568 Y159.749 E5.99846
G1 X79.87 Y159.74 E6.01588
G1 X78.945 Y159.688 E6.03899
G1 X78.027 Y159.557 E6.06212
G1 X77.124 Y159.347 E6.08525
G1 X76.242 Y159.06 E6.10838
G1 X75.389 Y158.697 E6.13151
G1 X74.57 Y158.263 E6.15463
G1 X73.791 Y157.76 E6.17776
G1 X73.058 Y157.192 E6.20089
G1 X72.378 Y156.562 E6.22402
G1 X71.754 Y155.877 E6.24713
G1 X71.191 Y155.14 E6.27027
G1 X70.694 Y154.357 E6.2934
G1 X70.266 Y153.534 E6.31654
G1 X69.911 Y152.678 E6.33966
G1 X69.631 Y151.794 E6.36279
G1 X69.428 Y150.89 E6.3859
G1 X69.304 Y149.971 E6.40903
G1 X69.263 Y149.281 E6.42627
G1 X69.254 Y148.948 E6.43458
G1 X69.25 Y148.658 E6.44182
G1 X69.251 Y71.529 E8.36581
G1 X69.26 Y70.864 E8.3824
G1 X69.312 Y69.938 E8.40554
G1 X69.445 Y69.02 E8.42867
G1 X69.655 Y68.117 E8.4518
G1 X69.943 Y67.236 E8.47492
G1 X70.305 Y66.383 E8.49804
G1 X70.74 Y65.564 E8.52117
G1 X71.244 Y64.785 E8.54431
G1 X71.813 Y64.053 E8.56744
G0 F6000 X72.108 Y64.169
G1 F900 X72.736 Y63.505 E8.59024
G1 X73.42 Y62.898 E8.61305
G1 X74.154 Y62.353 E8.63586
G1 X74.933 Y61.875 E8.65866
G1 X75.75 Y61.466 E8.68145
G1 X76.601 Y61.13 E8.70427
G1 X77.477 Y60.87 E8.72706
G1 X78.373 Y60.688 E8.74987
G1 X79.716 Y60.563 E8.78352
G1 X80.037 Y60.554 E8.79153
G1 X80.33 Y60.55 E8.79884
G1 X139.293 Y60.55 E10.26968
G1 X140.141 Y60.561 E10.29083
G1 X141.053 Y60.614 E10.31362
G1 X141.958 Y60.747 E10.33644
G1 X142.847 Y60.958 E10.35923
G1 X143.715 Y61.246 E10.38204
G1 X144.554 Y61.609 E10.40485
G1 X145.358 Y62.043 E10.42764
G1 X146.121 Y62.547 E10.45045
G1 X146.837 Y63.115 E10.47325
G1 X147.501 Y63.743 E10.49605
G1 X148.107 Y64.427 E10.51884
G1 X148.651 Y65.162 E10.54165
G1 X149.129 Y65.941 E10.56445
G1 X149.537 Y66.759 E10.58725
G1 X149.872 Y67.61 E10.61007
G1 X150.132 Y68.486 E10.63286
G1 X150.313 Y69.382 E10.65566
G1 X150.437 Y70.716 E10.68908
G1 X150.446 Y71.036 E10.69707
G1 X150.45 Y71.33 E10.7044
G1 X150.449 Y148.393 E12.62675
G1 X150.44 Y149.12 E12.64488
G1 X150.389 Y150.033 E12.66769
G1 X150.258 Y150.938 E12.6905
G1 X150.049 Y151.828 E12.71331
G1 X149.762 Y152.696 E12.73612
G1 X149.401 Y153.535 E12.7589
G1 X148.968 Y154.34 E12.7817
G1 X148.466 Y155.104 E12.8045
G1 X147.9 Y155.822 E12.82731
G1 X147.272 Y156.487 E12.85013
G1 X146.589 Y157.094 E12.87292
G1 X145.856 Y157.64 E12.89572
G1 X145.078 Y158.119 E12.91851
G1 X144.261 Y158.529 E12.94131
G1 X143.411 Y158.866 E12.96412
G1 X142.535 Y159.127 E12.98692
G1 X141.639 Y159.31 E13.00974
G1 X140.284 Y159.437 E13.04369
G1 X139.963 Y159.446 E13.0517
G1 X139.67 Y159.45 E13.05901
G1 X80.572 Y159.449 E14.53321
G1 X79.874 Y159.44 E14.55062
G1 X78.962 Y159.388 E14.57341
G1 X78.057 Y159.257 E14.59622
G1 X77.167 Y159.047 E14.61903
G1 X76.299 Y158.76 E14.64184
G1 X75.46 Y158.399 E14.66462
G1 X74.655 Y157.965 E14.68743
G1 X73.891 Y157.463 E14.71024
G1 X73.174 Y156.896 E14.73304
G1 X72.51 Y156.268 E14.75584
G1 X71.902 Y155.585 E14.77865
G1 X71.357 Y154.852 E14.80143
G1 X70.878 Y154.073 E14.82425
G1 X70.469 Y153.256 E14.84704
G1 X70.133 Y152.406 E14.86984
G1 X69.872 Y151.529 E14.89266
G1 X69.689 Y150.634 E14.91545
G1 X69.563 Y149.273 E14.94955
G1 X69.554 Y148.94 E14.95786
G1 X69.55 Y148.658 E14.96489
G1 X69.551 Y71.533 E16.88878
G1 X69.56 Y70.868 E16.90537
G1 X69.612 Y69.955 E16.92818
G1 X69.744 Y69.05 E16.951
G1 X69.955 Y68.161 E16.97379
G1 X70.242 Y67.293 E16.9966
G1 X70.604 Y66.454 E17.01939
G1 X71.038 Y65.649 E17.0422
G1 X71.541 Y64.886 E17.065
G1 X72.108 Y64.169 E17.0878
G0 F6000 X72.404 Y64.287
G1 F900 X73.03 Y63.639 E17.11028
G1 X73.711 Y63.049 E17.13275
G1 X74.441 Y62.522 E17.15521
G1 X75.216 Y62.062 E17.17769
G1 X76.028 Y61.672 E17.20016
G1 X76.872 Y61.356 E17.22265
G1 X77.74 Y61.116 E17.24511
G1 X78.626 Y60.954 E17.26758
G1 X79.725 Y60.863 E17.29509
G1 X80.046 Y60.854 E17.3031
G1 X80.33 Y60.85 E17.31018
G1 X139.293 Y60.85 E18.78102
G1 X140.136 Y60.861 E18.80205
G1 X141.036 Y60.914 E18.82454
G1 X141.927 Y61.046 E18.84701
G1 X142.803 Y61.257 E18.86949
G1 X143.656 Y61.545 E18.89194
G1 X144.481 Y61.907 E18.91442
G1 X145.271 Y62.341 E18.9369
G1 X146.019 Y62.844 E18.95939
G1 X146.719 Y63.41 E18.98184
G1 X147.366 Y64.037 E19.00432
G1 X147.956 Y64.718 E19.02679
G1 X148.482 Y65.449 E19.04926
G1 X148.942 Y66.224 E19.07174
G1 X149.331 Y67.036 E19.0942
G1 X149.646 Y67.88 E19.11667
G1 X149.886 Y68.749 E19.13916
G1 X150.047 Y69.635 E19.16162
G1 X150.137 Y70.725 E19.18891
G1 X150.146 Y71.045 E19.19689
G1 X150.15 Y71.33 E19.204
G1 X150.149 Y148.39 E21.12627
G1 X150.14 Y149.117 E21.14441
G1 X150.089 Y150.016 E21.16687
G1 X149.958 Y150.907 E21.18934
G1 X149.749 Y151.784 E21.21183
G1 X149.463 Y152.638 E21.23429
G1 X149.102 Y153.464 E21.25678
G1 X148.67 Y154.254 E21.27924
G1 X148.169 Y155.003 E21.30172
G1 X147.604 Y155.704 E21.32418
G1 X146.979 Y156.353 E21.34665
G1 X146.298 Y156.943 E21.36913
G1 X145.568 Y157.471 E21.3916
G1 X144.794 Y157.932 E21.41407
G1 X143.983 Y158.323 E21.43653
G1 X143.14 Y158.64 E21.459
G1 X142.272 Y158.881 E21.48147
G1 X141.386 Y159.045 E21.50395
G1 X140.275 Y159.137 E21.53176
G1 X139.954 Y159.146 E21.53977
G1 X139.67 Y159.15 E21.54685
G1 X80.576 Y159.149 E23.02096
G1 X79.878 Y159.14 E23.03837
G1 X78.979 Y159.089 E23.06083
G1 X78.087 Y158.957 E23.08333
G1 X77.211 Y158.748 E23.10579
G1 X76.357 Y158.461 E23.12827
G1 X75.532 Y158.1 E23.15073
G1 X74.742 Y157.667 E23.1732
G1 X73.993 Y157.166 E23.19568
G1 X73.292 Y156.6 E23.21816
G1 X72.644 Y155.975 E23.24061
G1 X72.053 Y155.294 E23.26311
G1 X71.526 Y154.564 E23.28557
G1 X71.065 Y153.79 E23.30804
G1 X70.675 Y152.978 E23.33051
G1 X70.358 Y152.135 E23.35298
G1 X70.117 Y151.266 E23.37547
G1 X69.955 Y150.38 E23.39794
G1 X69.863 Y149.265 E23.42585
G1 X69.854 Y148.932 E23.43416
G1 X69.85 Y148.658 E23.44099
G1 X69.851 Y71.537 E25.36478
G1 X69.86 Y70.872 E25.38137
G1 X69.912 Y69.972 E25.40386
G1 X70.044 Y69.081 E25.42633
G1 X70.254 Y68.205 E25.4488
G1 X70.541 Y67.351 E25.47128
G1 X70.903 Y66.526 E25.49375
G1 X71.336 Y65.736 E25.51622
G1 X71.838 Y64.988 E25.53869
G1 X72.404 Y64.287 E25.56117
G1 F1500 E23.86117
;MESH:MotorHolder-Body.stl
G0 F6000 X129.653 Y77.653
G0 X127.804 Y75.804
G0 X127.95 Y83.05
;TYPE:WALL-INNER
G1 F1500 E25.56117
G1 F900 X138.05 Y83.05 E25.81311
G1 X138.05 Y75.95 E25.99022
G1 X127.95 Y75.95 E26.24217
G1 X127.95 Y83.05 E26.41928
G0 F6000 X128.25 Y82.75
G1 F900 X137.75 Y82.75 E26.65626
G1 X137.75 Y76.25 E26.8184
G1 X128.25 Y76.25 E27.05538
G1 X128.25 Y82.75 E27.21752
G0 F6000 X128.55 Y82.45
G1 F900 X137.45 Y82.45 E27.43953
G1 X137.45 Y76.55 E27.58671
G1 X128.55 Y76.55 E27.80872
G1 X128.55 Y82.45 E27.9559
G0 F6000 X128.85 Y82.15
;TYPE:WALL-OUTER
G1 F900 X137.15 Y82.15 E28.16294
G1 X137.15 Y76.85 E28.29515
G1 X128.85 Y76.85 E28.5022
G1 X128.85 Y82.15 E28.6344
G1 F1500 E26.9344
G0 F6000 X128.6 Y82.15
G0 X127.804 Y83.196
G0 X125.807 Y85.043
G0 X125.631 Y87.5
G0 X125.453 Y87.971
G0 X125.165 Y88.386
G0 X123.263 Y89.787
;TYPE:WALL-INNER
G1 F1500 E28.6344
G1 F900 X123.937 Y89.787 E28.65122
G1 X124.596 Y89.626 E28.66814
G1 X125.196 Y89.311 E28.68504
G1 X125.701 Y88.863 E28.70188
G1 X126.088 Y88.304 E28.71884
G1 X126.325 Y87.671 E28.7357
G1 X126.407 Y87 E28.75257
G1 X126.325 Y86.329 E28.76943
G1 X126.088 Y85.696 E28.78629
G1 X125.701 Y85.137 E28.80325
G1 X125.188 Y84.686 E28.82029
G1 X124.595 Y84.374 E28.837
G1 X123.931 Y84.213 E28.85405
G1 X123.254 Y84.214 E28.87094
G1 X122.604 Y84.377 E28.88765
G1 X122.004 Y84.689 E28.90452
G1 X121.499 Y85.14 E28.92141
G1 X121.11 Y85.702 E28.93846
G1 X120.875 Y86.329 E28.95516
G1 X120.793 Y87 E28.97203
G1 X120.875 Y87.671 E28.98889
G1 X121.112 Y88.304 E29.00575
G1 X121.499 Y88.863 E29.02271
G1 X122.004 Y89.311 E29.03955
G1 X122.604 Y89.626 E29.05645
G1 X123.263 Y89.787 E29.07338
G0 F6000 X123.299 Y89.487
G1 F900 X123.901 Y89.487 E29.08839
G1 X124.489 Y89.343 E29.10349
G1 X125.024 Y89.062 E29.11857
G1 X125.475 Y88.662 E29.13361
G1 X125.82 Y88.164 E29.14872
G1 X126.032 Y87.599 E29.16377
G1 X126.105 Y87 E29.17883
G1 X126.032 Y86.401 E29.19388
G1 X125.82 Y85.836 E29.20893
G1 X125.475 Y85.338 E29.22404
G1 X125.017 Y84.935 E29.23926
G1 X124.488 Y84.657 E29.25417
G1 X123.895 Y84.513 E29.26939
G1 X123.291 Y84.514 E29.28446
G1 X122.711 Y84.659 E29.29937
G1 X122.176 Y84.938 E29.31442
G1 X121.725 Y85.34 E29.32949
G1 X121.378 Y85.842 E29.34472
G1 X121.168 Y86.401 E29.35961
G1 X121.095 Y87 E29.37467
G1 X121.168 Y87.599 E29.38972
G1 X121.38 Y88.164 E29.40477
G1 X121.725 Y88.662 E29.41988
G1 X122.176 Y89.062 E29.43492
G1 X122.711 Y89.343 E29.45
G1 X123.299 Y89.487 E29.4651
G0 F6000 X123.335 Y89.187
G1 F900 X123.865 Y89.187 E29.47832
G1 X124.382 Y89.06 E29.4916
G1 X124.852 Y88.813 E29.50484
G1 X125.249 Y88.461 E29.51808
G1 X125.552 Y88.024 E29.53134
G1 X125.739 Y87.527 E29.54459
G1 X125.803 Y87 E29.55783
G1 X125.739 Y86.473 E29.57107
G1 X125.552 Y85.976 E29.58432
G1 X125.249 Y85.539 E29.59759
G1 X124.846 Y85.184 E29.61098
G1 X124.381 Y84.94 E29.62408
G1 X123.859 Y84.813 E29.63748
G1 X123.328 Y84.814 E29.65073
G1 X122.818 Y84.941 E29.66384
G1 X122.348 Y85.187 E29.67707
G1 X121.951 Y85.54 E29.69033
G1 X121.646 Y85.982 E29.70372
G1 X121.461 Y86.473 E29.71681
G1 X121.397 Y87 E29.73005
G1 X121.461 Y87.527 E29.74329
G1 X121.648 Y88.024 E29.75654
G1 X121.951 Y88.461 E29.76981
G1 X122.348 Y88.813 E29.78304
G1 X122.818 Y89.06 E29.79629
G1 X123.335 Y89.187 E29.80957
G0 F6000 X123.371 Y88.887
;TYPE:WALL-OUTER
G1 F900 X123.829 Y88.887 E29.82099
G1 X124.275 Y88.777 E29.83245
G1 X124.68 Y88.564 E29.84386
G1 X125.023 Y88.26 E29.8553
G1 X125.284 Y87.883 E29.86674
G1 X125.446 Y87.455 E29.87815
G1 X125.501 Y87 E29.88958
G1 X125.446 Y86.545 E29.90102
G1 X125.284 Y86.117 E29.91243
G1 X125.023 Y85.74 E29.92387
G1 X124.675 Y85.433 E29.93545
G1 X124.274 Y85.223 E29.94674
G1 X123.823 Y85.113 E29.95832
G1 X123.365 Y85.114 E29.96974
G1 X122.925 Y85.223 E29.98105
G1 X122.52 Y85.436 E29.99247
G1 X122.177 Y85.74 E30.0039
G1 X121.914 Y86.122 E30.01547
G1 X121.754 Y86.545 E30.02675
G1 X121.699 Y87 E30.03818
G1 X121.754 Y87.455 E30.04961
G1 X121.916 Y87.883 E30.06103
G1 X122.177 Y88.26 E30.07247
G1 X122.52 Y88.564 E30.0839
G1 X122.925 Y88.777 E30.09532
G1 X123.371 Y88.887 E30.10677
G0 F6000 X123.332 Y89.214
G1 F1500 E28.40677
G0 F6000 X120.737 Y87.705
G0 X122.55 Y87.257
G0 X92.465 Y85.928
G0 X92.196 Y83.196
G0 X92.05 Y83.05
;TYPE:WALL-INNER
G1 F1500 E30.10677
G1 F900 X92.05 Y75.95 E30.28389
G1 X81.95 Y75.95 E30.53583
G1 X81.95 Y83.05 E30.71294
G1 X92.05 Y83.05 E30.96489
G0 F6000 X91.75 Y82.75
G1 F900 X91.75 Y76.25 E31.12703
G1 X82.25 Y76.25 E31.36401
G1 X82.25 Y82.75 E31.52615
G1 X91.75 Y82.75 E31.76313
G0 F6000 X91.45 Y82.45
G1 F900 X91.45 Y76.55 E31.91031
G1 X82.55 Y76.55 E32.13232
G1 X82.55 Y82.45 E32.27949
G1 X91.45 Y82.45 E32.5015
G0 F6000 X91.15 Y82.15
;TYPE:WALL-OUTER
G1 F900 X91.15 Y76.85 E32.63371
G1 X82.85 Y76.85 E32.84076
G1 X82.85 Y82.15 E32.97297
G1 X91.15 Y82.15 E33.18001
G1 F1500 E31.48001
G0 F6000 X91.4 Y82.15
G0 X92.196 Y83.196
G0 X92.236 Y84.073
G0 X90.745 Y86.034
G0 X90.569 Y86.5
G0 X90.508 Y87
G0 X90.569 Y87.5
G0 X90.747 Y87.971
G0 X91.035 Y88.386
G0 X92.937 Y89.787
;TYPE:WALL-INNER
G1 F1500 E33.18001
G1 F900 X93.596 Y89.626 E33.19693
G1 X94.196 Y89.311 E33.21384
G1 X94.701 Y88.863 E33.23068
G1 X95.088 Y88.304 E33.24764
G1 X95.325 Y87.671 E33.2645
G1 X95.407 Y87 E33.28136
G1 X95.325 Y86.329 E33.29822
G1 X95.088 Y85.696 E33.31508
G1 X94.701 Y85.137 E33.33204
G1 X94.188 Y84.686 E33.34908
G1 X93.595 Y84.374 E33.3658
G1 X92.931 Y84.213 E33.38284
G1 X92.254 Y84.214 E33.39973
G1 X91.604 Y84.377 E33.41645
G1 X91.004 Y84.689 E33.43332
G1 X90.499 Y85.14 E33.45021
G1 X90.11 Y85.702 E33.46726
G1 X89.875 Y86.329 E33.48396
G1 X89.793 Y87 E33.50082
G1 X89.875 Y87.671 E33.51768
G1 X90.112 Y88.304 E33.53454
G1 X90.499 Y88.863 E33.5515
G1 X91.004 Y89.311 E33.56834
G1 X91.604 Y89.626 E33.58525
G1 X92.263 Y89.787 E33.60217
G1 X92.937 Y89.787 E33.61898
G0 F6000 X92.901 Y89.487
G1 F900 X93.489 Y89.343 E33.63409
G1 X94.024 Y89.062 E33.64916
G1 X94.475 Y88.662 E33.6642
G1 X94.82 Y88.164 E33.67931
G1 X95.032 Y87.599 E33.69436
G1 X95.105 Y87 E33.70942
G1 X95.032 Y86.401 E33.72447
G1 X94.82 Y85.836 E33.73952
G1 X94.475 Y85.338 E33.75463
G1 X94.017 Y84.935 E33.76985
G1 X93.488 Y84.657 E33.78476
G1 X92.895 Y84.513 E33.79998
G1 X92.291 Y84.514 E33.81505
G1 X91.711 Y84.659 E33.82996
G1 X91.176 Y84.938 E33.84501
G1 X90.725 Y85.34 E33.86008
G1 X90.378 Y85.842 E33.87531
G1 X90.168 Y86.401 E33.8902
G1 X90.095 Y87 E33.90526
G1 X90.168 Y87.599 E33.92031
G1 X90.38 Y88.164 E33.93536
G1 X90.725 Y88.662 E33.95047
G1 X91.176 Y89.062 E33.96551
G1 X91.711 Y89.343 E33.98059
G1 X92.299 Y89.487 E33.99569
G1 X92.901 Y89.487 E34.0107
G0 F6000 X92.865 Y89.187
G1 F900 X93.382 Y89.06 E34.02398
G1 X93.852 Y88.813 E34.03723
G1 X94.249 Y88.461 E34.05046
G1 X94.552 Y88.024 E34.06373
G1 X94.739 Y87.527 E34.07698
G1 X94.803 Y87 E34.09022
G1 X94.739 Y86.473 E34.10346
G1 X94.552 Y85.976 E34.11671
G1 X94.249 Y85.539 E34.12997
G1 X93.846 Y85.184 E34.14337
G1 X93.381 Y84.94 E34.15647
G1 X92.859 Y84.813 E34.16987
G1 X92.328 Y84.814 E34.18312
G1 X91.818 Y84.941 E34.19623
G1 X91.348 Y85.187 E34.20946
G1 X90.951 Y85.54 E34.22271
G1 X90.646 Y85.982 E34.23611
G1 X90.461 Y86.473 E34.2492
G1 X90.397 Y87 E34.26244
G1 X90.461 Y87.527 E34.27568
G1 X90.648 Y88.024 E34.28893
G1 X90.951 Y88.461 E34.30219
G1 X91.348 Y88.813 E34.31543
G1 X91.818 Y89.06 E34.32867
G1 X92.335 Y89.187 E34.34195
G1 X92.865 Y89.187 E34.35517
G0 F6000 X92.829 Y88.887
;TYPE:WALL-OUTER
G1 F900 X93.275 Y88.777 E34.36663
G1 X93.68 Y88.564 E34.37805
G1 X94.023 Y88.26 E34.38948
G1 X94.284 Y87.883 E34.40092
G1 X94.446 Y87.455 E34.41233
G1 X94.501 Y87 E34.42377
G1 X94.446 Y86.545 E34.4352
