;FLAVOR:Marlin
;TIME:6934
;Filament used: 2.96883m
;Layer height: 0.2
;MINX:79.25
;MINY:88.25
;MINZ:0.2
;MAXX:140.75
;MAXY:128.25
;MAXZ:55
;Generated with Cura_SteamEngine 4.13.1
M140 S70
M105
M190 S70
M104 S240
M105
M109 S240
M82 ;absolute extrusion mode
; Ender 3 Custom Start G-code
G92 E0 ; Reset Extruder
G28 ; Home all axes
G29 ; Auto bed-level (BL-Touch)
G1 Z2.0 F3000 ; Move Z Axis up little to prevent scratching of Heat Bed
G1 X0.1 Y20 Z0.3 F5000.0 ; Move to start position
G1 X0.1 Y200.0 Z0.3 F1500.0 E15 ; Draw the first line
G1 X0.4 Y200.0 Z0.3 F5000.0 ; Move to side a little
G1 X0.4 Y20 Z0.3 F1500.0 E30 ; Draw the second line
G92 E0 ; Reset Extruder
G1 Z2.0 F3000 ; Move Z Axis up little to prevent scratching of Heat Bed
G1 X5 Y20 Z0.3 F5000.0 ; Move over to prevent blob squish
G92 E0
G92 E0
G1 F1500 E-1.7
;LAYER_COUNT:275
;LAYER:0
M107
G0 F6000 X83.129 Y90.749 Z0.2
;TYPE:SKIRT
G1 F1500 E0
G1 F900 X83.866 Y90.187 E0.02312
G1 X84.649 Y89.691 E0.04624
G1 X85.472 Y89.263 E0.06938
G1 X86.328 Y88.909 E0.09249
G1 X87.212 Y88.629 E0.11562
G1 X88.117 Y88.427 E0.13875
G1 X89.036 Y88.303 E0.16188
G1 X89.708 Y88.263 E0.17868
G1 X90.029 Y88.254 E0.18669
G1 X90.33 Y88.25 E0.19419
G1 X129.293 Y88.25 E1.16613
G1 X130.145 Y88.261 E1.18739
G1 X131.071 Y88.314 E1.21052
G1 X131.988 Y88.447 E1.23364
G1 X132.891 Y88.659 E1.25677
G1 X133.772 Y88.947 E1.2799
G1 X134.625 Y89.31 E1.30302
G1 X135.444 Y89.746 E1.32617
G1 X136.222 Y90.25 E1.34929
G1 X136.953 Y90.819 E1.3724
G1 X137.633 Y91.45 E1.39554
G1 X138.256 Y92.136 E1.41865
G1 X138.818 Y92.874 E1.44179
G1 X139.314 Y93.657 E1.46491
G1 X139.74 Y94.481 E1.48805
G1 X140.094 Y95.337 E1.51116
G1 X140.373 Y96.222 E1.53431
G1 X140.575 Y97.127 E1.55744
G1 X140.698 Y98.046 E1.58057
G1 X140.737 Y98.708 E1.59711
G1 X140.746 Y99.028 E1.6051
G1 X140.75 Y99.33 E1.61263
G1 X140.749 Y116.897 E2.05084
G1 X140.74 Y117.624 E2.06898
G1 X140.689 Y118.55 E2.09211
G1 X140.558 Y119.468 E2.11524
G1 X140.348 Y120.371 E2.13837
G1 X140.061 Y121.252 E2.16148
G1 X139.7 Y122.106 E2.18461
G1 X139.266 Y122.926 E2.20775
G1 X138.763 Y123.705 E2.23088
G1 X138.195 Y124.437 E2.254
G1 X137.566 Y125.118 E2.27712
G1 X136.881 Y125.743 E2.30025
G1 X136.144 Y126.306 E2.32339
G1 X135.362 Y126.803 E2.3465
G1 X134.539 Y127.231 E2.36964
G1 X133.683 Y127.587 E2.39277
G1 X132.8 Y127.868 E2.41588
G1 X131.895 Y128.071 E2.43902
G1 X130.976 Y128.196 E2.46215
G1 X130.292 Y128.237 E2.47925
G1 X129.971 Y128.246 E2.48726
G1 X129.67 Y128.25 E2.49477
G1 X90.568 Y128.249 E3.47017
G1 X89.87 Y128.24 E3.48758
G1 X88.945 Y128.188 E3.51069
G1 X88.027 Y128.057 E3.53383
G1 X87.124 Y127.847 E3.55695
G1 X86.242 Y127.56 E3.58009
G1 X85.389 Y127.197 E3.60321
G1 X84.57 Y126.763 E3.62634
G1 X83.791 Y126.26 E3.64947
G1 X83.058 Y125.692 E3.6726
G1 X82.378 Y125.062 E3.69572
G1 X81.754 Y124.377 E3.71884
G1 X81.191 Y123.64 E3.74197
G1 X80.694 Y122.857 E3.76511
G1 X80.266 Y122.034 E3.78825
G1 X79.911 Y121.178 E3.81136
G1 X79.631 Y120.294 E3.83449
G1 X79.428 Y119.39 E3.85761
G1 X79.304 Y118.471 E3.88074
G1 X79.263 Y117.781 E3.89798
G1 X79.254 Y117.448 E3.90629
G1 X79.25 Y117.158 E3.91353
G1 X79.251 Y99.529 E4.35328
G1 X79.26 Y98.864 E4.36987
G1 X79.312 Y97.938 E4.39301
G1 X79.445 Y97.02 E4.41615
G1 X79.655 Y96.117 E4.43927
G1 X79.943 Y95.236 E4.46239
G1 X80.305 Y94.383 E4.48551
G1 X80.74 Y93.564 E4.50864
G1 X81.244 Y92.785 E4.53179
G1 X81.813 Y92.053 E4.55491
G1 X82.443 Y91.373 E4.57804
G1 X83.129 Y90.749 E4.60117
G0 F6000 X83.42 Y90.898
G1 F900 X84.154 Y90.353 E4.62398
G1 X84.933 Y89.875 E4.64677
G1 X85.75 Y89.466 E4.66957
G1 X86.601 Y89.13 E4.69239
G1 X87.477 Y88.87 E4.71518
G1 X88.373 Y88.688 E4.73799
G1 X89.716 Y88.563 E4.77164
G1 X90.037 Y88.554 E4.77965
G1 X90.33 Y88.55 E4.78696
G1 X129.293 Y88.55 E5.75889
G1 X130.141 Y88.561 E5.78005
G1 X131.053 Y88.614 E5.80284
G1 X131.958 Y88.747 E5.82565
G1 X132.847 Y88.958 E5.84845
G1 X133.715 Y89.246 E5.87126
G1 X134.554 Y89.609 E5.89406
G1 X135.358 Y90.043 E5.91685
G1 X136.121 Y90.547 E5.93967
G1 X136.837 Y91.115 E5.96246
G1 X137.501 Y91.743 E5.98526
G1 X138.107 Y92.427 E6.00806
G1 X138.651 Y93.162 E6.03087
G1 X139.129 Y93.941 E6.05367
G1 X139.537 Y94.759 E6.07647
G1 X139.872 Y95.61 E6.09928
G1 X140.132 Y96.486 E6.12208
G1 X140.313 Y97.382 E6.14488
G1 X140.437 Y98.716 E6.1783
G1 X140.446 Y99.036 E6.18628
G1 X140.45 Y99.33 E6.19362
G1 X140.449 Y116.893 E6.63173
G1 X140.44 Y117.62 E6.64987
G1 X140.389 Y118.533 E6.67268
G1 X140.258 Y119.438 E6.69549
G1 X140.049 Y120.328 E6.71829
G1 X139.762 Y121.196 E6.7411
G1 X139.401 Y122.035 E6.76388
G1 X138.968 Y122.84 E6.78668
G1 X138.466 Y123.604 E6.80949
G1 X137.9 Y124.322 E6.83229
G1 X137.272 Y124.987 E6.85511
G1 X136.589 Y125.594 E6.8779
G1 X135.856 Y126.14 E6.9007
G1 X135.078 Y126.619 E6.92349
G1 X134.261 Y127.029 E6.9463
G1 X133.411 Y127.366 E6.96911
G1 X132.535 Y127.627 E6.99191
G1 X131.639 Y127.81 E7.01472
G1 X130.284 Y127.937 E7.04867
G1 X129.963 Y127.946 E7.05668
G1 X129.67 Y127.95 E7.06399
G1 X90.572 Y127.949 E8.03929
G1 X89.874 Y127.94 E8.0567
G1 X88.962 Y127.888 E8.07949
G1 X88.057 Y127.757 E8.1023
G1 X87.167 Y127.547 E8.12511
G1 X86.299 Y127.26 E8.14792
G1 X85.46 Y126.899 E8.1707
G1 X84.655 Y126.465 E8.19352
G1 X83.891 Y125.963 E8.21632
G1 X83.174 Y125.396 E8.23912
G1 X82.51 Y124.768 E8.26192
G1 X81.902 Y124.085 E8.28473
G1 X81.357 Y123.352 E8.30752
G1 X80.878 Y122.573 E8.33033
G1 X80.469 Y121.756 E8.35312
G1 X80.133 Y120.906 E8.37592
G1 X79.872 Y120.029 E8.39874
G1 X79.689 Y119.134 E8.42153
G1 X79.563 Y117.773 E8.45563
G1 X79.554 Y117.44 E8.46394
G1 X79.55 Y117.158 E8.47097
G1 X79.551 Y99.533 E8.91063
G1 X79.56 Y98.868 E8.92722
G1 X79.612 Y97.955 E8.95003
G1 X79.744 Y97.05 E8.97285
G1 X79.955 Y96.161 E8.99564
G1 X80.242 Y95.293 E9.01844
G1 X80.604 Y94.454 E9.04124
G1 X81.038 Y93.649 E9.06405
G1 X81.541 Y92.886 E9.08685
G1 X82.108 Y92.169 E9.10965
G1 X82.736 Y91.505 E9.13245
G1 X83.42 Y90.898 E9.15526
G0 F6000 X83.711 Y91.049
G1 F900 X84.441 Y90.522 E9.17772
G1 X85.216 Y90.062 E9.2002
G1 X86.028 Y89.672 E9.22267
G1 X86.872 Y89.356 E9.24515
G1 X87.74 Y89.116 E9.26762
G1 X88.626 Y88.954 E9.29008
G1 X89.725 Y88.863 E9.31759
G1 X90.046 Y88.854 E9.3256
G1 X90.33 Y88.85 E9.33269
G1 X129.293 Y88.85 E10.30462
G1 X130.136 Y88.861 E10.32565
G1 X131.036 Y88.914 E10.34814
G1 X131.927 Y89.046 E10.37061
G1 X132.803 Y89.257 E10.39309
G1 X133.656 Y89.545 E10.41555
G1 X134.481 Y89.907 E10.43802
G1 X135.271 Y90.341 E10.46051
G1 X136.019 Y90.844 E10.48299
G1 X136.719 Y91.41 E10.50545
G1 X137.366 Y92.037 E10.52792
G1 X137.956 Y92.718 E10.5504
G1 X138.482 Y93.449 E10.57286
G1 X138.942 Y94.224 E10.59534
G1 X139.331 Y95.036 E10.6178
G1 X139.646 Y95.88 E10.64028
G1 X139.886 Y96.749 E10.66277
G1 X140.047 Y97.635 E10.68523
G1 X140.137 Y98.725 E10.71251
G1 X140.146 Y99.045 E10.7205
G1 X140.15 Y99.33 E10.72761
G1 X140.149 Y116.89 E11.16564
G1 X140.14 Y117.617 E11.18378
G1 X140.089 Y118.516 E11.20624
G1 X139.958 Y119.407 E11.22871
G1 X139.749 Y120.284 E11.2512
G1 X139.463 Y121.138 E11.27366
G1 X139.102 Y121.964 E11.29615
G1 X138.67 Y122.754 E11.31861
G1 X138.169 Y123.503 E11.34109
G1 X137.604 Y124.204 E11.36355
G1 X136.979 Y124.853 E11.38602
G1 X136.298 Y125.443 E11.4085
G1 X135.568 Y125.971 E11.43097
G1 X134.794 Y126.432 E11.45345
G1 X133.983 Y126.823 E11.4759
G1 X133.14 Y127.14 E11.49837
G1 X132.272 Y127.381 E11.52084
G1 X131.386 Y127.545 E11.54332
G1 X130.275 Y127.637 E11.57113
G1 X129.954 Y127.646 E11.57914
G1 X129.67 Y127.65 E11.58622
G1 X90.576 Y127.649 E12.56143
G1 X89.878 Y127.64 E12.57884
G1 X88.979 Y127.589 E12.6013
G1 X88.087 Y127.457 E12.6238
G1 X87.211 Y127.248 E12.64626
G1 X86.357 Y126.961 E12.66873
G1 X85.532 Y126.6 E12.6912
G1 X84.742 Y126.167 E12.71367
G1 X83.993 Y125.666 E12.73615
G1 X83.292 Y125.1 E12.75862
G1 X82.644 Y124.475 E12.78108
G1 X82.053 Y123.794 E12.80357
G1 X81.526 Y123.064 E12.82603
G1 X81.065 Y122.29 E12.84851
G1 X80.675 Y121.478 E12.87098
G1 X80.358 Y120.635 E12.89344
G1 X80.117 Y119.766 E12.91594
G1 X79.955 Y118.88 E12.93841
G1 X79.863 Y117.765 E12.96632
G1 X79.854 Y117.432 E12.97463
G1 X79.85 Y117.158 E12.98146
G1 X79.851 Y99.537 E13.42102
G1 X79.86 Y98.872 E13.43761
G1 X79.912 Y97.972 E13.4601
G1 X80.044 Y97.081 E13.48257
G1 X80.254 Y96.205 E13.50504
G1 X80.541 Y95.351 E13.52751
G1 X80.903 Y94.526 E13.54998
G1 X81.336 Y93.736 E13.57246
G1 X81.838 Y92.988 E13.59493
G1 X82.404 Y92.287 E13.6174
G1 X83.03 Y91.639 E13.63988
G1 X83.711 Y91.049 E13.66235
G1 F1500 E11.96235
;MESH:SwitchHolderPerpendicular-D2F-L-Body.stl
G0 F6000 X96.036 Y110.914
G0 X95.928 Y109.059
G0 X104.619 Y109.983
G0 X105.204 Y110.205
G0 X105.718 Y110.561
G0 X106.132 Y111.028
G0 X106.423 Y111.58
G0 X106.573 Y112.189
G0 X106.573 Y112.811
G0 X106.423 Y113.42
G0 X106.189 Y113.866
G0 X104.79 Y115.711
;TYPE:WALL-INNER
G1 F1500 E13.66235
G1 F900 X105.539 Y115.429 E13.68232
G1 X106.192 Y114.975 E13.70216
G1 X106.723 Y114.38 E13.72205
G1 X107.094 Y113.673 E13.74197
G1 X107.284 Y112.897 E13.7619
G1 X107.284 Y112.103 E13.7817
G1 X107.094 Y111.327 E13.80163
G1 X106.723 Y110.62 E13.82155
G1 X106.192 Y110.025 E13.84144
G1 X105.539 Y109.571 E13.86128
G1 X104.79 Y109.289 E13.88125
G1 X104.063 Y109.2 E13.89952
G1 X95.937 Y109.2 E14.10222
G1 X95.21 Y109.289 E14.12049
G1 X94.461 Y109.571 E14.14046
G1 X93.808 Y110.025 E14.1603
G1 X93.277 Y110.62 E14.18019
G1 X92.906 Y111.327 E14.20011
G1 X92.716 Y112.103 E14.22003
G1 X92.716 Y112.897 E14.23984
G1 X92.906 Y113.673 E14.25977
G1 X93.277 Y114.38 E14.27969
G1 X93.808 Y114.975 E14.29958
G1 X94.461 Y115.429 E14.31942
G1 X95.21 Y115.711 E14.33938
G1 X95.937 Y115.8 E14.35765
G1 X104.063 Y115.8 E14.56036
G1 X104.79 Y115.711 E14.57863
G0 F6000 X104.718 Y115.418
G1 F900 X105.398 Y115.161 E14.59676
G1 X105.992 Y114.749 E14.6148
G1 X106.474 Y114.208 E14.63287
G1 X106.811 Y113.566 E14.65096
G1 X106.984 Y112.861 E14.66906
G1 X106.984 Y112.139 E14.68708
G1 X106.811 Y111.434 E14.70518
G1 X106.474 Y110.792 E14.72327
G1 X105.992 Y110.251 E14.74134
G1 X105.398 Y109.839 E14.75938
G1 X104.718 Y109.582 E14.77751
G1 X104.045 Y109.5 E14.79442
G1 X95.955 Y109.5 E14.99623
G1 X95.282 Y109.582 E15.01314
G1 X94.602 Y109.839 E15.03128
G1 X94.008 Y110.251 E15.04931
G1 X93.526 Y110.792 E15.06738
G1 X93.189 Y111.434 E15.08547
G1 X93.016 Y112.139 E15.10358
G1 X93.016 Y112.861 E15.12159
G1 X93.189 Y113.566 E15.1397
G1 X93.526 Y114.208 E15.15778
G1 X94.008 Y114.749 E15.17586
G1 X94.602 Y115.161 E15.19389
G1 X95.282 Y115.418 E15.21202
G1 X95.955 Y115.5 E15.22894
G1 X104.045 Y115.5 E15.43074
G1 X104.718 Y115.418 E15.44765
G0 F6000 X104.646 Y115.125
G1 F900 X105.257 Y114.893 E15.46396
G1 X105.792 Y114.523 E15.48018
G1 X106.225 Y114.036 E15.49644
G1 X106.528 Y113.459 E15.5127
G1 X106.684 Y112.825 E15.52898
G1 X106.684 Y112.175 E15.5452
G1 X106.528 Y111.541 E15.56149
G1 X106.225 Y110.964 E15.57774
G1 X105.792 Y110.477 E15.594
G1 X105.257 Y110.107 E15.61022
G1 X104.646 Y109.875 E15.62653
G1 X104.027 Y109.8 E15.64208
G1 X95.973 Y109.8 E15.84299
G1 X95.354 Y109.875 E15.85854
G1 X94.743 Y110.107 E15.87485
G1 X94.208 Y110.477 E15.89107
G1 X93.775 Y110.964 E15.90733
G1 X93.472 Y111.541 E15.92359
G1 X93.316 Y112.175 E15.93987
G1 X93.316 Y112.825 E15.95609
G1 X93.472 Y113.459 E15.97237
G1 X93.775 Y114.036 E15.98863
G1 X94.208 Y114.523 E16.00489
G1 X94.743 Y114.893 E16.02111
G1 X95.354 Y115.125 E16.03742
G1 X95.973 Y115.2 E16.05297
G1 X104.027 Y115.2 E16.25388
G1 X104.646 Y115.125 E16.26943
G0 F6000 X104.574 Y114.832
;TYPE:WALL-OUTER
G1 F900 X105.116 Y114.626 E16.2839
G1 X105.592 Y114.297 E16.29833
G1 X105.976 Y113.864 E16.31277
G1 X106.245 Y113.352 E16.32719
G1 X106.384 Y112.789 E16.34166
G1 X106.384 Y112.211 E16.35608
G1 X106.245 Y111.648 E16.37054
G1 X105.976 Y111.136 E16.38497
G1 X105.592 Y110.703 E16.39941
G1 X105.116 Y110.374 E16.41384
G1 X104.574 Y110.168 E16.42831
G1 X104.009 Y110.1 E16.4425
G1 X95.991 Y110.1 E16.64251
G1 X95.426 Y110.168 E16.65671
G1 X94.884 Y110.374 E16.67117
G1 X94.408 Y110.703 E16.68561
G1 X94.024 Y111.136 E16.70004
G1 X93.755 Y111.648 E16.71447
G1 X93.616 Y112.211 E16.72894
G1 X93.616 Y112.789 E16.74335
G1 X93.755 Y113.352 E16.75782
G1 X94.024 Y113.864 E16.77225
G1 X94.408 Y114.297 E16.78668
G1 X94.884 Y114.626 E16.80112
G1 X95.426 Y114.832 E16.81558
G1 X95.991 Y114.9 E16.82978
G1 X104.009 Y114.9 E17.02979
G1 X104.574 Y114.832 E17.04398
G0 F6000 X104.652 Y115.152
G1 F1500 E15.34398
G0 F6000 X106.286 Y115.082
G0 X105.046 Y113.686
G0 X114.954 Y113.686
G0 X113.714 Y115.082
G0 X115.21 Y115.711
;TYPE:WALL-INNER
G1 F1500 E17.04398
G1 F900 X115.937 Y115.8 E17.06225
G1 X124.063 Y115.8 E17.26496
G1 X124.79 Y115.711 E17.28323
G1 X125.539 Y115.429 E17.30319
G1 X126.192 Y114.975 E17.32303
G1 X126.723 Y114.38 E17.34292
G1 X127.094 Y113.673 E17.36284
G1 X127.284 Y112.897 E17.38277
G1 X127.284 Y112.103 E17.40258
G1 X127.094 Y111.327 E17.42251
G1 X126.723 Y110.62 E17.44242
G1 X126.192 Y110.025 E17.46232
G1 X125.539 Y109.571 E17.48216
G1 X124.79 Y109.289 E17.50212
G1 X124.063 Y109.2 E17.52039
G1 X115.937 Y109.2 E17.72309
G1 X115.21 Y109.289 E17.74136
G1 X114.461 Y109.571 E17.76133
G1 X113.808 Y110.025 E17.78117
G1 X113.277 Y110.62 E17.80106
G1 X112.906 Y111.327 E17.82098
G1 X112.716 Y112.103 E17.84091
G1 X112.716 Y112.897 E17.86071
G1 X112.906 Y113.673 E17.88064
G1 X113.277 Y114.38 E17.90056
G1 X113.808 Y114.975 E17.92045
G1 X114.461 Y115.429 E17.94029
G1 X115.21 Y115.711 E17.96026
G0 F6000 X115.282 Y115.418
G1 F900 X115.955 Y115.5 E17.97717
G1 X124.045 Y115.5 E18.17897
G1 X124.718 Y115.418 E18.19589
G1 X125.398 Y115.161 E18.21402
G1 X125.992 Y114.749 E18.23205
G1 X126.474 Y114.208 E18.25013
G1 X126.811 Y113.566 E18.26822
G1 X126.984 Y112.861 E18.28632
G1 X126.984 Y112.139 E18.30433
G1 X126.811 Y111.434 E18.32244
G1 X126.474 Y110.792 E18.34053
G1 X125.992 Y110.251 E18.3586
G1 X125.398 Y109.839 E18.37664
G1 X124.718 Y109.582 E18.39477
G1 X124.045 Y109.5 E18.41168
G1 X115.955 Y109.5 E18.61349
G1 X115.282 Y109.582 E18.6304
G1 X114.602 Y109.839 E18.64853
G1 X114.008 Y110.251 E18.66657
G1 X113.526 Y110.792 E18.68464
G1 X113.189 Y111.434 E18.70273
G1 X113.016 Y112.139 E18.72084
G1 X113.016 Y112.861 E18.73885
G1 X113.189 Y113.566 E18.75695
G1 X113.526 Y114.208 E18.77504
G1 X114.008 Y114.749 E18.79312
G1 X114.602 Y115.161 E18.81115
G1 X115.282 Y115.418 E18.82928
G0 F6000 X115.354 Y115.125
G1 F900 X115.973 Y115.2 E18.84484
G1 X124.027 Y115.2 E19.04574
G1 X124.646 Y115.125 E19.0613
G1 X125.257 Y114.893 E19.0776
G1 X125.792 Y114.523 E19.09383
G1 X126.225 Y114.036 E19.11008
G1 X126.528 Y113.459 E19.12634
G1 X126.684 Y112.825 E19.14263
G1 X126.684 Y112.175 E19.15884
G1 X126.528 Y111.541 E19.17513
G1 X126.225 Y110.964 E19.19139
G1 X125.792 Y110.477 E19.20764
G1 X125.257 Y110.107 E19.22387
G1 X124.646 Y109.875 E19.24017
G1 X124.027 Y109.8 E19.25572
G1 X115.973 Y109.8 E19.45663
G1 X115.354 Y109.875 E19.47219
G1 X114.743 Y110.107 E19.48849
G1 X114.208 Y110.477 E19.50472
G1 X113.775 Y110.964 E19.52097
G1 X113.472 Y111.541 E19.53723
G1 X113.316 Y112.175 E19.55352
G1 X113.316 Y112.825 E19.56973
G1 X113.472 Y113.459 E19.58602
G1 X113.775 Y114.036 E19.60227
G1 X114.208 Y114.523 E19.61853
G1 X114.743 Y114.893 E19.63476
G1 X115.354 Y115.125 E19.65106
G0 F6000 X115.426 Y114.832
;TYPE:WALL-OUTER
G1 F900 X115.991 Y114.9 E19.66526
G1 X124.009 Y114.9 E19.86527
G1 X124.574 Y114.832 E19.87946
G1 X125.116 Y114.626 E19.89392
G1 X125.592 Y114.297 E19.90836
G1 X125.976 Y113.864 E19.9228
G1 X126.245 Y113.352 E19.93722
G1 X126.384 Y112.789 E19.95169
G1 X126.384 Y112.211 E19.96611
G1 X126.245 Y111.648 E19.98057
G1 X125.976 Y111.136 E19.995
G1 X125.592 Y110.703 E20.00944
G1 X125.116 Y110.374 E20.02387
G1 X124.574 Y110.168 E20.03834
G1 X124.009 Y110.1 E20.05253
G1 X115.991 Y110.1 E20.25254
G1 X115.426 Y110.168 E20.26674
G1 X114.884 Y110.374 E20.2812
G1 X114.408 Y110.703 E20.29563
G1 X114.024 Y111.136 E20.31007
G1 X113.755 Y111.648 E20.3245
G1 X113.616 Y112.211 E20.33896
G1 X113.616 Y112.789 E20.35338
G1 X113.755 Y113.352 E20.36785
G1 X114.024 Y113.864 E20.38228
G1 X114.408 Y114.297 E20.39671
G1 X114.884 Y114.626 E20.41115
G1 X115.426 Y114.832 E20.42561
G0 F6000 X115.348 Y115.152
G1 F1500 E18.72561
