;FLAVOR:Marlin
;TIME:5507
;Filament used: 2.26889m
;Layer height: 0.2
;MINX:79.25
;MINY:88.25
;MINZ:0.2
;MAXX:140.75
;MAXY:128.25
;MAXZ:55
;Generated with Cura_SteamEngine 4.13.1
M140 S70
M105
M190 S70
M104 S240
M105
M109 S240
M82 ;absolute extrusion mode
; Ender 3 Custom Start G-code
G92 E0 ; Reset Extruder
G28 ; Home all axes
G29 ; Auto bed-level (BL-Touch)
G1 Z2.0 F3000 ; Move Z Axis up little to prevent scratching of Heat Bed
G1 X0.1 Y20 Z0.3 F5000.0 ; Move to start position
G1 X0.1 Y200.0 Z0.3 F1500.0 E15 ; Draw the first line
G1 X0.4 Y200.0 Z0.3 F5000.0 ; Move to side a little
G1 X0.4 Y20 Z0.3 F1500.0 E30 ; Draw the second line
G92 E0 ; Reset Extruder
G1 Z2.0 F3000 ; Move Z Axis up little to prevent scratching of Heat Bed
G1 X5 Y20 Z0.3 F5000.0 ; Move over to prevent blob squish
G92 E0
G92 E0
G1 F1500 E-1.7
;LAYER_COUNT:275
;LAYER:0
M107
G0 F6000 X83.408 Y91.048 Z0.2
;TYPE:SKIRT
G1 F1500 E0
G1 F900 X84.139 Y90.478 E0.02312
G1 X84.554 Y90.196 E0.03564
G1 X84.748 Y90.071 E0.0414
G1 X85.549 Y89.603 E0.06454
G1 X86.386 Y89.206 E0.08765
G1 X86.991 Y88.972 E0.10383
G1 X87.192 Y88.901 E0.10915
G1 X88.078 Y88.63 E0.13226
G1 X88.985 Y88.437 E0.15539
G1 X89.513 Y88.361 E0.1687
G1 X89.742 Y88.334 E0.17445
G1 X90.842 Y88.261 E0.20195
G1 X91.675 Y88.25 E0.22273
G1 X128.293 Y88.25 E1.13617
G1 X129.145 Y88.261 E1.15742
G1 X130.178 Y88.326 E1.18324
G1 X130.412 Y88.352 E1.18912
G1 X131.328 Y88.494 E1.21224
G1 X132.229 Y88.714 E1.23537
G1 X132.824 Y88.906 E1.25097
G1 X133.021 Y88.976 E1.25619
G1 X133.881 Y89.324 E1.27933
G1 X135.077 Y89.964 E1.31317
G1 X135.271 Y90.084 E1.31886
G1 X136.038 Y90.605 E1.34199
G1 X136.757 Y91.19 E1.36511
G1 X137.167 Y91.575 E1.37914
G1 X137.32 Y91.726 E1.3845
G1 X137.951 Y92.405 E1.40762
G1 X138.522 Y93.136 E1.43076
G1 X138.848 Y93.621 E1.44534
G1 X138.971 Y93.815 E1.45107
G1 X139.433 Y94.618 E1.47418
G1 X139.824 Y95.459 E1.49731
G1 X140.019 Y95.965 E1.51084
G1 X140.087 Y96.156 E1.5159
G1 X140.36 Y97.043 E1.53905
G1 X140.623 Y98.4 E1.57353
G1 X140.652 Y98.627 E1.57924
G1 X140.738 Y99.817 E1.609
G1 X140.75 Y100.675 E1.6304
G1 X140.749 Y115.955 E2.01157
G1 X140.739 Y116.634 E2.0285
G1 X140.687 Y117.546 E2.05129
G1 X140.663 Y117.786 E2.05731
G1 X140.531 Y118.703 E2.08042
G1 X140.32 Y119.606 E2.10355
G1 X140.121 Y120.244 E2.12022
G1 X140.047 Y120.457 E2.12585
G1 X139.705 Y121.319 E2.14898
G1 X139.29 Y122.148 E2.17211
G1 X139.025 Y122.599 E2.18515
G1 X138.912 Y122.781 E2.1905
G1 X138.389 Y123.547 E2.21364
G1 X137.803 Y124.265 E2.23675
G1 X137.406 Y124.686 E2.25119
G1 X137.261 Y124.832 E2.25632
G1 X136.58 Y125.461 E2.27945
G1 X135.508 Y126.26 E2.3128
G1 X135.298 Y126.397 E2.31905
G1 X134.5 Y126.87 E2.34219
G1 X133.665 Y127.272 E2.36531
G1 X132.951 Y127.549 E2.38442
G1 X132.761 Y127.615 E2.38943
G1 X131.873 Y127.881 E2.41256
G1 X130.667 Y128.114 E2.4432
G1 X130.444 Y128.144 E2.44881
G1 X129.158 Y128.239 E2.48098
G1 X128.28 Y128.25 E2.50288
G1 X91.553 Y128.249 E3.41904
G1 X90.856 Y128.239 E3.43643
G1 X89.828 Y128.175 E3.46212
G1 X89.593 Y128.149 E3.46802
G1 X88.677 Y128.007 E3.49114
G1 X87.776 Y127.787 E3.51428
G1 X87.176 Y127.594 E3.53
G1 X86.979 Y127.524 E3.53521
G1 X86.119 Y127.176 E3.55836
G1 X84.91 Y126.528 E3.59257
G1 X84.715 Y126.407 E3.5983
G1 X83.949 Y125.885 E3.62142
G1 X83.231 Y125.299 E3.64454
G1 X82.832 Y124.925 E3.65818
G1 X82.681 Y124.776 E3.66347
G1 X82.05 Y124.097 E3.6866
G1 X81.48 Y123.366 E3.70972
G1 X81.161 Y122.892 E3.72397
G1 X81.037 Y122.697 E3.72974
G1 X80.573 Y121.894 E3.75287
G1 X80.181 Y121.054 E3.77599
G1 X79.949 Y120.445 E3.79225
G1 X79.877 Y120.237 E3.79774
G1 X79.612 Y119.349 E3.82086
G1 X79.425 Y118.441 E3.84398
G1 X79.355 Y117.934 E3.85675
G1 X79.329 Y117.705 E3.8625
G1 X79.261 Y116.653 E3.8888
G1 X79.25 Y115.826 E3.90943
G1 X79.251 Y100.553 E4.29041
G1 X79.261 Y99.854 E4.30785
G1 X79.326 Y98.816 E4.3338
G1 X79.352 Y98.583 E4.33965
G1 X79.495 Y97.667 E4.36277
G1 X79.716 Y96.766 E4.38591
G1 X79.91 Y96.166 E4.40164
G1 X79.982 Y95.964 E4.40699
G1 X80.331 Y95.105 E4.43012
G1 X80.949 Y93.945 E4.46291
G1 X81.059 Y93.766 E4.46815
G1 X81.578 Y92.997 E4.49129
G1 X82.161 Y92.277 E4.5144
G1 X82.569 Y91.84 E4.52932
G1 X82.728 Y91.679 E4.53496
G1 X83.408 Y91.048 E4.5581
G0 F6000 X83.612 Y91.268
G1 F900 X84.334 Y90.708 E4.58089
G1 X84.717 Y90.449 E4.59243
G1 X84.911 Y90.324 E4.59818
G1 X85.7 Y89.863 E4.62098
G1 X86.527 Y89.472 E4.6438
G1 X87.09 Y89.255 E4.65885
G1 X87.291 Y89.184 E4.66417
G1 X88.166 Y88.917 E4.68699
G1 X89.06 Y88.728 E4.70978
G1 X89.548 Y88.659 E4.72208
G1 X89.777 Y88.632 E4.72783
G1 X90.846 Y88.561 E4.75455
G1 X91.675 Y88.55 E4.77523
G1 X128.293 Y88.55 E5.68867
G1 X129.141 Y88.561 E5.70983
G1 X130.145 Y88.624 E5.73492
G1 X130.379 Y88.65 E5.7408
G1 X131.282 Y88.791 E5.76359
G1 X132.17 Y89.009 E5.7864
G1 X132.724 Y89.189 E5.80093
G1 X132.921 Y89.259 E5.80615
G1 X133.768 Y89.603 E5.82895
G1 X134.919 Y90.219 E5.86152
G1 X135.113 Y90.339 E5.86721
G1 X135.869 Y90.853 E5.89001
G1 X136.577 Y91.432 E5.91283
G1 X136.956 Y91.788 E5.9258
G1 X137.109 Y91.939 E5.93116
G1 X137.731 Y92.609 E5.95397
G1 X138.292 Y93.331 E5.97678
G1 X138.595 Y93.781 E5.99031
G1 X138.718 Y93.975 E5.99604
G1 X139.173 Y94.768 E6.01884
G1 X139.557 Y95.598 E6.04166
G1 X139.737 Y96.066 E6.05417
G1 X139.805 Y96.257 E6.05922
G1 X140.073 Y97.131 E6.08203
G1 X140.326 Y98.438 E6.11524
G1 X140.355 Y98.665 E6.12094
G1 X140.438 Y99.821 E6.14985
G1 X140.45 Y100.675 E6.17116
G1 X140.449 Y115.951 E6.55222
G1 X140.439 Y116.63 E6.56916
G1 X140.388 Y117.516 E6.5913
G1 X140.364 Y117.756 E6.59732
G1 X140.233 Y118.661 E6.62013
G1 X140.024 Y119.55 E6.64291
G1 X139.837 Y120.145 E6.65847
G1 X139.763 Y120.358 E6.66409
G1 X139.426 Y121.208 E6.6869
G1 X139.015 Y122.025 E6.70971
G1 X138.77 Y122.441 E6.72176
G1 X138.657 Y122.623 E6.7271
G1 X138.141 Y123.378 E6.74991
G1 X137.562 Y124.085 E6.77271
G1 X137.194 Y124.475 E6.78608
G1 X137.049 Y124.621 E6.79122
G1 X136.377 Y125.241 E6.81402
G1 X135.344 Y126.009 E6.84613
G1 X135.134 Y126.146 E6.85239
G1 X134.347 Y126.612 E6.8752
G1 X133.523 Y127.007 E6.898
G1 X132.853 Y127.265 E6.91591
G1 X132.663 Y127.331 E6.92092
G1 X131.787 Y127.593 E6.94373
G1 X130.627 Y127.817 E6.9732
G1 X130.404 Y127.847 E6.97882
G1 X129.154 Y127.939 E7.01008
G1 X128.28 Y127.95 E7.03189
G1 X91.557 Y127.949 E7.94795
G1 X90.86 Y127.939 E7.96533
G1 X89.861 Y127.877 E7.9903
G1 X89.626 Y127.851 E7.9962
G1 X88.723 Y127.71 E8.019
G1 X87.835 Y127.492 E8.04181
G1 X87.276 Y127.311 E8.05646
G1 X87.079 Y127.241 E8.06168
G1 X86.232 Y126.897 E8.08448
G1 X85.068 Y126.273 E8.11743
G1 X84.873 Y126.152 E8.12315
G1 X84.118 Y125.637 E8.14595
G1 X83.411 Y125.057 E8.16876
G1 X83.043 Y124.711 E8.18136
G1 X82.892 Y124.562 E8.18665
G1 X82.27 Y123.892 E8.20946
G1 X81.709 Y123.171 E8.23225
G1 X81.414 Y122.731 E8.24546
G1 X81.29 Y122.536 E8.25123
G1 X80.834 Y121.744 E8.27402
G1 X80.448 Y120.915 E8.29684
G1 X80.233 Y120.347 E8.31199
G1 X80.161 Y120.139 E8.31748
G1 X79.9 Y119.263 E8.34028
G1 X79.717 Y118.368 E8.36307
G1 X79.653 Y117.9 E8.37485
G1 X79.627 Y117.671 E8.3806
G1 X79.561 Y116.649 E8.40614
G1 X79.55 Y115.826 E8.42668
G1 X79.551 Y100.558 E8.80754
G1 X79.561 Y99.859 E8.82498
G1 X79.624 Y98.849 E8.85022
G1 X79.65 Y98.616 E8.85607
G1 X79.791 Y97.713 E8.87887
G1 X80.011 Y96.826 E8.90166
G1 X80.193 Y96.266 E8.91635
G1 X80.265 Y96.064 E8.9217
G1 X80.609 Y95.218 E8.94448
G1 X81.205 Y94.102 E8.97604
G1 X81.315 Y93.923 E8.98128
G1 X81.827 Y93.166 E9.00408
G1 X82.403 Y92.456 E9.02689
G1 X82.783 Y92.051 E9.04074
G1 X82.942 Y91.89 E9.04639
G1 X83.612 Y91.268 E9.06919
G0 F6000 X83.816 Y91.489
G1 F900 X84.879 Y90.701 E9.1022
G1 X85.073 Y90.576 E9.10795
G1 X85.852 Y90.122 E9.13045
G1 X86.667 Y89.739 E9.15291
G1 X87.19 Y89.538 E9.16689
G1 X87.391 Y89.467 E9.1722
G1 X88.253 Y89.204 E9.19469
G1 X89.135 Y89.02 E9.21716
G1 X89.584 Y88.957 E9.22847
G1 X89.813 Y88.93 E9.23422
G1 X90.85 Y88.861 E9.26015
G1 X91.675 Y88.85 E9.28073
G1 X128.293 Y88.85 E10.19417
G1 X129.136 Y88.861 E10.2152
G1 X130.112 Y88.922 E10.23959
G1 X130.346 Y88.948 E10.24547
G1 X131.236 Y89.087 E10.26794
G1 X132.11 Y89.305 E10.29041
G1 X132.623 Y89.472 E10.30386
G1 X132.82 Y89.542 E10.30908
G1 X133.655 Y89.881 E10.33156
G1 X134.761 Y90.474 E10.36286
G1 X134.955 Y90.594 E10.36856
G1 X135.7 Y91.101 E10.39103
G1 X136.396 Y91.673 E10.41351
G1 X136.746 Y92.002 E10.42549
G1 X136.899 Y92.153 E10.43085
G1 X137.511 Y92.813 E10.4533
G1 X138.063 Y93.526 E10.4758
G1 X138.341 Y93.942 E10.48828
G1 X138.464 Y94.136 E10.49401
G1 X138.912 Y94.918 E10.51649
G1 X139.289 Y95.736 E10.53896
G1 X139.454 Y96.167 E10.55047
G1 X139.522 Y96.358 E10.55553
G1 X139.786 Y97.219 E10.57799
G1 X140.028 Y98.476 E10.60992
G1 X140.057 Y98.703 E10.61563
G1 X140.138 Y99.826 E10.64372
G1 X140.15 Y100.675 E10.6649
G1 X140.149 Y115.946 E11.04584
G1 X140.139 Y116.625 E11.06278
G1 X140.09 Y117.486 E11.08429
G1 X140.066 Y117.726 E11.09031
G1 X139.936 Y118.618 E11.11279
G1 X139.728 Y119.494 E11.13525
G1 X139.554 Y120.047 E11.14971
G1 X139.48 Y120.26 E11.15534
G1 X139.147 Y121.097 E11.17781
G1 X138.515 Y122.283 E11.21133
G1 X138.402 Y122.465 E11.21667
G1 X137.893 Y123.208 E11.23914
G1 X137.321 Y123.904 E11.26161
G1 X136.981 Y124.263 E11.27395
G1 X136.836 Y124.409 E11.27908
G1 X136.173 Y125.02 E11.30157
G1 X135.18 Y125.758 E11.33243
G1 X134.97 Y125.895 E11.33869
G1 X134.194 Y126.353 E11.36117
G1 X133.381 Y126.741 E11.38364
G1 X132.755 Y126.982 E11.40037
G1 X132.565 Y127.048 E11.40539
G1 X131.701 Y127.306 E11.42788
G1 X130.587 Y127.519 E11.45617
G1 X130.364 Y127.549 E11.46179
G1 X129.15 Y127.639 E11.49215
G1 X128.28 Y127.65 E11.51386
G1 X91.561 Y127.649 E12.42982
G1 X90.864 Y127.639 E12.4472
G1 X89.894 Y127.578 E12.47145
G1 X89.659 Y127.552 E12.47735
G1 X88.769 Y127.414 E12.49981
G1 X87.894 Y127.197 E12.5223
G1 X87.377 Y127.028 E12.53587
G1 X87.18 Y126.958 E12.54108
G1 X86.345 Y126.619 E12.56356
G1 X85.226 Y126.019 E12.59524
G1 X85.031 Y125.898 E12.60096
G1 X84.288 Y125.389 E12.62343
G1 X83.592 Y124.817 E12.6459
G1 X83.254 Y124.498 E12.65749
G1 X83.103 Y124.349 E12.66279
G1 X82.49 Y123.688 E12.68527
G1 X81.939 Y122.976 E12.70773
G1 X81.667 Y122.57 E12.71992
G1 X81.543 Y122.375 E12.72569
G1 X81.094 Y121.595 E12.74814
G1 X80.716 Y120.777 E12.77062
G1 X80.516 Y120.249 E12.7847
G1 X80.444 Y120.041 E12.79019
G1 X80.188 Y119.178 E12.81265
G1 X79.951 Y117.866 E12.8459
G1 X79.925 Y117.637 E12.85165
G1 X79.861 Y116.644 E12.87647
G1 X79.85 Y115.826 E12.89688
G1 X79.851 Y100.562 E13.27764
G1 X79.861 Y99.863 E13.29508
G1 X79.923 Y98.882 E13.3196
G1 X79.949 Y98.649 E13.32545
G1 X80.088 Y97.759 E13.34792
G1 X80.306 Y96.885 E13.37039
G1 X80.475 Y96.367 E13.38398
G1 X80.547 Y96.165 E13.38933
G1 X80.887 Y95.331 E13.4118
G1 X81.46 Y94.259 E13.44212
G1 X81.57 Y94.08 E13.44736
G1 X82.076 Y93.334 E13.46985
G1 X82.645 Y92.636 E13.49231
G1 X82.996 Y92.262 E13.50511
G1 X83.155 Y92.101 E13.51075
G1 X83.816 Y91.489 E13.53322
G1 F1500 E11.83322
;MESH:SwitchHolderPerpendicular.stl
G0 F6000 X114.43 Y112.31
G0 X112.575 Y112.086
G0 X113.307 Y113.154
G0 X115.21 Y115.711
;TYPE:WALL-INNER
G1 F1500 E13.53322
G1 F900 X115.937 Y115.8 E13.55149
G1 X124.063 Y115.8 E13.7542
G1 X124.79 Y115.711 E13.77247
G1 X125.539 Y115.429 E13.79243
G1 X126.192 Y114.975 E13.81227
G1 X126.723 Y114.38 E13.83216
G1 X127.094 Y113.673 E13.85208
G1 X127.284 Y112.897 E13.87201
G1 X127.284 Y112.103 E13.89182
G1 X127.094 Y111.327 E13.91174
G1 X126.723 Y110.62 E13.93166
G1 X126.192 Y110.025 E13.95155
G1 X125.539 Y109.571 E13.97139
G1 X124.79 Y109.289 E13.99136
G1 X124.063 Y109.2 E14.00963
G1 X115.937 Y109.2 E14.21233
G1 X115.21 Y109.289 E14.2306
G1 X114.461 Y109.571 E14.25057
G1 X113.808 Y110.025 E14.27041
G1 X113.277 Y110.62 E14.2903
G1 X112.906 Y111.327 E14.31022
G1 X112.716 Y112.103 E14.33015
G1 X112.716 Y112.897 E14.34995
G1 X112.906 Y113.673 E14.36988
G1 X113.277 Y114.38 E14.3898
G1 X113.808 Y114.975 E14.40969
G1 X114.461 Y115.429 E14.42953
G1 X115.21 Y115.711 E14.4495
G0 F6000 X115.282 Y115.418
G1 F900 X115.955 Y115.5 E14.46641
G1 X124.045 Y115.5 E14.66821
G1 X124.718 Y115.418 E14.68513
G1 X125.398 Y115.161 E14.70326
G1 X125.992 Y114.749 E14.72129
G1 X126.474 Y114.208 E14.73937
G1 X126.811 Y113.566 E14.75745
G1 X126.984 Y112.861 E14.77556
G1 X126.984 Y112.139 E14.79357
G1 X126.811 Y111.434 E14.81168
G1 X126.474 Y110.792 E14.82977
G1 X125.992 Y110.251 E14.84784
G1 X125.398 Y109.839 E14.86587
G1 X124.718 Y109.582 E14.88401
G1 X124.045 Y109.5 E14.90092
G1 X115.955 Y109.5 E15.10273
G1 X115.282 Y109.582 E15.11964
G1 X114.602 Y109.839 E15.13777
G1 X114.008 Y110.251 E15.1558
G1 X113.526 Y110.792 E15.17388
G1 X113.189 Y111.434 E15.19197
G1 X113.016 Y112.139 E15.21007
G1 X113.016 Y112.861 E15.22808
G1 X113.189 Y113.566 E15.24619
G1 X113.526 Y114.208 E15.26428
G1 X114.008 Y114.749 E15.28235
G1 X114.602 Y115.161 E15.30039
G1 X115.282 Y115.418 E15.31852
G0 F6000 X115.354 Y115.125
G1 F900 X115.973 Y115.2 E15.33408
G1 X124.027 Y115.2 E15.53498
G1 X124.646 Y115.125 E15.55054
G1 X125.257 Y114.893 E15.56684
G1 X125.792 Y114.523 E15.58307
G1 X126.225 Y114.036 E15.59932
G1 X126.528 Y113.459 E15.61558
G1 X126.684 Y112.825 E15.63187
G1 X126.684 Y112.175 E15.64808
G1 X126.528 Y111.541 E15.66437
G1 X126.225 Y110.964 E15.68062
G1 X125.792 Y110.477 E15.69688
G1 X125.257 Y110.107 E15.71311
G1 X124.646 Y109.875 E15.72941
G1 X124.027 Y109.8 E15.74496
G1 X115.973 Y109.8 E15.94587
G1 X115.354 Y109.875 E15.96143
G1 X114.743 Y110.107 E15.97773
G1 X114.208 Y110.477 E15.99395
G1 X113.775 Y110.964 E16.01021
G1 X113.472 Y111.541 E16.02647
G1 X113.316 Y112.175 E16.04275
G1 X113.316 Y112.825 E16.05897
G1 X113.472 Y113.459 E16.07526
G1 X113.775 Y114.036 E16.09151
G1 X114.208 Y114.523 E16.10777
G1 X114.743 Y114.893 E16.124
G1 X115.354 Y115.125 E16.1403
G0 F6000 X115.426 Y114.832
;TYPE:WALL-OUTER
G1 F900 X115.991 Y114.9 E16.15449
G1 X124.009 Y114.9 E16.3545
G1 X124.574 Y114.832 E16.3687
G1 X125.116 Y114.626 E16.38316
G1 X125.592 Y114.297 E16.3976
G1 X125.976 Y113.864 E16.41203
G1 X126.245 Y113.352 E16.42646
G1 X126.384 Y112.789 E16.44093
G1 X126.384 Y112.211 E16.45535
G1 X126.245 Y111.648 E16.46981
G1 X125.976 Y111.136 E16.48424
G1 X125.592 Y110.703 E16.49868
G1 X125.116 Y110.374 E16.51311
G1 X124.574 Y110.168 E16.52757
G1 X124.009 Y110.1 E16.54177
G1 X115.991 Y110.1 E16.74178
G1 X115.426 Y110.168 E16.75597
G1 X114.884 Y110.374 E16.77044
G1 X114.408 Y110.703 E16.78487
G1 X114.024 Y111.136 E16.79931
G1 X113.755 Y111.648 E16.81374
G1 X113.616 Y112.211 E16.8282
G1 X113.616 Y112.789 E16.84262
G1 X113.755 Y113.352 E16.85709
G1 X114.024 Y113.864 E16.87151
G1 X114.408 Y114.297 E16.88595
G1 X114.884 Y114.626 E16.90039
G1 X115.426 Y114.832 E16.91485
G0 F6000 X115.348 Y115.152
G1 F1500 E15.21485
G0 F6000 X113.714 Y115.082
G0 X114.954 Y113.686
G0 X105.046 Y113.686
G0 X106.286 Y115.082
G0 X104.79 Y115.711
;TYPE:WALL-INNER
G1 F1500 E16.91485
G1 F900 X105.539 Y115.429 E16.93481
G1 X106.192 Y114.975 E16.95465
G1 X106.723 Y114.38 E16.97455
G1 X107.094 Y113.673 E16.99446
G1 X107.284 Y112.897 E17.01439
G1 X107.284 Y112.103 E17.0342
G1 X107.094 Y111.327 E17.05413
G1 X106.723 Y110.62 E17.07404
G1 X106.192 Y110.025 E17.09394
G1 X105.539 Y109.571 E17.11378
G1 X104.79 Y109.289 E17.13374
G1 X104.063 Y109.2 E17.15201
G1 X95.937 Y109.2 E17.35472
G1 X95.21 Y109.289 E17.37299
G1 X94.461 Y109.571 E17.39295
G1 X93.808 Y110.025 E17.41279
G1 X93.277 Y110.62 E17.43268
G1 X92.906 Y111.327 E17.4526
G1 X92.716 Y112.103 E17.47253
G1 X92.716 Y112.897 E17.49234
G1 X92.906 Y113.673 E17.51226
G1 X93.277 Y114.38 E17.53218
G1 X93.808 Y114.975 E17.55208
G1 X94.461 Y115.429 E17.57191
G1 X95.21 Y115.711 E17.59188
G1 X95.937 Y115.8 E17.61015
G1 X104.063 Y115.8 E17.81285
G1 X104.79 Y115.711 E17.83112
G0 F6000 X104.718 Y115.418
G1 F900 X105.398 Y115.161 E17.84926
G1 X105.992 Y114.749 E17.86729
G1 X106.474 Y114.208 E17.88536
G1 X106.811 Y113.566 E17.90345
G1 X106.984 Y112.861 E17.92156
G1 X106.984 Y112.139 E17.93957
G1 X106.811 Y111.434 E17.95768
G1 X106.474 Y110.792 E17.97576
G1 X105.992 Y110.251 E17.99384
G1 X105.398 Y109.839 E18.01187
G1 X104.718 Y109.582 E18.03001
G1 X104.045 Y109.5 E18.04692
G1 X95.955 Y109.5 E18.24872
G1 X95.282 Y109.582 E18.26564
