;FLAVOR:Marlin
;TIME:6165
;Filament used: 2.78656m
;Layer height: 0.2
;MINX:79.25
;MINY:72.322
;MINZ:0.2
;MAXX:140.75
;MAXY:148.25
;MAXZ:22
;Generated with Cura_SteamEngine 4.13.1
M140 S70
M105
M190 S70
M104 S240
M105
M109 S240
M82 ;absolute extrusion mode
; Ender 3 Custom Start G-code
G92 E0 ; Reset Extruder
G28 ; Home all axes
G29 ; Auto bed-level (BL-Touch)
G1 Z2.0 F3000 ; Move Z Axis up little to prevent scratching of Heat Bed
G1 X0.1 Y20 Z0.3 F5000.0 ; Move to start position
G1 X0.1 Y200.0 Z0.3 F1500.0 E15 ; Draw the first line
G1 X0.4 Y200.0 Z0.3 F5000.0 ; Move to side a little
G1 X0.4 Y20 Z0.3 F1500.0 E30 ; Draw the second line
G92 E0 ; Reset Extruder
G1 Z2.0 F3000 ; Move Z Axis up little to prevent scratching of Heat Bed
G1 X5 Y20 Z0.3 F5000.0 ; Move over to prevent blob squish
G92 E0
G92 E0
G1 F1500 E-1.7
;LAYER_COUNT:110
;LAYER:0
M107
G0 F6000 X104.31 Y76.914 Z0.2
;TYPE:SKIRT
G1 F1500 E0
G1 F900 X104.875 Y76.178 E0.02315
G1 X105.501 Y75.495 E0.04626
G1 X106.183 Y74.867 E0.06938
G1 X106.917 Y74.301 E0.0925
G1 X107.698 Y73.8 E0.11565
G1 X108.518 Y73.368 E0.13877
G1 X109.373 Y73.009 E0.1619
G1 X110.255 Y72.724 E0.18502
G1 X111.159 Y72.517 E0.20816
G1 X112.077 Y72.388 E0.23128
G1 X112.919 Y72.34 E0.25232
G1 X113.947 Y72.323 E0.27797
G1 X115.219 Y72.322 E0.3097
G1 X116.052 Y72.333 E0.33048
G1 X116.978 Y72.387 E0.35362
G1 X117.895 Y72.521 E0.37673
G1 X118.798 Y72.733 E0.39987
G1 X119.679 Y73.022 E0.423
G1 X120.531 Y73.386 E0.44611
G1 X121.35 Y73.822 E0.46926
G1 X122.127 Y74.327 E0.49237
G1 X122.859 Y74.897 E0.51552
G1 X123.538 Y75.527 E0.53862
G1 X124.16 Y76.215 E0.56176
G1 X124.721 Y76.953 E0.58488
G1 X125.217 Y77.736 E0.608
G1 X125.519 Y78.302 E0.62401
G1 X125.898 Y79.149 E0.64715
G1 X126.252 Y80.196 E0.67472
G1 X126.33 Y80.473 E0.6819
G1 X126.542 Y81.376 E0.70504
G1 X126.645 Y82.026 E0.72146
G1 X126.691 Y82.391 E0.73063
G1 X126.906 Y84.332 E0.77935
G1 X127.257 Y86.846 E0.84267
G1 X127.673 Y89.315 E0.90513
G1 X128.16 Y91.779 E0.96778
G1 X128.714 Y94.214 E1.03007
G1 X129.354 Y96.711 E1.09438
G1 X130.052 Y99.137 E1.15735
G1 X130.808 Y101.512 E1.21952
G1 X131.645 Y103.904 E1.28274
G1 X132.549 Y106.27 E1.34592
G1 X133.521 Y108.612 E1.40917
G1 X134.544 Y110.895 E1.47158
G1 X135.652 Y113.191 E1.53517
G1 X136.798 Y115.404 E1.59734
G1 X138.04 Y117.645 E1.66125
G1 X138.934 Y119.165 E1.70524
G1 X139.153 Y119.557 E1.71644
G1 X139.306 Y119.844 E1.72455
G1 X139.707 Y120.68 E1.74768
G1 X139.925 Y121.234 E1.76253
G1 X139.97 Y121.358 E1.76582
G1 X140.135 Y121.848 E1.77872
G1 X140.221 Y122.126 E1.78598
G1 X140.456 Y123.023 E1.80911
G1 X140.636 Y124.127 E1.83702
G1 X140.66 Y124.345 E1.84249
G1 X140.723 Y125.3 E1.86636
G1 X140.748 Y126.516 E1.8967
G1 X140.75 Y126.737 E1.90221
G1 X140.749 Y131.695 E2.02589
G1 X140.739 Y132.393 E2.0433
G1 X140.657 Y133.575 E2.07286
G1 X140.588 Y134.126 E2.08671
G1 X140.3 Y136.66 E2.15033
G1 X140.219 Y137.599 E2.17384
G1 X140.122 Y138.565 E2.19806
G1 X139.99 Y139.483 E2.22119
G1 X139.779 Y140.386 E2.24433
G1 X139.491 Y141.267 E2.26745
G1 X139.128 Y142.12 E2.29057
G1 X138.693 Y142.939 E2.31371
G1 X138.189 Y143.717 E2.33683
G1 X137.62 Y144.449 E2.35996
G1 X136.99 Y145.129 E2.38308
G1 X136.304 Y145.753 E2.40621
G1 X135.567 Y146.315 E2.42933
G1 X134.783 Y146.811 E2.45247
G1 X133.96 Y147.238 E2.4756
G1 X133.104 Y147.592 E2.49871
G1 X132.22 Y147.872 E2.52184
G1 X131.315 Y148.074 E2.54497
G1 X130.396 Y148.197 E2.5681
G1 X129.728 Y148.237 E2.58479
G1 X129.408 Y148.246 E2.59278
G1 X129.106 Y148.25 E2.60031
G1 X91.117 Y148.249 E3.54795
G1 X90.419 Y148.239 E3.56537
G1 X89.493 Y148.186 E3.5885
G1 X88.576 Y148.053 E3.61162
G1 X87.673 Y147.841 E3.63476
G1 X86.792 Y147.553 E3.65788
G1 X85.939 Y147.19 E3.681
G1 X85.12 Y146.754 E3.70415
G1 X84.342 Y146.25 E3.72727
G1 X83.611 Y145.681 E3.75038
G1 X82.931 Y145.05 E3.77352
G1 X82.308 Y144.364 E3.79663
G1 X81.746 Y143.626 E3.81977
G1 X81.25 Y142.843 E3.8429
G1 X80.824 Y142.019 E3.86603
G1 X80.47 Y141.163 E3.88914
G1 X80.191 Y140.278 E3.91229
G1 X79.989 Y139.373 E3.93542
G1 X79.863 Y138.413 E3.95957
G1 X79.821 Y137.922 E3.97187
G1 X79.559 Y135.315 E4.03722
G1 X79.422 Y134.242 E4.06421
G1 X79.328 Y133.409 E4.08512
G1 X79.265 Y132.523 E4.10728
G1 X79.255 Y132.186 E4.11569
G1 X79.25 Y131.867 E4.12365
G1 X79.251 Y129.371 E4.18591
G1 X79.26 Y128.76 E4.20115
G1 X79.318 Y127.796 E4.22524
G1 X79.38 Y127.205 E4.24007
G1 X79.516 Y126.288 E4.26319
G1 X79.731 Y125.386 E4.28632
G1 X79.903 Y124.839 E4.30062
G1 X79.95 Y124.702 E4.30424
G1 X80.119 Y124.242 E4.31646
G1 X80.226 Y123.971 E4.32373
G1 X80.604 Y123.124 E4.34687
G1 X81.249 Y122.003 E4.37913
G1 X81.51 Y121.607 E4.39096
G1 X81.8 Y121.189 E4.40365
G1 X82.293 Y120.559 E4.42361
G1 X82.894 Y119.848 E4.44683
G1 X83.676 Y118.947 E4.47659
G1 X85.28 Y116.991 E4.53969
G1 X86.801 Y115.025 E4.6017
G1 X88.308 Y112.959 E4.66549
G1 X89.726 Y110.895 E4.72795
G1 X91.088 Y108.786 E4.79058
G1 X92.416 Y106.597 E4.85445
G1 X93.648 Y104.432 E4.91658
G1 X94.842 Y102.185 E4.98006
G1 X95.962 Y99.929 E5.04289
G1 X97.018 Y97.639 E5.10579
G1 X98.017 Y95.303 E5.16917
G1 X98.937 Y92.972 E5.23168
G1 X99.797 Y90.593 E5.29479
G1 X100.594 Y88.181 E5.35815
G1 X101.308 Y85.795 E5.42028
G1 X101.967 Y83.342 E5.48364
G1 X102.429 Y81.387 E5.53375
G1 X102.589 Y80.739 E5.5504
G1 X102.939 Y79.6 E5.58012
G1 X103.023 Y79.372 E5.58618
G1 X103.381 Y78.516 E5.60933
G1 X103.811 Y77.695 E5.63245
G1 X104.31 Y76.914 E5.65557
G0 F6000 X104.578 Y77.055
G1 F900 X105.138 Y76.332 E5.67838
G1 X105.759 Y75.661 E5.70119
G1 X106.436 Y75.047 E5.72399
G1 X107.164 Y74.495 E5.74678
G1 X107.938 Y74.008 E5.76959
G1 X108.751 Y73.591 E5.79238
G1 X109.598 Y73.246 E5.81519
G1 X110.471 Y72.977 E5.83798
G1 X111.365 Y72.785 E5.86079
G1 X112.272 Y72.672 E5.88359
G1 X112.925 Y72.64 E5.8999
G1 X113.947 Y72.623 E5.9254
G1 X115.219 Y72.622 E5.95713
G1 X116.048 Y72.633 E5.97781
G1 X116.96 Y72.687 E6.0006
G1 X117.864 Y72.82 E6.02339
G1 X118.754 Y73.032 E6.04621
G1 X119.621 Y73.321 E6.06901
G1 X120.46 Y73.684 E6.09181
G1 X121.264 Y74.119 E6.11462
G1 X122.026 Y74.623 E6.13741
G1 X122.742 Y75.192 E6.16022
G1 X123.405 Y75.821 E6.18302
G1 X124.011 Y76.506 E6.20583
G1 X124.555 Y77.24 E6.22862
G1 X125.237 Y78.409 E6.26238
G1 X125.623 Y79.271 E6.28594
G1 X125.963 Y80.278 E6.31246
G1 X126.041 Y80.555 E6.31964
G1 X126.25 Y81.444 E6.34242
G1 X126.348 Y82.064 E6.35807
G1 X126.392 Y82.424 E6.36712
G1 X126.604 Y84.334 E6.41506
G1 X126.958 Y86.87 E6.47893
G1 X127.382 Y89.385 E6.54256
G1 X127.866 Y91.839 E6.60495
G1 X128.43 Y94.318 E6.66837
G1 X129.056 Y96.759 E6.73123
G1 X129.76 Y99.205 E6.79472
G1 X130.531 Y101.628 E6.85815
G1 X131.374 Y104.036 E6.92179
G1 X132.26 Y106.356 E6.98374
G1 X133.251 Y108.745 E7.04826
G1 X134.268 Y111.014 E7.11029
G1 X135.377 Y113.312 E7.17394
G1 X136.553 Y115.582 E7.23771
G1 X137.77 Y117.777 E7.30032
G1 X138.675 Y119.317 E7.34487
G1 X138.888 Y119.698 E7.35576
G1 X139.041 Y119.985 E7.36388
G1 X139.436 Y120.81 E7.38669
G1 X139.643 Y121.336 E7.40079
G1 X139.688 Y121.46 E7.40408
G1 X139.848 Y121.937 E7.41663
G1 X139.934 Y122.215 E7.42389
G1 X140.166 Y123.099 E7.44669
G1 X140.338 Y124.159 E7.47348
G1 X140.362 Y124.377 E7.47895
G1 X140.423 Y125.306 E7.50217
G1 X140.448 Y126.522 E7.53251
G1 X140.45 Y126.737 E7.53788
G1 X140.449 Y131.691 E7.66146
G1 X140.439 Y132.389 E7.67887
G1 X140.359 Y133.537 E7.70758
G1 X140.299 Y134.018 E7.71967
G1 X140.001 Y136.634 E7.78535
G1 X139.921 Y137.569 E7.80875
G1 X139.824 Y138.535 E7.83297
G1 X139.693 Y139.44 E7.85578
G1 X139.483 Y140.33 E7.87859
G1 X139.197 Y141.198 E7.90139
G1 X138.835 Y142.037 E7.92419
G1 X138.402 Y142.842 E7.94699
G1 X137.9 Y143.606 E7.96979
G1 X137.333 Y144.323 E7.99259
G1 X136.706 Y144.988 E8.01539
G1 X136.023 Y145.596 E8.0382
G1 X135.289 Y146.141 E8.06101
G1 X134.511 Y146.62 E8.0838
G1 X133.694 Y147.03 E8.1066
G1 X132.844 Y147.366 E8.1294
G1 X131.968 Y147.627 E8.1522
G1 X131.072 Y147.811 E8.17502
G1 X129.72 Y147.937 E8.20889
G1 X129.4 Y147.946 E8.21688
G1 X129.106 Y147.95 E8.22421
G1 X91.121 Y147.949 E9.17175
G1 X90.423 Y147.939 E9.18916
G1 X89.511 Y147.886 E9.21195
G1 X88.606 Y147.753 E9.23477
G1 X87.717 Y147.542 E9.25756
G1 X86.849 Y147.254 E9.28038
G1 X86.01 Y146.891 E9.30318
G1 X85.206 Y146.457 E9.32597
G1 X84.443 Y145.953 E9.34878
G1 X83.727 Y145.385 E9.37158
G1 X83.063 Y144.757 E9.39438
G1 X82.457 Y144.073 E9.41717
G1 X81.913 Y143.338 E9.43998
G1 X81.435 Y142.559 E9.46278
G1 X81.027 Y141.741 E9.48558
G1 X80.692 Y140.89 E9.5084
G1 X80.432 Y140.014 E9.53119
G1 X80.251 Y139.118 E9.554
G1 X80.162 Y138.388 E9.57234
G1 X80.125 Y137.955 E9.58318
G1 X79.856 Y135.279 E9.65027
G1 X79.72 Y134.209 E9.67718
G1 X79.626 Y133.376 E9.69809
G1 X79.565 Y132.514 E9.71964
G1 X79.555 Y132.177 E9.72805
G1 X79.55 Y131.867 E9.73579
G1 X79.551 Y129.375 E9.79795
G1 X79.56 Y128.764 E9.81319
G1 X79.616 Y127.828 E9.83658
G1 X79.678 Y127.237 E9.85141
G1 X79.813 Y126.333 E9.87421
G1 X80.027 Y125.444 E9.89702
G1 X80.186 Y124.936 E9.9103
G1 X80.233 Y124.799 E9.91391
G1 X80.398 Y124.352 E9.9258
G1 X80.505 Y124.081 E9.93306
G1 X80.878 Y123.247 E9.95585
G1 X81.5 Y122.168 E9.98692
G1 X81.761 Y121.772 E9.99875
G1 X82.043 Y121.365 E10.0111
G1 X82.522 Y120.753 E10.03049
G1 X83.121 Y120.045 E10.05362
G1 X83.904 Y119.143 E10.08342
G1 X85.491 Y117.208 E10.14585
G1 X87.049 Y115.194 E10.20936
G1 X88.542 Y113.148 E10.27254
G1 X89.992 Y111.036 E10.33645
G1 X91.343 Y108.946 E10.39853
G1 X92.657 Y106.778 E10.46177
G1 X93.927 Y104.546 E10.52583
G1 X95.1 Y102.34 E10.58815
G1 X96.228 Y100.067 E10.65145
G1 X97.29 Y97.764 E10.71471
G1 X98.303 Y95.395 E10.77898
G1 X99.218 Y93.078 E10.84113
G1 X100.083 Y90.683 E10.90465
G1 X100.875 Y88.287 E10.96759
G1 X101.603 Y85.853 E11.03097
G1 X102.256 Y83.424 E11.09371
G1 X102.721 Y81.459 E11.14408
G1 X102.881 Y80.811 E11.16073
G1 X103.22 Y79.703 E11.18964
G1 X103.304 Y79.475 E11.1957
G1 X103.658 Y78.632 E11.21851
G1 X104.083 Y77.823 E11.2413
G1 X104.578 Y77.055 E11.26409
G0 F6000 X104.845 Y77.196
G1 F900 X105.4 Y76.486 E11.28657
G1 X106.016 Y75.829 E11.30904
G1 X106.688 Y75.228 E11.33153
G1 X107.41 Y74.69 E11.35399
G1 X108.177 Y74.217 E11.37647
G1 X108.983 Y73.815 E11.39894
G1 X109.822 Y73.485 E11.42143
G1 X110.686 Y73.232 E11.44388
G1 X111.569 Y73.056 E11.46634
G1 X112.465 Y72.959 E11.48882
G1 X112.93 Y72.94 E11.50043
G1 X113.947 Y72.923 E11.52581
G1 X115.219 Y72.922 E11.55754
G1 X116.043 Y72.933 E11.57809
G1 X116.942 Y72.987 E11.60056
G1 X117.833 Y73.12 E11.62303
G1 X118.709 Y73.331 E11.64551
G1 X119.563 Y73.62 E11.668
G1 X120.387 Y73.983 E11.69046
G1 X121.176 Y74.417 E11.71292
G1 X121.924 Y74.92 E11.73541
G1 X122.624 Y75.487 E11.75788
G1 X123.271 Y76.114 E11.78035
G1 X123.859 Y76.796 E11.80282
G1 X124.385 Y77.528 E11.8253
G1 X124.968 Y78.543 E11.8545
G1 X125.349 Y79.394 E11.87776
G1 X125.674 Y80.359 E11.90316
G1 X125.752 Y80.636 E11.91034
G1 X125.958 Y81.513 E11.93281
G1 X126.05 Y82.102 E11.94768
G1 X126.094 Y82.457 E11.9566
G1 X126.307 Y84.376 E12.00477
G1 X126.662 Y86.924 E12.06894
G1 X127.083 Y89.421 E12.13211
G1 X127.577 Y91.924 E12.19575
G1 X128.137 Y94.385 E12.25871
G1 X128.772 Y96.857 E12.32238
G1 X129.467 Y99.274 E12.38511
G1 X130.247 Y101.724 E12.44925
G1 X131.087 Y104.126 E12.51273
G1 X131.984 Y106.473 E12.5754
G1 X132.969 Y108.847 E12.63952
G1 X134.013 Y111.177 E12.70321
G1 X135.105 Y113.44 E12.76589
G1 X136.27 Y115.689 E12.82907
G1 X137.526 Y117.955 E12.8937
G1 X138.416 Y119.469 E12.9375
G1 X138.624 Y119.839 E12.94809
G1 X138.777 Y120.126 E12.95621
G1 X139.165 Y120.939 E12.97868
G1 X139.361 Y121.438 E12.99205
G1 X139.406 Y121.562 E12.99534
G1 X139.562 Y122.025 E13.00753
G1 X139.648 Y122.303 E13.01479
G1 X139.875 Y123.175 E13.03726
G1 X140.04 Y124.192 E13.06297
G1 X140.064 Y124.41 E13.06844
G1 X140.123 Y125.312 E13.09099
G1 X140.148 Y126.528 E13.12132
G1 X140.15 Y126.737 E13.12654
G1 X140.149 Y131.686 E13.24999
G1 X140.139 Y132.384 E13.26741
G1 X140.061 Y133.5 E13.29531
G1 X140.006 Y133.938 E13.30632
G1 X139.702 Y136.608 E13.37336
G1 X139.622 Y137.539 E13.39667
G1 X139.525 Y138.505 E13.42089
G1 X139.396 Y139.397 E13.44337
G1 X139.187 Y140.273 E13.46583
G1 X138.902 Y141.128 E13.48831
G1 X138.542 Y141.954 E13.51079
G1 X138.111 Y142.744 E13.53324
G1 X137.611 Y143.494 E13.55573
G1 X137.046 Y144.196 E13.5782
G1 X136.422 Y144.845 E13.60066
G1 X135.742 Y145.436 E13.62314
G1 X135.013 Y145.965 E13.6456
G1 X134.239 Y146.427 E13.66809
G1 X133.428 Y146.819 E13.69056
G1 X132.585 Y147.137 E13.71303
G1 X131.717 Y147.379 E13.73551
G1 X130.831 Y147.543 E13.75799
G1 X129.711 Y147.637 E13.78603
G1 X129.391 Y147.646 E13.79401
G1 X129.106 Y147.65 E13.80112
G1 X91.126 Y147.649 E14.74854
G1 X90.428 Y147.639 E14.76595
G1 X89.528 Y147.586 E14.78844
G1 X88.637 Y147.454 E14.81091
G1 X87.761 Y147.243 E14.83339
G1 X86.908 Y146.955 E14.85584
G1 X86.083 Y146.593 E14.87832
G1 X85.293 Y146.159 E14.9008
G1 X84.545 Y145.656 E14.92329
G1 X83.845 Y145.09 E14.94574
G1 X83.198 Y144.463 E14.96822
G1 X82.608 Y143.782 E14.99069
G1 X82.082 Y143.051 E15.01316
G1 X81.622 Y142.276 E15.03564
G1 X81.233 Y141.464 E15.0581
G1 X80.918 Y140.62 E15.08057
G1 X80.678 Y139.751 E15.10306
G1 X80.517 Y138.865 E15.12552
G1 X80.461 Y138.362 E15.13815
G1 X80.419 Y137.878 E15.15027
G1 X80.155 Y135.248 E15.2162
G1 X80.018 Y134.175 E15.24319
G1 X79.924 Y133.342 E15.2641
G1 X79.864 Y132.505 E15.28503
G1 X79.854 Y132.168 E15.29344
G1 X79.85 Y131.867 E15.30095
G1 X79.851 Y129.38 E15.36299
G1 X79.86 Y128.769 E15.37823
G1 X79.914 Y127.859 E15.40097
G1 X79.976 Y127.268 E15.4158
G1 X80.11 Y126.377 E15.43827
G1 X80.322 Y125.502 E15.46073
G1 X80.47 Y125.033 E15.473
G1 X80.517 Y124.896 E15.47661
G1 X80.677 Y124.462 E15.48815
G1 X80.784 Y124.191 E15.49542
G1 X81.152 Y123.369 E15.51788
G1 X81.75 Y122.333 E15.54772
G1 X82.011 Y121.937 E15.55955
G1 X82.286 Y121.541 E15.57158
G1 X82.751 Y120.946 E15.59042
G1 X83.347 Y120.242 E15.61343
G1 X84.135 Y119.334 E15.64342
G1 X85.729 Y117.39 E15.70613
G1 X87.302 Y115.358 E15.77023
G1 X88.771 Y113.343 E15.83243
G1 X90.219 Y111.235 E15.89623
G1 X91.616 Y109.074 E15.96042
G1 X92.92 Y106.922 E16.02319
G1 X94.184 Y104.701 E16.08693
G1 X95.373 Y102.465 E16.15011
G1 X96.508 Y100.178 E16.21379
G1 X97.557 Y97.903 E16.27629
G1 X98.577 Y95.518 E16.34099
G1 X99.51 Y93.155 E16.40437
G1 X100.358 Y90.806 E16.46666
G1 X101.156 Y88.393 E16.53006
G1 X101.896 Y85.92 E16.59445
G1 X102.546 Y83.497 E16.65703
G1 X103.012 Y81.531 E16.70743
G1 X103.172 Y80.883 E16.72408
G1 X103.502 Y79.807 E16.75216
G1 X103.586 Y79.579 E16.75822
G1 X103.934 Y78.748 E16.78069
G1 X104.355 Y77.952 E16.80316
G1 X104.845 Y77.196 E16.82563
G1 F1500 E15.12563
G0 F6000 X101.827 Y126.963
G0 X101.955 Y127.444
G0 X102.06 Y127.414
G1 F1500 E16.82563
G1 F900 X103.412 Y126.588 E16.86515
G1 X103.805 Y126.315 E16.87709
G1 X105.834 Y124.719 E16.94148
G1 X106.211 Y124.382 E16.9541
G1 X108.016 Y122.555 E17.01816
G1 X108.332 Y122.195 E17.03011
G1 X108.35 Y122.172 E17.03084
G1 X108.35 Y127.414 E17.1616
G1 X102.06 Y127.414 E17.31851
G0 F6000 X101.048 Y127.681
G1 F900 X103.256 Y126.332 E17.38305
G1 X103.619 Y126.079 E17.39409
G1 X105.648 Y124.483 E17.45849
G1 X105.998 Y124.172 E17.47017
G1 X107.803 Y122.345 E17.53423
G1 X108.096 Y122.011 E17.54531
G1 X108.65 Y121.298 E17.56784
G1 X108.65 Y127.714 E17.72789
G1 X100.986 Y127.714 E17.91906
G1 X101.048 Y127.681 E17.92082
G0 F6000 X100.892 Y127.425
G1 F900 X103.1 Y126.076 E17.98536
G1 X103.434 Y125.844 E17.99551
G1 X105.463 Y124.248 E18.0599
G1 X105.784 Y123.961 E18.07064
G1 X107.589 Y122.134 E18.13471
G1 X107.859 Y121.826 E18.14493
G1 X108.95 Y120.423 E18.18926
G1 X108.95 Y128.014 E18.37862
G1 X99.662 Y128.014 E18.61031
G1 X100.528 Y127.618 E18.63406
G1 X100.892 Y127.425 E18.64434
G0 F6000 X100.735 Y127.169
G1 F900 X102.943 Y125.82 E18.70888
G1 X103.248 Y125.608 E18.71815
G1 X105.277 Y124.012 E18.78255
G1 X105.571 Y123.75 E18.79237
G1 X107.376 Y121.923 E18.85643
G1 X107.622 Y121.642 E18.86575
G1 X109.225 Y119.58 E18.9309
G1 X109.25 Y119.543 E18.93202
G1 X109.25 Y128.314 E19.15081
G1 X98.286 Y128.314 E19.42431
G1 X100.403 Y127.346 E19.48237
G1 X100.735 Y127.169 E19.49176
G0 F6000 X100.579 Y126.913
G1 F900 X102.787 Y125.564 E19.5563
G1 X103.063 Y125.372 E19.56469
