;FLAVOR:Marlin
;TIME:3324
;Filament used: 1.57676m
;Layer height: 0.2
;MINX:95.15
;MINY:87.835
;MINZ:0.2
;MAXX:125.665
;MAXY:132.165
;MAXZ:14
;Generated with Cura_SteamEngine 4.13.1
M140 S70
M105
M190 S70
M104 S240
M105
M109 S240
M82 ;absolute extrusion mode
; Ender 3 Custom Start G-code
G92 E0 ; Reset Extruder
G28 ; Home all axes
G29 ; Auto bed-level (BL-Touch)
G1 Z2.0 F3000 ; Move Z Axis up little to prevent scratching of Heat Bed
G1 X0.1 Y20 Z0.3 F5000.0 ; Move to start position
G1 X0.1 Y200.0 Z0.3 F1500.0 E15 ; Draw the first line
G1 X0.4 Y200.0 Z0.3 F5000.0 ; Move to side a little
G1 X0.4 Y20 Z0.3 F1500.0 E30 ; Draw the second line
G92 E0 ; Reset Extruder
G1 Z2.0 F3000 ; Move Z Axis up little to prevent scratching of Heat Bed
G1 X5 Y20 Z0.3 F5000.0 ; Move over to prevent blob squish
G92 E0
G92 E0
G1 F2700 E-5
;LAYER_COUNT:70
;LAYER:0
M107
G0 F6000 X105.05 Y96.566 Z0.2
;TYPE:SKIRT
G1 F2700 E0
G1 F900 X105.505 Y96.636 E0.01148
G1 X105.839 Y96.65 E0.01982
G1 X106.85 Y96.65 E0.04504
G1 X106.85 Y101.85 E0.17476
G1 X105.839 Y101.85 E0.19998
G1 X105.272 Y101.89 E0.21416
G1 X105.05 Y101.937 E0.21982
G1 X105.05 Y96.566 E0.3538
G0 F6000 X105.09 Y96.274
G1 F900 X105.839 Y96.35 E0.37258
G1 X107.15 Y96.35 E0.40528
G1 X107.15 Y102.15 E0.54996
G1 X105.839 Y102.15 E0.58266
G1 X105.293 Y102.19 E0.59632
G1 X104.75 Y102.312 E0.6102
G1 X104.75 Y96.179 E0.76319
G1 X105.09 Y96.274 E0.772
G0 F6000 X105.234 Y95.997
G1 F900 X105.839 Y96.05 E0.78715
G1 X107.45 Y96.05 E0.82733
G1 X107.45 Y102.45 E0.98698
G1 X105.839 Y102.45 E1.02717
G1 X105.316 Y102.49 E1.04025
G1 X104.804 Y102.609 E1.05337
G1 X104.45 Y102.751 E1.06288
G1 X104.45 Y95.747 E1.2376
G1 X104.726 Y95.866 E1.24509
G1 X105.234 Y95.997 E1.25818
G0 F6000 X105.375 Y95.716
G1 F900 X105.839 Y95.75 E1.26978
G1 X107.75 Y95.75 E1.31746
G1 X107.75 Y102.75 E1.49207
G1 X105.839 Y102.75 E1.53974
G1 X105.339 Y102.79 E1.55225
G1 X104.852 Y102.909 E1.56476
G1 X104.389 Y103.103 E1.57728
G1 X104.15 Y103.253 E1.58432
G1 X104.15 Y95.248 E1.78401
G1 X104.422 Y95.413 E1.79194
G1 X104.887 Y95.603 E1.80447
G1 X105.375 Y95.716 E1.81697
G0 F6000 X105.512 Y95.431
G1 F900 X105.839 Y95.45 E1.82514
G1 X108.05 Y95.45 E1.88029
G1 X108.05 Y103.05 E2.06987
G1 X105.839 Y103.05 E2.12503
G1 X105.364 Y103.09 E2.13692
G1 X104.902 Y103.209 E2.14882
G1 X104.466 Y103.403 E2.16072
G1 X104.068 Y103.667 E2.17264
G1 X103.85 Y103.862 E2.17993
G1 X103.85 Y94.637 E2.41005
G1 X104.188 Y94.923 E2.4211
G1 X104.599 Y95.166 E2.43301
G1 X105.044 Y95.337 E2.4449
G1 X105.512 Y95.431 E2.45681
G0 F6000 X105.199 Y95.068
G1 F900 X105.839 Y95.15 E2.4729
G1 X108.35 Y95.15 E2.53554
G1 X108.35 Y103.35 E2.74009
G1 X105.839 Y103.35 E2.80273
G1 X105.39 Y103.39 E2.81397
G1 X104.954 Y103.508 E2.82524
G1 X104.546 Y103.702 E2.83651
G1 X104.036 Y104.097 E2.8526
G1 X103.597 Y104.536 E2.86809
G1 X103.55 Y104.592 E2.86991
G1 X103.55 Y93.903 E3.13655
G1 X103.597 Y93.964 E3.13847
G1 X104.036 Y94.403 E3.15396
G1 X104.382 Y94.693 E3.16522
G1 X104.774 Y94.917 E3.17648
G1 X105.199 Y95.068 E3.18773
G0 F6000 X105.349 Y94.796
G1 F900 X105.839 Y94.85 E3.20003
G1 X108.65 Y94.85 E3.27015
G1 X108.65 Y103.65 E3.48967
G1 X105.839 Y103.65 E3.55979
G1 X105.417 Y103.69 E3.57036
G1 X105.01 Y103.808 E3.58093
G1 X104.633 Y104.001 E3.5915
G1 X104.248 Y104.309 E3.6038
G1 X103.809 Y104.748 E3.61928
G1 X103.539 Y105.075 E3.62986
G1 X103.335 Y105.446 E3.64042
G1 X103.25 Y105.707 E3.64727
G1 X103.25 Y92.79 E3.96949
G1 X103.308 Y92.99 E3.97468
G1 X103.501 Y93.367 E3.98524
G1 X103.809 Y93.752 E3.99754
G1 X104.248 Y94.191 E4.01303
G1 X104.575 Y94.461 E4.02361
G1 X104.946 Y94.665 E4.03417
G1 X105.349 Y94.796 E4.04474
G0 F6000 X105.495 Y94.519
G1 F900 X105.839 Y94.55 E4.05336
G1 X108.95 Y94.55 E4.13096
G1 X108.95 Y103.95 E4.36544
G1 X105.839 Y103.95 E4.44305
G1 X105.447 Y103.99 E4.45288
G1 X105.07 Y104.108 E4.46273
G1 X104.725 Y104.299 E4.47257
G1 X104.46 Y104.521 E4.48119
G1 X104.021 Y104.96 E4.49668
G1 X103.772 Y105.266 E4.50652
G1 X103.589 Y105.615 E4.51635
G1 X103.481 Y105.995 E4.52621
G1 X103.45 Y106.339 E4.53482
G1 X103.45 Y107.55 E4.56503
G1 X102.95 Y107.55 E4.5775
G1 X102.95 Y90.45 E5.00406
G1 X103.45 Y90.451 E5.01654
G1 X103.45 Y92.161 E5.05919
G1 X103.49 Y92.553 E5.06902
G1 X103.608 Y92.93 E5.07888
G1 X103.799 Y93.275 E5.08871
G1 X104.021 Y93.54 E5.09734
G1 X104.46 Y93.979 E5.11282
G1 X104.766 Y94.228 E5.12266
G1 X105.115 Y94.411 E5.13249
G1 X105.495 Y94.519 E5.14235
G0 F6000 X105.634 Y94.237
G1 F900 X105.839 Y94.25 E5.14747
G1 X109.25 Y94.25 E5.23256
G1 X109.25 Y104.25 E5.48201
G1 X105.839 Y104.25 E5.5671
G1 X105.478 Y104.29 E5.57616
G1 X105.135 Y104.408 E5.58521
G1 X104.826 Y104.597 E5.59424
G1 X104.672 Y104.733 E5.59937
G1 X104.233 Y105.172 E5.61486
G1 X104.007 Y105.455 E5.62389
G1 X103.847 Y105.781 E5.63295
G1 X103.763 Y106.134 E5.642
G1 X103.75 Y106.339 E5.64712
G1 X103.75 Y107.85 E5.68482
G1 X102.65 Y107.85 E5.71226
G1 X102.65 Y90.15 E6.15378
G1 X103.75 Y90.151 E6.18122
G1 X103.75 Y92.161 E6.23136
G1 X103.79 Y92.522 E6.24042
G1 X103.908 Y92.865 E6.24947
G1 X104.097 Y93.174 E6.25851
G1 X104.233 Y93.328 E6.26363
G1 X104.672 Y93.767 E6.27912
G1 X104.955 Y93.993 E6.28815
G1 X105.281 Y94.153 E6.29721
G1 X105.634 Y94.237 E6.30626
G0 F6000 X105.442 Y93.89
G1 F900 X105.839 Y93.95 E6.31628
G1 X109.55 Y93.95 E6.40885
G1 X109.55 Y104.55 E6.67327
G1 X105.839 Y104.55 E6.76584
G1 X105.513 Y104.59 E6.77403
G1 X105.207 Y104.707 E6.78221
G1 X104.884 Y104.945 E6.79221
G1 X104.445 Y105.384 E6.8077
G1 X104.243 Y105.643 E6.81589
G1 X104.11 Y105.942 E6.82406
G1 X104.05 Y106.339 E6.83407
G1 X104.05 Y108.15 E6.87925
G1 X102.35 Y108.15 E6.92166
G1 X102.35 Y89.85 E7.37815
G1 X104.05 Y89.851 E7.42056
G1 X104.05 Y92.161 E7.47818
G1 X104.09 Y92.487 E7.48637
G1 X104.207 Y92.793 E7.49455
G1 X104.445 Y93.116 E7.50455
G1 X104.884 Y93.555 E7.52004
G1 X105.143 Y93.757 E7.52823
G1 X105.442 Y93.89 E7.5364
G0 F6000 X105.597 Y93.622
G1 F900 X105.839 Y93.65 E7.54247
G1 X109.85 Y93.65 E7.64253
G1 X109.85 Y104.85 E7.92191
G1 X105.839 Y104.85 E8.02197
G1 X105.553 Y104.89 E8.02917
G1 X105.288 Y105.006 E8.03639
G1 X105.097 Y105.158 E8.04248
G1 X104.658 Y105.597 E8.05797
G1 X104.483 Y105.827 E8.06517
G1 X104.378 Y106.097 E8.0724
G1 X104.35 Y106.339 E8.07848
G1 X104.35 Y108.45 E8.13114
G1 X102.05 Y108.45 E8.18851
G1 X102.05 Y89.55 E8.65997
G1 X104.35 Y89.551 E8.71735
G1 X104.35 Y92.161 E8.78245
G1 X104.39 Y92.447 E8.78966
G1 X104.506 Y92.712 E8.79687
G1 X104.658 Y92.903 E8.80296
G1 X105.097 Y93.342 E8.81845
G1 X105.327 Y93.517 E8.82566
G1 X105.597 Y93.622 E8.83289
G0 F6000 X105.839 Y93.35
G1 F900 X110.15 Y93.35 E8.94042
G1 X110.15 Y105.15 E9.23478
G1 X105.839 Y105.15 E9.34231
G1 X105.598 Y105.19 E9.34841
G1 X105.309 Y105.37 E9.3569
G1 X104.87 Y105.809 E9.37239
G1 X104.727 Y106.007 E9.37848
G1 X104.65 Y106.339 E9.38698
G1 X104.65 Y108.75 E9.44713
G1 X101.75 Y108.75 E9.51947
G1 X101.75 Y89.25 E10.0059
G1 X104.65 Y89.251 E10.07824
G1 X104.65 Y92.161 E10.15083
G1 X104.69 Y92.402 E10.15692
G1 X104.87 Y92.691 E10.16541
G1 X105.309 Y93.13 E10.1809
G1 X105.507 Y93.273 E10.18699
G1 X105.839 Y93.35 E10.19549
G0 F6000 X105.679 Y93.021
G1 F900 X105.839 Y93.05 E10.19955
G1 X110.45 Y93.05 E10.31457
G1 X110.45 Y105.45 E10.62389
G1 X105.839 Y105.45 E10.73891
G1 X105.655 Y105.49 E10.74361
G1 X105.521 Y105.582 E10.74767
G1 X105.082 Y106.021 E10.76315
G1 X104.979 Y106.179 E10.76786
G1 X104.95 Y106.339 E10.77191
G1 X104.95 Y109.05 E10.83954
G1 X101.45 Y109.05 E10.92685
G1 X101.45 Y88.95 E11.42824
G1 X104.95 Y88.951 E11.51555
G1 X104.95 Y92.161 E11.59563
G1 X104.99 Y92.345 E11.60032
G1 X105.082 Y92.479 E11.60438
G1 X105.521 Y92.918 E11.61986
G1 X105.679 Y93.021 E11.62457
G0 F6000 X105.839 Y92.75
G1 F900 X110.75 Y92.75 E11.74707
G1 X110.75 Y105.75 E12.07136
G1 X105.839 Y105.75 E12.19387
G1 X105.733 Y105.794 E12.19673
G1 X105.294 Y106.233 E12.21222
G1 X105.25 Y106.339 E12.21508
G1 X105.25 Y109.35 E12.29019
G1 X101.15 Y109.35 E12.39246
G1 X101.15 Y88.65 E12.90883
G1 X105.25 Y88.651 E13.0111
G1 X105.25 Y92.161 E13.09866
G1 X105.294 Y92.267 E13.10152
G1 X105.733 Y92.706 E13.11701
G1 X105.839 Y92.75 E13.11987
G1 F2700 E8.11987
G0 F6000 X105.35 Y96.135
G0 X105.35 Y96.95
;TYPE:SUPPORT
G1 F2700 E13.11987
G1 F900 X106.55 Y96.95 E13.14981
G1 X106.55 Y101.55 E13.26455
G1 X105.35 Y101.55 E13.29449
G1 X105.35 Y96.95 E13.40924
G0 F6000 X105.65 Y97.25
G1 F900 X106.25 Y97.25 E13.4242
G1 X106.25 Y101.25 E13.52398
G1 X105.65 Y101.25 E13.53895
G1 X105.65 Y97.25 E13.63873
G0 F6000 X105.71 Y97.5
G1 F900 X106.19 Y97.5 E13.6507
G0 F6000 X106.19 Y99
G1 F900 X105.71 Y99 E13.66268
G0 F6000 X105.71 Y100.5
G1 F900 X106.19 Y100.5 E13.67465
G1 F2700 E8.67465
;MESH:SwitchHolder-Body.stl
G0 F6000 X107.365 Y100.5
G0 X117.191 Y118.782
G0 X115.792 Y117.543
G0 X115.969 Y120
G0 X116.147 Y120.471
G0 X117.663 Y122.287
;TYPE:WALL-INNER
G1 F2700 E13.67465
G1 F900 X118.337 Y122.287 E13.69146
G1 X118.996 Y122.126 E13.70839
G1 X119.596 Y121.811 E13.72529
G1 X120.101 Y121.363 E13.74213
G1 X120.488 Y120.804 E13.75909
G1 X120.725 Y120.171 E13.77595
G1 X120.807 Y119.5 E13.79281
G1 X120.725 Y118.829 E13.80968
G1 X120.488 Y118.196 E13.82654
G1 X120.101 Y117.637 E13.8435
G1 X119.596 Y117.189 E13.86034
G1 X118.996 Y116.874 E13.87724
G1 X118.337 Y116.713 E13.89416
G1 X117.663 Y116.713 E13.91098
G1 X117.004 Y116.874 E13.9279
G1 X116.404 Y117.189 E13.9448
G1 X115.899 Y117.637 E13.96164
G1 X115.512 Y118.196 E13.9786
G1 X115.275 Y118.829 E13.99546
G1 X115.193 Y119.5 E14.01233
G1 X115.275 Y120.171 E14.02919
G1 X115.512 Y120.804 E14.04605
G1 X115.899 Y121.363 E14.06301
G1 X116.404 Y121.811 E14.07985
G1 X117.004 Y122.126 E14.09675
G1 X117.663 Y122.287 E14.11368
G0 F6000 X117.699 Y121.987
G1 F900 X118.301 Y121.987 E14.12869
G1 X118.889 Y121.843 E14.14379
G1 X119.424 Y121.562 E14.15887
G1 X119.875 Y121.162 E14.17391
G1 X120.22 Y120.664 E14.18902
G1 X120.432 Y120.099 E14.20407
G1 X120.505 Y119.5 E14.21913
G1 X120.432 Y118.901 E14.23418
G1 X120.22 Y118.336 E14.24923
G1 X119.875 Y117.838 E14.26434
G1 X119.424 Y117.438 E14.27938
G1 X118.889 Y117.157 E14.29446
G1 X118.301 Y117.013 E14.30956
G1 X117.699 Y117.013 E14.32457
G1 X117.111 Y117.157 E14.33968
G1 X116.576 Y117.438 E14.35475
G1 X116.125 Y117.838 E14.36979
G1 X115.78 Y118.336 E14.3849
G1 X115.568 Y118.901 E14.39995
G1 X115.495 Y119.5 E14.41501
G1 X115.568 Y120.099 E14.43006
G1 X115.78 Y120.664 E14.44511
G1 X116.125 Y121.162 E14.46022
G1 X116.576 Y121.562 E14.47526
G1 X117.111 Y121.843 E14.49034
G1 X117.699 Y121.987 E14.50544
G0 F6000 X117.735 Y121.687
G1 F900 X118.265 Y121.687 E14.51866
G1 X118.782 Y121.56 E14.53194
G1 X119.252 Y121.313 E14.54518
G1 X119.649 Y120.961 E14.55842
G1 X119.952 Y120.524 E14.57168
G1 X120.139 Y120.027 E14.58493
G1 X120.203 Y119.5 E14.59817
G1 X120.139 Y118.973 E14.61142
G1 X119.952 Y118.476 E14.62466
G1 X119.649 Y118.039 E14.63793
G1 X119.252 Y117.687 E14.65116
G1 X118.782 Y117.44 E14.66441
G1 X118.265 Y117.313 E14.67769
G1 X117.735 Y117.313 E14.69091
G1 X117.218 Y117.44 E14.70419
G1 X116.748 Y117.687 E14.71743
G1 X116.351 Y118.039 E14.73067
G1 X116.048 Y118.476 E14.74393
G1 X115.861 Y118.973 E14.75718
G1 X115.797 Y119.5 E14.77042
G1 X115.861 Y120.027 E14.78366
G1 X116.048 Y120.524 E14.79691
G1 X116.351 Y120.961 E14.81018
G1 X116.748 Y121.313 E14.82341
G1 X117.218 Y121.56 E14.83666
G1 X117.735 Y121.687 E14.84994
G0 F6000 X117.771 Y121.387
;TYPE:WALL-OUTER
G1 F900 X118.229 Y121.387 E14.86136
G1 X118.675 Y121.277 E14.87282
G1 X119.08 Y121.064 E14.88423
G1 X119.423 Y120.76 E14.89567
G1 X119.684 Y120.383 E14.90711
G1 X119.846 Y119.955 E14.91852
G1 X119.901 Y119.5 E14.92995
G1 X119.846 Y119.045 E14.94139
G1 X119.684 Y118.617 E14.9528
G1 X119.423 Y118.24 E14.96424
G1 X119.08 Y117.936 E14.97567
G1 X118.675 Y117.723 E14.98709
G1 X118.229 Y117.613 E14.99855
G1 X117.771 Y117.613 E15.00997
G1 X117.325 Y117.723 E15.02143
G1 X116.92 Y117.936 E15.03285
G1 X116.577 Y118.24 E15.04428
G1 X116.316 Y118.617 E15.05572
G1 X116.154 Y119.045 E15.06713
G1 X116.099 Y119.5 E15.07856
G1 X116.154 Y119.955 E15.09
G1 X116.316 Y120.383 E15.10141
G1 X116.577 Y120.76 E15.11285
G1 X116.92 Y121.064 E15.12428
G1 X117.325 Y121.277 E15.1357
G1 X117.771 Y121.387 E15.14716
G0 F6000 X117.732 Y121.714
G1 F2700 E10.14716
G0 F6000 X115.137 Y120.205
G0 X116.95 Y119.761
G0 X110.117 Y117.388
G0 X111.188 Y118.944
G0 X109.837 Y119.287
;TYPE:WALL-INNER
G1 F2700 E15.14716
G1 F900 X110.496 Y119.126 E15.16408
G1 X111.096 Y118.811 E15.18098
G1 X111.601 Y118.363 E15.19782
G1 X111.988 Y117.804 E15.21478
G1 X112.225 Y117.171 E15.23165
G1 X112.307 Y116.5 E15.24851
G1 X112.225 Y115.829 E15.26537
G1 X111.988 Y115.196 E15.28223
G1 X111.601 Y114.637 E15.29919
G1 X111.096 Y114.189 E15.31603
G1 X110.496 Y113.874 E15.33294
G1 X109.837 Y113.713 E15.34986
G1 X109.163 Y113.713 E15.36667
G1 X108.504 Y113.874 E15.38359
G1 X107.904 Y114.189 E15.4005
G1 X107.399 Y114.637 E15.41734
G1 X107.012 Y115.196 E15.4343
G1 X106.775 Y115.829 E15.45116
G1 X106.693 Y116.5 E15.46802
G1 X106.775 Y117.171 E15.48488
G1 X107.012 Y117.804 E15.50174
G1 X107.399 Y118.363 E15.5187
G1 X107.904 Y118.811 E15.53554
G1 X108.504 Y119.126 E15.55245
G1 X109.163 Y119.287 E15.56937
G1 X109.837 Y119.287 E15.58618
G0 F6000 X109.801 Y118.987
G1 F900 X110.389 Y118.843 E15.60128
G1 X110.924 Y118.562 E15.61636
G1 X111.375 Y118.162 E15.6314
G1 X111.72 Y117.664 E15.64651
G1 X111.932 Y117.099 E15.66156
G1 X112.005 Y116.5 E15.67662
G1 X111.932 Y115.901 E15.69167
G1 X111.72 Y115.336 E15.70672
G1 X111.375 Y114.838 E15.72183
G1 X110.924 Y114.438 E15.73687
G1 X110.389 Y114.157 E15.75195
G1 X109.801 Y114.013 E15.76705
G1 X109.199 Y114.013 E15.78206
G1 X108.611 Y114.157 E15.79717
G1 X108.076 Y114.438 E15.81224
G1 X107.625 Y114.838 E15.82728
G1 X107.28 Y115.336 E15.84239
G1 X107.068 Y115.901 E15.85744
G1 X106.995 Y116.5 E15.8725
G1 X107.068 Y117.099 E15.88755
G1 X107.28 Y117.664 E15.9026
G1 X107.625 Y118.162 E15.91771
G1 X108.076 Y118.562 E15.93275
G1 X108.611 Y118.843 E15.94783
G1 X109.199 Y118.987 E15.96293
G1 X109.801 Y118.987 E15.97794
G0 F6000 X109.765 Y118.687
G1 F900 X110.282 Y118.56 E15.99122
G1 X110.752 Y118.313 E16.00447
G1 X111.149 Y117.961 E16.0177
G1 X111.452 Y117.524 E16.03097
G1 X111.639 Y117.027 E16.04422
G1 X111.703 Y116.5 E16.05746
G1 X111.639 Y115.973 E16.0707
G1 X111.452 Y115.476 E16.08395
G1 X111.149 Y115.039 E16.09721
G1 X110.752 Y114.687 E16.11045
G1 X110.282 Y114.44 E16.12369
G1 X109.765 Y114.313 E16.13697
G1 X109.235 Y114.313 E16.15019
G1 X108.718 Y114.44 E16.16347
G1 X108.248 Y114.687 E16.17672
G1 X107.851 Y115.039 E16.18995
G1 X107.548 Y115.476 E16.20322
G1 X107.361 Y115.973 E16.21646
G1 X107.297 Y116.5 E16.22971
G1 X107.361 Y117.027 E16.24295
G1 X107.548 Y117.524 E16.2562
G1 X107.851 Y117.961 E16.26946
G1 X108.248 Y118.313 E16.2827
G1 X108.718 Y118.56 E16.29594
G1 X109.235 Y118.687 E16.30922
G1 X109.765 Y118.687 E16.32244
G0 F6000 X109.729 Y118.387
;TYPE:WALL-OUTER
G1 F900 X110.175 Y118.277 E16.3339
G1 X110.58 Y118.064 E16.34532
G1 X110.923 Y117.76 E16.35675
G1 X111.184 Y117.383 E16.36819
G1 X111.346 Y116.955 E16.3796
G1 X111.401 Y116.5 E16.39104
G1 X111.346 Y116.045 E16.40247
G1 X111.184 Y115.617 E16.41388
G1 X110.923 Y115.24 E16.42532
G1 X110.58 Y114.936 E16.43675
G1 X110.175 Y114.723 E16.44817
G1 X109.729 Y114.613 E16.45963
G1 X109.271 Y114.613 E16.47105
G1 X108.825 Y114.723 E16.48251
G1 X108.42 Y114.936 E16.49393
G1 X108.077 Y115.24 E16.50536
G1 X107.816 Y115.617 E16.5168
G1 X107.654 Y116.045 E16.52821
G1 X107.599 Y116.5 E16.53965
G1 X107.654 Y116.955 E16.55108
G1 X107.816 Y117.383 E16.56249
G1 X108.077 Y117.76 E16.57393
G1 X108.42 Y118.064 E16.58537
G1 X108.825 Y118.277 E16.59678
G1 X109.271 Y118.387 E16.60824
G1 X109.729 Y118.387 E16.61966
G0 F6000 X109.768 Y118.714
G1 F2700 E11.61966
G0 F6000 X109.856 Y119.447
G0 X110.454 Y121.741
G0 X109.469 Y124
G0 X109.408 Y124.5
G0 X109.469 Y125
G0 X109.647 Y125.471
G0 X111.163 Y127.287
;TYPE:WALL-INNER
G1 F2700 E16.61966
G1 F900 X111.837 Y127.287 E16.63648
G1 X112.496 Y127.126 E16.6534
G1 X113.096 Y126.811 E16.6703
G1 X113.601 Y126.363 E16.68714
G1 X113.988 Y125.804 E16.7041
G1 X114.225 Y125.171 E16.72096
G1 X114.307 Y124.5 E16.73783
