;FLAVOR:Marlin
;TIME:4559
;Filament used: 2.18457m
;Layer height: 0.2
;MINX:72.335
;MINY:88.335
;MINZ:0.2
;MAXX:147.665
;MAXY:131.665
;MAXZ:3
;Generated with Cura_SteamEngine 4.13.1
M140 S70
M105
M190 S70
M104 S240
M105
M109 S240
M82 ;absolute extrusion mode
; Ender 3 Custom Start G-code
G92 E0 ; Reset Extruder
G28 ; Home all axes
G29 ; Auto bed-level (BL-Touch)
G1 Z2.0 F3000 ; Move Z Axis up little to prevent scratching of Heat Bed
G1 X0.1 Y20 Z0.3 F5000.0 ; Move to start position
G1 X0.1 Y200.0 Z0.3 F1500.0 E15 ; Draw the first line
G1 X0.4 Y200.0 Z0.3 F5000.0 ; Move to side a little
G1 X0.4 Y20 Z0.3 F1500.0 E30 ; Draw the second line
G92 E0 ; Reset Extruder
G1 Z2.0 F3000 ; Move Z Axis up little to prevent scratching of Heat Bed
G1 X5 Y20 Z0.3 F5000.0 ; Move over to prevent blob squish
G92 E0
G92 E0
G1 F2700 E-5
;LAYER_COUNT:15
;LAYER:0
M107
;MESH:FocuserRemoteCase-lid-Thin-Body.stl
G0 F6000 X141.093 Y128.393 Z0.2
;TYPE:WALL-INNER
G1 F2700 E0
G1 F900 X141.693 Y128.539 E0.0154
G1 X142.307 Y128.539 E0.03072
G1 X142.907 Y128.393 E0.04612
G1 X143.454 Y128.105 E0.06154
G1 X143.914 Y127.696 E0.0769
G1 X144.266 Y127.187 E0.09234
G1 X144.482 Y126.611 E0.10768
G1 X144.557 Y126 E0.12304
G1 X144.482 Y125.389 E0.13839
G1 X144.266 Y124.813 E0.15374
G1 X143.914 Y124.304 E0.16918
G1 X143.454 Y123.895 E0.18453
G1 X142.907 Y123.607 E0.19995
G1 X142.307 Y123.461 E0.21536
G1 X141.693 Y123.461 E0.23067
G1 X141.093 Y123.607 E0.24608
G1 X140.546 Y123.895 E0.2615
G1 X140.086 Y124.304 E0.27685
G1 X139.734 Y124.813 E0.29229
G1 X139.518 Y125.389 E0.30763
G1 X139.443 Y126 E0.32299
G1 X139.518 Y126.611 E0.33835
G1 X139.734 Y127.187 E0.35369
G1 X140.086 Y127.696 E0.36913
G1 X140.546 Y128.105 E0.38448
G1 X141.093 Y128.393 E0.3999
G0 F6000 X141.2 Y128.11
G1 F900 X141.729 Y128.239 E0.41349
G1 X142.271 Y128.239 E0.42701
G1 X142.8 Y128.11 E0.44059
G1 X143.282 Y127.856 E0.45418
G1 X143.688 Y127.496 E0.46772
G1 X143.998 Y127.047 E0.48133
G1 X144.189 Y126.539 E0.49486
G1 X144.255 Y126 E0.50841
G1 X144.189 Y125.461 E0.52196
G1 X143.998 Y124.953 E0.53549
G1 X143.688 Y124.504 E0.5491
G1 X143.282 Y124.144 E0.56264
G1 X142.8 Y123.89 E0.57623
G1 X142.271 Y123.761 E0.58981
G1 X141.729 Y123.761 E0.60333
G1 X141.2 Y123.89 E0.61692
G1 X140.718 Y124.144 E0.63051
G1 X140.312 Y124.504 E0.64404
G1 X140.002 Y124.953 E0.65765
G1 X139.811 Y125.461 E0.67119
G1 X139.745 Y126 E0.68474
G1 X139.811 Y126.539 E0.69828
G1 X140.002 Y127.047 E0.71182
G1 X140.312 Y127.496 E0.72543
G1 X140.718 Y127.856 E0.73897
G1 X141.2 Y128.11 E0.75256
G0 F6000 X141.307 Y127.827
G1 F900 X141.765 Y127.939 E0.76432
G1 X142.235 Y127.939 E0.77605
G1 X142.693 Y127.827 E0.78781
G1 X143.11 Y127.607 E0.79957
G1 X143.462 Y127.296 E0.81128
G1 X143.73 Y126.907 E0.82307
G1 X143.896 Y126.467 E0.8348
G1 X143.953 Y126 E0.84653
G1 X143.896 Y125.533 E0.85827
G1 X143.73 Y125.093 E0.87
G1 X143.462 Y124.704 E0.88179
G1 X143.11 Y124.393 E0.8935
G1 X142.693 Y124.173 E0.90526
G1 X142.235 Y124.061 E0.91702
G1 X141.765 Y124.061 E0.92875
G1 X141.307 Y124.173 E0.94051
G1 X140.89 Y124.393 E0.95227
G1 X140.538 Y124.704 E0.96399
G1 X140.27 Y125.093 E0.97577
G1 X140.104 Y125.533 E0.9875
G1 X140.047 Y126 E0.99924
G1 X140.104 Y126.467 E1.01097
G1 X140.27 Y126.907 E1.02271
G1 X140.538 Y127.296 E1.03449
G1 X140.89 Y127.607 E1.04621
G1 X141.307 Y127.827 E1.05797
G0 F6000 X141.414 Y127.544
;TYPE:WALL-OUTER
G1 F900 X141.801 Y127.639 E1.06791
G1 X142.199 Y127.639 E1.07784
G1 X142.586 Y127.544 E1.08778
G1 X142.938 Y127.358 E1.09771
G1 X143.236 Y127.095 E1.10762
G1 X143.462 Y126.767 E1.11756
G1 X143.603 Y126.395 E1.12748
G1 X143.651 Y126 E1.13741
G1 X143.603 Y125.605 E1.14733
G1 X143.462 Y125.233 E1.15726
G1 X143.236 Y124.905 E1.16719
G1 X142.938 Y124.642 E1.17711
G1 X142.586 Y124.456 E1.18704
G1 X142.199 Y124.361 E1.19698
G1 X141.801 Y124.361 E1.20691
G1 X141.414 Y124.456 E1.21685
G1 X141.062 Y124.642 E1.22678
G1 X140.764 Y124.905 E1.23669
G1 X140.538 Y125.233 E1.24663
G1 X140.397 Y125.605 E1.25655
G1 X140.349 Y126 E1.26648
G1 X140.397 Y126.395 E1.27641
G1 X140.538 Y126.767 E1.28633
G1 X140.764 Y127.095 E1.29627
G1 X141.062 Y127.358 E1.30618
G1 X141.414 Y127.544 E1.31611
G0 F6000 X141.297 Y127.852
G1 F2700 E-3.68389
G0 F6000 X140.751 Y127.342
G0 X139.381 Y125.355
G0 X141.193 Y125.8
G0 X135.293 Y120.778
G0 X135.957 Y122.526
G0 X134.093 Y122.393
;TYPE:WALL-INNER
G1 F2700 E1.31611
G1 F900 X134.693 Y122.539 E1.33151
G1 X135.307 Y122.539 E1.34683
G1 X135.907 Y122.393 E1.36223
G1 X136.454 Y122.105 E1.37766
G1 X136.914 Y121.696 E1.39301
G1 X137.266 Y121.187 E1.40845
G1 X137.482 Y120.611 E1.42379
G1 X137.557 Y120 E1.43915
G1 X137.482 Y119.389 E1.4545
G1 X137.266 Y118.813 E1.46985
G1 X136.914 Y118.304 E1.48529
G1 X136.454 Y117.895 E1.50064
G1 X135.907 Y117.607 E1.51606
G1 X135.307 Y117.461 E1.53147
G1 X134.693 Y117.461 E1.54678
G1 X134.093 Y117.607 E1.56219
G1 X133.55 Y117.893 E1.5775
G1 X133.55 Y102.107 E1.97128
G1 X134.093 Y102.393 E1.98659
G1 X134.693 Y102.539 E2.00199
G1 X135.307 Y102.539 E2.01731
G1 X135.907 Y102.393 E2.03271
G1 X136.454 Y102.105 E2.04813
G1 X136.914 Y101.696 E2.06349
G1 X137.266 Y101.187 E2.07893
G1 X137.482 Y100.611 E2.09427
G1 X137.557 Y100 E2.10963
G1 X137.482 Y99.389 E2.12498
G1 X137.266 Y98.813 E2.14033
G1 X136.914 Y98.304 E2.15577
G1 X136.454 Y97.895 E2.17112
G1 X135.907 Y97.607 E2.18654
G1 X135.307 Y97.461 E2.20194
G1 X134.693 Y97.461 E2.21726
G1 X134.093 Y97.607 E2.23266
G1 X133.55 Y97.893 E2.24797
G1 X133.55 Y95.95 E2.29644
G1 X113.45 Y95.95 E2.79784
G1 X113.45 Y97.893 E2.84631
G1 X112.907 Y97.607 E2.86162
G1 X112.307 Y97.461 E2.87702
G1 X111.693 Y97.461 E2.89234
G1 X111.093 Y97.607 E2.90774
G1 X110.546 Y97.895 E2.92316
G1 X110.086 Y98.304 E2.93851
G1 X109.734 Y98.813 E2.95395
G1 X109.518 Y99.389 E2.9693
G1 X109.443 Y100 E2.98465
G1 X109.518 Y100.611 E3.00001
G1 X109.734 Y101.187 E3.01535
G1 X110.086 Y101.696 E3.03079
G1 X110.546 Y102.105 E3.04615
G1 X111.093 Y102.393 E3.06157
G1 X111.693 Y102.539 E3.07697
G1 X112.307 Y102.539 E3.09229
G1 X112.907 Y102.393 E3.10769
G1 X113.45 Y102.107 E3.123
G1 X113.45 Y117.893 E3.51678
G1 X112.907 Y117.607 E3.53209
G1 X112.307 Y117.461 E3.5475
G1 X111.693 Y117.461 E3.56281
G1 X111.093 Y117.607 E3.57822
G1 X110.546 Y117.895 E3.59364
G1 X110.086 Y118.304 E3.60899
G1 X109.734 Y118.813 E3.62443
G1 X109.518 Y119.389 E3.63978
G1 X109.443 Y120 E3.65513
G1 X109.518 Y120.611 E3.67049
G1 X109.734 Y121.187 E3.68583
G1 X110.086 Y121.696 E3.70127
G1 X110.546 Y122.105 E3.71662
G1 X111.093 Y122.393 E3.73205
G1 X111.693 Y122.539 E3.74745
G1 X112.307 Y122.539 E3.76277
G1 X112.907 Y122.393 E3.77817
G1 X113.45 Y122.107 E3.79348
G1 X113.45 Y124.05 E3.84195
G1 X133.55 Y124.05 E4.34334
G1 X133.55 Y122.107 E4.39181
G1 X134.093 Y122.393 E4.40712
G0 F6000 X134.2 Y122.11
G1 F900 X134.729 Y122.239 E4.4207
G1 X135.271 Y122.239 E4.43422
G1 X135.8 Y122.11 E4.44781
G1 X136.282 Y121.856 E4.4614
G1 X136.688 Y121.496 E4.47493
G1 X136.998 Y121.047 E4.48854
G1 X137.189 Y120.539 E4.50208
G1 X137.255 Y120 E4.51563
G1 X137.189 Y119.461 E4.52917
G1 X136.998 Y118.953 E4.54271
G1 X136.688 Y118.504 E4.55632
G1 X136.282 Y118.144 E4.56986
G1 X135.8 Y117.89 E4.58345
G1 X135.271 Y117.761 E4.59703
G1 X134.729 Y117.761 E4.61055
G1 X134.2 Y117.89 E4.62413
G1 X133.718 Y118.144 E4.63772
G1 X133.312 Y118.504 E4.65126
G1 X133.25 Y118.594 E4.65399
G1 X133.25 Y101.406 E5.08274
G1 X133.312 Y101.496 E5.08547
G1 X133.718 Y101.856 E5.099
G1 X134.2 Y102.11 E5.1126
G1 X134.729 Y102.239 E5.12618
G1 X135.271 Y102.239 E5.1397
G1 X135.8 Y102.11 E5.15328
G1 X136.282 Y101.856 E5.16687
G1 X136.688 Y101.496 E5.18041
G1 X136.998 Y101.047 E5.19402
G1 X137.189 Y100.539 E5.20756
G1 X137.255 Y100 E5.2211
G1 X137.189 Y99.461 E5.23465
G1 X136.998 Y98.953 E5.24819
G1 X136.688 Y98.504 E5.2618
G1 X136.282 Y98.144 E5.27533
G1 X135.8 Y97.89 E5.28892
G1 X135.271 Y97.761 E5.30251
G1 X134.729 Y97.761 E5.31603
G1 X134.2 Y97.89 E5.32961
G1 X133.718 Y98.144 E5.3432
G1 X133.312 Y98.504 E5.35674
G1 X133.25 Y98.594 E5.35946
G1 X133.25 Y96.25 E5.41793
G1 X113.75 Y96.25 E5.90436
G1 X113.75 Y98.594 E5.96283
G1 X113.688 Y98.504 E5.96556
G1 X113.282 Y98.144 E5.9791
G1 X112.8 Y97.89 E5.99269
G1 X112.271 Y97.761 E6.00627
G1 X111.729 Y97.761 E6.01979
G1 X111.2 Y97.89 E6.03337
G1 X110.718 Y98.144 E6.04696
G1 X110.312 Y98.504 E6.0605
G1 X110.002 Y98.953 E6.07411
G1 X109.811 Y99.461 E6.08765
G1 X109.745 Y100 E6.10119
G1 X109.811 Y100.539 E6.11474
G1 X110.002 Y101.047 E6.12828
G1 X110.312 Y101.496 E6.14189
G1 X110.718 Y101.856 E6.15542
G1 X111.2 Y102.11 E6.16901
G1 X111.729 Y102.239 E6.1826
G1 X112.271 Y102.239 E6.19612
G1 X112.8 Y102.11 E6.2097
G1 X113.282 Y101.856 E6.22329
G1 X113.688 Y101.496 E6.23683
G1 X113.75 Y101.406 E6.23955
G1 X113.75 Y118.594 E6.66831
G1 X113.688 Y118.504 E6.67104
G1 X113.282 Y118.144 E6.68457
G1 X112.8 Y117.89 E6.69816
G1 X112.271 Y117.761 E6.71174
G1 X111.729 Y117.761 E6.72526
G1 X111.2 Y117.89 E6.73885
G1 X110.718 Y118.144 E6.75244
G1 X110.312 Y118.504 E6.76597
G1 X110.002 Y118.953 E6.77958
G1 X109.811 Y119.461 E6.79312
G1 X109.745 Y120 E6.80667
G1 X109.811 Y120.539 E6.82021
G1 X110.002 Y121.047 E6.83375
G1 X110.312 Y121.496 E6.84736
G1 X110.718 Y121.856 E6.8609
G1 X111.2 Y122.11 E6.87449
G1 X111.729 Y122.239 E6.88807
G1 X112.271 Y122.239 E6.90159
G1 X112.8 Y122.11 E6.91518
G1 X113.282 Y121.856 E6.92877
G1 X113.688 Y121.496 E6.9423
G1 X113.75 Y121.406 E6.94503
G1 X113.75 Y123.75 E7.0035
G1 X133.25 Y123.75 E7.48993
G1 X133.25 Y121.406 E7.5484
G1 X133.312 Y121.496 E7.55113
G1 X133.718 Y121.856 E7.56466
G1 X134.2 Y122.11 E7.57825
G0 F6000 X134.307 Y121.827
G1 F900 X134.765 Y121.939 E7.59001
G1 X135.235 Y121.939 E7.60174
G1 X135.693 Y121.827 E7.6135
G1 X136.11 Y121.607 E7.62526
G1 X136.462 Y121.296 E7.63698
G1 X136.73 Y120.907 E7.64876
G1 X136.896 Y120.467 E7.66049
G1 X136.953 Y120 E7.67223
G1 X136.896 Y119.533 E7.68396
G1 X136.73 Y119.093 E7.6957
G1 X136.462 Y118.704 E7.70748
G1 X136.11 Y118.393 E7.7192
G1 X135.693 Y118.173 E7.73096
G1 X135.235 Y118.061 E7.74272
G1 X134.765 Y118.061 E7.75444
G1 X134.307 Y118.173 E7.7662
G1 X133.89 Y118.393 E7.77796
G1 X133.538 Y118.704 E7.78968
G1 X133.27 Y119.093 E7.80147
G1 X133.104 Y119.533 E7.8132
G1 X133.047 Y120 E7.82493
G1 X133.104 Y120.467 E7.83667
G1 X133.27 Y120.907 E7.8484
G1 X133.538 Y121.296 E7.86018
G1 X133.89 Y121.607 E7.8719
G1 X134.307 Y121.827 E7.88366
G0 F6000 X134.414 Y121.544
;TYPE:WALL-OUTER
G1 F900 X134.801 Y121.639 E7.8936
G1 X135.199 Y121.639 E7.90353
G1 X135.586 Y121.544 E7.91347
G1 X135.938 Y121.358 E7.9234
G1 X136.236 Y121.095 E7.93332
G1 X136.462 Y120.767 E7.94325
G1 X136.603 Y120.395 E7.95318
G1 X136.651 Y120 E7.9631
G1 X136.603 Y119.605 E7.97303
G1 X136.462 Y119.233 E7.98295
G1 X136.236 Y118.905 E7.99289
G1 X135.938 Y118.642 E8.0028
G1 X135.586 Y118.456 E8.01273
G1 X135.199 Y118.361 E8.02267
G1 X134.801 Y118.361 E8.0326
G1 X134.414 Y118.456 E8.04254
G1 X134.062 Y118.642 E8.05247
G1 X133.764 Y118.905 E8.06239
G1 X133.538 Y119.233 E8.07232
G1 X133.397 Y119.605 E8.08225
G1 X133.349 Y120 E8.09217
G1 X133.397 Y120.395 E8.1021
G1 X133.538 Y120.767 E8.11202
G1 X133.764 Y121.095 E8.12196
G1 X134.062 Y121.358 E8.13187
G1 X134.414 Y121.544 E8.1418
G0 F6000 X134.297 Y121.852
G1 F2700 E3.1418
G0 F6000 X133.622 Y121.221
G0 X133.369 Y120.855
G0 X133.212 Y120.44
G0 X133.158 Y120
G0 X133.212 Y119.56
G0 X133.369 Y119.145
G0 X133.622 Y118.779
G0 X133.89 Y118.543
G0 X135.957 Y117.474
G0 X135.293 Y119.222
G0 X141.707 Y94.778
G0 X141.047 Y96.527
G0 X141.093 Y96.393
;TYPE:WALL-INNER
G1 F2700 E8.1418
G1 F900 X141.693 Y96.539 E8.15721
G1 X142.307 Y96.539 E8.17252
G1 X142.907 Y96.393 E8.18793
G1 X143.454 Y96.105 E8.20335
G1 X143.914 Y95.696 E8.2187
G1 X144.266 Y95.187 E8.23414
G1 X144.482 Y94.611 E8.24949
G1 X144.557 Y94 E8.26484
G1 X144.482 Y93.389 E8.2802
G1 X144.266 Y92.813 E8.29554
G1 X143.914 Y92.304 E8.31098
G1 X143.454 Y91.895 E8.32634
G1 X142.907 Y91.607 E8.34176
G1 X142.307 Y91.461 E8.35716
G1 X141.693 Y91.461 E8.37248
G1 X141.093 Y91.607 E8.38788
G1 X140.546 Y91.895 E8.4033
G1 X140.086 Y92.304 E8.41866
G1 X139.734 Y92.813 E8.43409
G1 X139.518 Y93.389 E8.44944
G1 X139.443 Y94 E8.46479
G1 X139.518 Y94.611 E8.48015
G1 X139.734 Y95.187 E8.4955
G1 X140.086 Y95.696 E8.51093
G1 X140.546 Y96.105 E8.52629
G1 X141.093 Y96.393 E8.54171
G0 F6000 X141.2 Y96.11
G1 F900 X141.729 Y96.239 E8.55529
G1 X142.271 Y96.239 E8.56881
G1 X142.8 Y96.11 E8.58239
G1 X143.282 Y95.856 E8.59598
G1 X143.688 Y95.496 E8.60952
G1 X143.998 Y95.047 E8.62313
G1 X144.189 Y94.539 E8.63667
G1 X144.255 Y94 E8.65021
G1 X144.189 Y93.461 E8.66376
G1 X143.998 Y92.953 E8.6773
G1 X143.688 Y92.504 E8.69091
G1 X143.282 Y92.144 E8.70445
G1 X142.8 Y91.89 E8.71804
G1 X142.271 Y91.761 E8.73162
G1 X141.729 Y91.761 E8.74514
G1 X141.2 Y91.89 E8.75872
G1 X140.718 Y92.144 E8.77231
G1 X140.312 Y92.504 E8.78585
G1 X140.002 Y92.953 E8.79946
G1 X139.811 Y93.461 E8.813
G1 X139.745 Y94 E8.82654
G1 X139.811 Y94.539 E8.84009
G1 X140.002 Y95.047 E8.85363
G1 X140.312 Y95.496 E8.86724
G1 X140.718 Y95.856 E8.88077
G1 X141.2 Y96.11 E8.89436
G0 F6000 X141.307 Y95.827
G1 F900 X141.765 Y95.939 E8.90613
G1 X142.235 Y95.939 E8.91785
G1 X142.693 Y95.827 E8.92961
G1 X143.11 Y95.607 E8.94137
G1 X143.462 Y95.296 E8.95309
G1 X143.73 Y94.907 E8.96487
G1 X143.896 Y94.467 E8.9766
G1 X143.953 Y94 E8.98834
G1 X143.896 Y93.533 E9.00008
G1 X143.73 Y93.093 E9.01181
G1 X143.462 Y92.704 E9.02359
G1 X143.11 Y92.393 E9.03531
G1 X142.693 Y92.173 E9.04707
G1 X142.235 Y92.061 E9.05883
G1 X141.765 Y92.061 E9.07055
G1 X141.307 Y92.173 E9.08231
G1 X140.89 Y92.393 E9.09408
G1 X140.538 Y92.704 E9.10579
G1 X140.27 Y93.093 E9.11758
G1 X140.104 Y93.533 E9.12931
G1 X140.047 Y94 E9.14104
G1 X140.104 Y94.467 E9.15278
G1 X140.27 Y94.907 E9.16451
G1 X140.538 Y95.296 E9.17629
G1 X140.89 Y95.607 E9.18801
G1 X141.307 Y95.827 E9.19977
G0 F6000 X141.414 Y95.544
;TYPE:WALL-OUTER
G1 F900 X141.801 Y95.639 E9.20971
G1 X142.199 Y95.639 E9.21964
G1 X142.586 Y95.544 E9.22958
G1 X142.938 Y95.358 E9.23951
G1 X143.236 Y95.095 E9.24943
G1 X143.462 Y94.767 E9.25936
G1 X143.603 Y94.395 E9.26929
G1 X143.651 Y94 E9.27921
G1 X143.603 Y93.605 E9.28914
G1 X143.462 Y93.233 E9.29906
G1 X143.236 Y92.905 E9.309
G1 X142.938 Y92.642 E9.31891
G1 X142.586 Y92.456 E9.32884
G1 X142.199 Y92.361 E9.33878
G1 X141.801 Y92.361 E9.34871
G1 X141.414 Y92.456 E9.35865
G1 X141.062 Y92.642 E9.36858
G1 X140.764 Y92.905 E9.3785
G1 X140.538 Y93.233 E9.38843
G1 X140.397 Y93.605 E9.39836
G1 X140.349 Y94 E9.40828
G1 X140.397 Y94.395 E9.41821
G1 X140.538 Y94.767 E9.42813
G1 X140.764 Y95.095 E9.43807
G1 X141.062 Y95.358 E9.44798
G1 X141.414 Y95.544 E9.45792
G0 F6000 X141.297 Y95.852
G1 F2700 E4.45792
G0 F6000 X139.979 Y95.79
G0 X141.377 Y94.551
G0 X135.623 Y99.449
G0 X137.021 Y98.21
G0 X136.788 Y100.44
G0 X136.631 Y100.855
G0 X136.378 Y101.221
G0 X136.046 Y101.514
G0 X135.654 Y101.722
G0 X135.304 Y101.807
G0 X134.307 Y101.827
;TYPE:WALL-INNER
G1 F2700 E9.45792
G1 F900 X134.765 Y101.939 E9.46968
G1 X135.235 Y101.939 E9.4814
G1 X135.693 Y101.827 E9.49316
G1 X136.11 Y101.607 E9.50492
G1 X136.462 Y101.296 E9.51664
G1 X136.73 Y100.907 E9.52842
G1 X136.896 Y100.467 E9.54016
G1 X136.953 Y100 E9.55189
G1 X136.896 Y99.533 E9.56363
G1 X136.73 Y99.093 E9.57536
G1 X136.462 Y98.704 E9.58714
G1 X136.11 Y98.393 E9.59886
G1 X135.693 Y98.173 E9.61062
G1 X135.235 Y98.061 E9.62238
G1 X134.765 Y98.061 E9.63411
G1 X134.307 Y98.173 E9.64587
G1 X133.89 Y98.393 E9.65763
G1 X133.538 Y98.704 E9.66934
G1 X133.27 Y99.093 E9.68113
G1 X133.104 Y99.533 E9.69286
G1 X133.047 Y100 E9.70459
G1 X133.104 Y100.467 E9.71633
G1 X133.27 Y100.907 E9.72806
G1 X133.538 Y101.296 E9.73985
G1 X133.89 Y101.607 E9.75156
G1 X134.307 Y101.827 E9.76332
G0 F6000 X134.414 Y101.544
;TYPE:WALL-OUTER
G1 F900 X134.801 Y101.639 E9.77326
G1 X135.199 Y101.639 E9.78319
G1 X135.586 Y101.544 E9.79313
G1 X135.938 Y101.358 E9.80306
G1 X136.236 Y101.095 E9.81298
G1 X136.462 Y100.767 E9.82291
G1 X136.603 Y100.395 E9.83284
G1 X136.651 Y100 E9.84276
G1 X136.603 Y99.605 E9.85269
G1 X136.462 Y99.233 E9.86261
G1 X136.236 Y98.905 E9.87255
G1 X135.938 Y98.642 E9.88246
G1 X135.586 Y98.456 E9.8924
